;FLAVOR:Marlin
;TIME:1898
;Filament used: 1.67724m
;Layer height: 0.2
;Generated with Cura_SteamEngine 3.6.0
M140 S60
M105
M190 S60
M104 S200
M105
M109 S200
M82 ;absolute extrusion mode
; Ender 3 Custom Start G-code
G28 ; Home all axes
G92 E0 ; Reset Extruder
G1 Z2.0 F3000 ; Move Z Axis up little to prevent scratching of Heat Bed
G1 X0.1 Y20 Z0.3 F5000.0 ; Move to start position
G1 X0.1 Y200.0 Z0.3 F1500.0 E15 ; Draw the first line
G1 X0.4 Y200.0 Z0.3 F5000.0 ; Move to side a little
G1 X0.4 Y20 Z0.3 F1500.0 E30 ; Draw the second line
G92 E0 ; Reset Extruder
G1 Z2.0 F3000 ; Move Z Axis up little to prevent scratching of Heat Bed
; End of custom start GCode
G92 E0
G1 F2400 E-5
;LAYER_COUNT:63
;LAYER:0
M107
M204 S5000
M205 X30 Y30
G0 F3600 X88.364 Y85.964 Z0.2
M204 S500
M205 X20 Y20
;TYPE:SKIRT
G1 F2400 E0
G1 F1800 X88.444 Y85.885 E0.00374
G1 X88.93 Y85.414 E0.02625
G1 X89.471 Y84.946 E0.05004
G1 X90.06 Y84.541 E0.07382
G1 X90.691 Y84.204 E0.09761
G1 X91.356 Y83.94 E0.12141
G1 X92.046 Y83.751 E0.1452
G1 X92.753 Y83.641 E0.169
G1 X93.384 Y83.61 E0.19001
G1 X129.615 Y83.61 E1.39506
G1 X130.329 Y83.65 E1.41884
G1 X131.034 Y83.769 E1.44262
G1 X131.722 Y83.967 E1.46644
G1 X132.383 Y84.24 E1.49022
G1 X133.01 Y84.584 E1.51401
G1 X133.594 Y84.997 E1.5378
G1 X134.148 Y85.492 E1.56251
G1 X138.526 Y89.885 E1.76879
G1 X139.002 Y90.419 E1.79258
G1 X139.415 Y91.003 E1.81637
G1 X139.761 Y91.629 E1.84016
G1 X140.034 Y92.29 E1.86395
G1 X140.232 Y92.978 E1.88776
G1 X140.373 Y93.896 E1.91865
G1 X140.556 Y96.202 E1.99559
G1 X141.199 Y101.517 E2.17366
G1 X142.127 Y106.711 E2.34915
G1 X143.349 Y111.853 E2.52493
G1 X144.873 Y116.96 E2.70219
G1 X147.004 Y122.819 E2.90955
G1 X147.211 Y123.504 E2.93335
G1 X147.34 Y124.207 E2.95713
G1 X147.386 Y125.228 E2.99112
G1 X147.286 Y128.124 E3.0875
G1 X147.278 Y128.288 E3.09296
G1 X147.139 Y130.598 E3.16993
G1 X147.039 Y135.961 E3.34834
G1 X147.245 Y141.398 E3.5293
G1 X147.384 Y144.724 E3.64002
G1 X147.374 Y145.439 E3.6638
G1 X147.284 Y146.149 E3.68761
G1 X147.116 Y146.844 E3.71139
G1 X146.871 Y147.516 E3.73518
G1 X146.553 Y148.156 E3.75895
G1 X146.165 Y148.757 E3.78274
G1 X145.712 Y149.311 E3.80654
G1 X145.201 Y149.811 E3.83032
G1 X144.636 Y150.251 E3.85414
G1 X144.027 Y150.625 E3.87791
G1 X143.379 Y150.928 E3.9017
G1 X142.702 Y151.158 E3.92548
G1 X142.003 Y151.31 E3.94928
G1 X140.989 Y151.391 E3.98311
G1 X129.623 Y151.39 E4.36114
G1 X128.909 Y151.35 E4.38493
G1 X128.204 Y151.23 E4.40871
G1 X127.517 Y151.033 E4.43248
G1 X126.863 Y150.764 E4.456
G1 X125.094 Y149.918 E4.52122
G1 X120.22 Y147.802 E4.69795
G1 X115.225 Y145.963 E4.87499
G1 X110.169 Y144.419 E5.05082
G1 X104.948 Y143.142 E5.22959
G1 X102.461 Y142.647 E5.31393
G1 X97.18 Y141.823 E5.4917
G1 X92.717 Y141.355 E5.64095
G1 X92.011 Y141.241 E5.66474
G1 X91.322 Y141.049 E5.68853
G1 X90.659 Y140.781 E5.71231
G1 X90.03 Y140.44 E5.73611
G1 X89.442 Y140.032 E5.75992
G1 X88.867 Y139.524 E5.78543
G1 X84.964 Y135.636 E5.96867
G1 X84.89 Y135.561 E5.97217
G1 X84.419 Y135.076 E5.99466
G1 X83.95 Y134.536 E6.01845
G1 X83.544 Y133.946 E6.04227
G1 X83.207 Y133.316 E6.06603
G1 X82.942 Y132.651 E6.08984
G1 X82.753 Y131.962 E6.1136
G1 X82.642 Y131.255 E6.13741
G1 X82.61 Y130.622 E6.15849
G1 X82.6 Y117.712 E6.58787
G1 X82.603 Y117.497 E6.59503
G1 X82.778 Y112.171 E6.77227
G1 X82.776 Y109.592 E6.85804
G1 X82.614 Y105.255 E7.00239
G1 X82.61 Y105.016 E7.01034
G1 X82.61 Y94.384 E7.36397
G1 X82.65 Y93.67 E7.38775
G1 X82.769 Y92.965 E7.41153
G1 X82.967 Y92.277 E7.43534
G1 X83.24 Y91.616 E7.45913
G1 X83.584 Y90.989 E7.48291
G1 X83.997 Y90.405 E7.50671
G1 X84.476 Y89.867 E7.53066
G1 X88.364 Y85.964 E7.7139
M204 S5000
M205 X30 Y30
G0 F3600 X88.647 Y86.247
M204 S500
M205 X20 Y20
G1 F1800 X88.722 Y86.172 E7.71742
G1 X89.208 Y85.701 E7.73993
G1 X89.733 Y85.249 E7.76298
G1 X90.306 Y84.86 E7.78601
G1 X90.92 Y84.539 E7.80905
G1 X91.566 Y84.292 E7.83206
G1 X92.237 Y84.121 E7.85509
G1 X92.924 Y84.028 E7.87815
G1 X93.384 Y84.01 E7.89346
G1 X129.615 Y84.01 E9.09851
G1 X130.306 Y84.05 E9.12153
G1 X130.989 Y84.169 E9.14459
G1 X131.652 Y84.367 E9.1676
G1 X132.289 Y84.639 E9.19064
G1 X132.89 Y84.983 E9.21367
G1 X133.448 Y85.394 E9.23672
G1 X133.865 Y85.775 E9.25551
G1 X138.243 Y90.168 E9.46179
G1 X138.703 Y90.686 E9.48483
G1 X139.1 Y91.253 E9.50785
G1 X139.429 Y91.862 E9.53087
G1 X139.685 Y92.506 E9.55392
G1 X139.866 Y93.174 E9.57694
G1 X139.974 Y93.927 E9.60224
G1 X140.157 Y96.234 E9.67921
G1 X140.804 Y101.585 E9.85849
G1 X141.737 Y106.803 E10.03479
G1 X142.958 Y111.939 E10.21037
G1 X144.49 Y117.075 E10.38864
G1 X146.629 Y122.956 E10.59678
G1 X146.827 Y123.619 E10.61979
G1 X146.948 Y124.301 E10.64283
G1 X146.986 Y125.214 E10.67322
G1 X146.886 Y128.11 E10.7696
G1 X146.879 Y128.264 E10.77473
G1 X146.739 Y130.591 E10.85226
G1 X146.639 Y135.95 E11.03053
G1 X146.846 Y141.414 E11.2124
G1 X146.985 Y144.74 E11.32312
G1 X146.974 Y145.433 E11.34617
G1 X146.883 Y146.119 E11.36919
G1 X146.714 Y146.791 E11.39223
G1 X146.468 Y147.439 E11.41529
G1 X146.15 Y148.053 E11.43828
G1 X145.762 Y148.628 E11.46136
G1 X145.311 Y149.153 E11.48438
G1 X144.803 Y149.624 E11.50742
G1 X144.244 Y150.032 E11.53043
G1 X143.641 Y150.373 E11.55348
G1 X143.003 Y150.643 E11.57652
G1 X142.339 Y150.837 E11.59953
G1 X141.656 Y150.954 E11.62257
G1 X140.989 Y150.991 E11.64479
G1 X129.623 Y150.99 E12.02283
G1 X128.932 Y150.95 E12.04585
G1 X128.25 Y150.831 E12.06887
G1 X127.586 Y150.633 E12.09192
G1 X127.035 Y150.403 E12.11178
G1 X125.28 Y149.564 E12.17648
G1 X120.36 Y147.427 E12.35489
G1 X115.343 Y145.58 E12.5327
G1 X110.271 Y144.031 E12.70909
G1 X105.051 Y142.755 E12.88782
G1 X102.528 Y142.252 E12.97339
G1 X97.225 Y141.425 E13.1519
G1 X92.759 Y140.957 E13.30125
G1 X92.075 Y140.845 E13.3243
G1 X91.409 Y140.656 E13.34733
G1 X90.769 Y140.39 E13.37038
G1 X90.165 Y140.053 E13.39338
G1 X89.603 Y139.648 E13.41642
G1 X89.15 Y139.241 E13.43668
G1 X85.247 Y135.353 E13.61991
G1 X85.177 Y135.282 E13.62323
G1 X84.706 Y134.797 E13.64571
G1 X84.253 Y134.273 E13.66875
G1 X83.863 Y133.701 E13.69178
G1 X83.542 Y133.087 E13.71482
G1 X83.294 Y132.441 E13.73784
G1 X83.122 Y131.77 E13.76088
G1 X83.028 Y131.084 E13.78391
G1 X83.01 Y130.622 E13.79928
G1 X83 Y117.712 E14.22867
G1 X83.003 Y117.51 E14.23539
G1 X83.178 Y112.184 E14.41263
G1 X83.176 Y109.577 E14.49934
G1 X83.014 Y105.24 E14.64369
G1 X83.01 Y105.016 E14.65114
G1 X83.01 Y94.384 E15.00476
G1 X83.05 Y93.693 E15.02778
G1 X83.169 Y93.01 E15.05084
G1 X83.367 Y92.347 E15.07386
G1 X83.639 Y91.71 E15.09689
G1 X83.983 Y91.109 E15.11993
G1 X84.394 Y90.551 E15.14298
G1 X84.759 Y90.15 E15.16101
G1 X88.647 Y86.247 E15.34424
M204 S5000
M205 X30 Y30
G0 F3600 X88.931 Y86.529
M204 S500
M205 X20 Y20
G1 F1800 X89.001 Y86.46 E15.34751
G1 X89.487 Y85.989 E15.37002
G1 X89.994 Y85.553 E15.39226
G1 X90.55 Y85.18 E15.41453
G1 X91.146 Y84.877 E15.43677
G1 X91.774 Y84.646 E15.45903
G1 X92.425 Y84.493 E15.48127
G1 X93.384 Y84.41 E15.51328
G1 X129.615 Y84.41 E16.71833
G1 X130.283 Y84.45 E16.74059
G1 X130.941 Y84.569 E16.76283
G1 X131.581 Y84.766 E16.7851
G1 X132.192 Y85.038 E16.80735
G1 X132.766 Y85.381 E16.82959
G1 X133.296 Y85.79 E16.85185
G1 X133.582 Y86.057 E16.86487
G1 X137.96 Y90.45 E17.07115
G1 X138.403 Y90.951 E17.09339
G1 X138.783 Y91.502 E17.11565
G1 X139.095 Y92.094 E17.13791
G1 X139.334 Y92.719 E17.16017
G1 X139.496 Y93.367 E17.18238
G1 X139.575 Y93.959 E17.20225
G1 X139.76 Y96.289 E17.27999
G1 X140.404 Y101.614 E17.45839
G1 X141.348 Y106.894 E17.63678
G1 X142.575 Y112.057 E17.81329
G1 X144.107 Y117.195 E17.99161
G1 X146.253 Y123.093 E18.20036
G1 X146.443 Y123.734 E18.2226
G1 X146.556 Y124.393 E18.24484
G1 X146.587 Y125.2 E18.2717
G1 X146.487 Y128.096 E18.36808
G1 X146.48 Y128.24 E18.37287
G1 X146.339 Y130.583 E18.45094
G1 X146.239 Y135.958 E18.62975
G1 X146.446 Y141.431 E18.81191
G1 X146.585 Y144.757 E18.92263
G1 X146.573 Y145.426 E18.94489
G1 X146.481 Y146.089 E18.96715
G1 X146.311 Y146.736 E18.9894
G1 X146.065 Y147.358 E19.01164
G1 X145.747 Y147.946 E19.03388
G1 X145.36 Y148.493 E19.05616
G1 X144.912 Y148.989 E19.07839
G1 X144.407 Y149.428 E19.10065
G1 X143.853 Y149.804 E19.12292
G1 X143.259 Y150.111 E19.14516
G1 X142.632 Y150.345 E19.16742
G1 X141.982 Y150.502 E19.18966
G1 X140.99 Y150.591 E19.22279
G1 X129.624 Y150.59 E19.60082
G1 X128.956 Y150.55 E19.62308
G1 X128.297 Y150.431 E19.64535
G1 X127.658 Y150.234 E19.66759
G1 X127.208 Y150.042 E19.68386
G1 X125.455 Y149.204 E19.74849
G1 X120.5 Y147.052 E19.92816
G1 X115.487 Y145.207 E20.10583
G1 X110.377 Y143.646 E20.28354
G1 X105.111 Y142.358 E20.46385
G1 X102.617 Y141.862 E20.54843
G1 X97.271 Y141.028 E20.72839
G1 X92.8 Y140.559 E20.87791
G1 X92.14 Y140.45 E20.90016
G1 X91.498 Y140.263 E20.9224
G1 X90.883 Y140 E20.94465
G1 X90.303 Y139.666 E20.96691
G1 X89.767 Y139.265 E20.98917
G1 X89.432 Y138.957 E21.00431
G1 X85.529 Y135.069 E21.18754
G1 X85.464 Y135.003 E21.19062
G1 X84.993 Y134.518 E21.21311
G1 X84.556 Y134.011 E21.23537
G1 X84.183 Y133.456 E21.25761
G1 X83.879 Y132.86 E21.27986
G1 X83.648 Y132.232 E21.30212
G1 X83.494 Y131.581 E21.32437
G1 X83.41 Y130.621 E21.35642
G1 X83.4 Y117.711 E21.78581
G1 X83.403 Y117.523 E21.79206
G1 X83.578 Y112.196 E21.96934
G1 X83.576 Y109.562 E22.05694
G1 X83.414 Y105.225 E22.20129
G1 X83.41 Y105.016 E22.20825
G1 X83.41 Y94.384 E22.56187
G1 X83.45 Y93.716 E22.58412
G1 X83.569 Y93.058 E22.60636
G1 X83.766 Y92.418 E22.62864
G1 X84.038 Y91.807 E22.65088
G1 X84.381 Y91.233 E22.67312
G1 X84.79 Y90.703 E22.69539
G1 X85.043 Y90.432 E22.70772
G1 X88.931 Y86.529 E22.89095
M204 S5000
M205 X30 Y30
G0 F3600 X89.214 Y86.811
M204 S500
M205 X20 Y20
G1 F1800 X89.279 Y86.747 E22.89399
G1 X89.765 Y86.276 E22.9165
G1 X90.255 Y85.857 E22.93794
G1 X90.793 Y85.502 E22.95938
G1 X91.371 Y85.216 E22.98083
G1 X91.979 Y85.003 E23.00225
G1 X92.61 Y84.868 E23.02372
G1 X93.384 Y84.81 E23.04953
G1 X129.615 Y84.81 E24.25458
G1 X130.258 Y84.85 E24.27601
G1 X130.892 Y84.969 E24.29746
G1 X131.506 Y85.166 E24.31891
G1 X132.091 Y85.437 E24.34035
G1 X132.638 Y85.779 E24.36181
G1 X133.298 Y86.339 E24.3906
G1 X137.676 Y90.732 E24.59688
G1 X138.102 Y91.216 E24.61832
G1 X138.465 Y91.749 E24.63977
G1 X138.759 Y92.323 E24.66122
G1 X138.98 Y92.929 E24.68268
G1 X139.124 Y93.557 E24.70411
G1 X139.177 Y93.991 E24.71865
G1 X139.364 Y96.343 E24.79712
G1 X140.009 Y101.678 E24.97586
G1 X140.955 Y106.972 E25.15473
G1 X142.187 Y112.154 E25.33188
G1 X143.729 Y117.324 E25.51132
G1 X145.877 Y123.229 E25.72032
G1 X146.059 Y123.848 E25.74178
G1 X146.164 Y124.484 E25.76322
G1 X146.187 Y125.186 E25.78658
G1 X146.087 Y128.082 E25.88296
G1 X146.081 Y128.216 E25.88742
G1 X145.939 Y130.575 E25.96602
G1 X145.839 Y135.966 E26.14536
G1 X146.046 Y141.448 E26.32782
G1 X146.185 Y144.774 E26.43854
G1 X146.172 Y145.418 E26.45996
G1 X146.08 Y146.056 E26.4814
G1 X145.909 Y146.678 E26.50286
G1 X145.662 Y147.274 E26.52431
G1 X145.344 Y147.834 E26.54573
G1 X144.959 Y148.351 E26.56717
G1 X144.512 Y148.816 E26.58863
G1 X144.012 Y149.223 E26.61007
G1 X143.465 Y149.564 E26.63151
G1 X142.88 Y149.835 E26.65295
G1 X142.266 Y150.032 E26.6744
G1 X141.633 Y150.151 E26.69582
G1 X140.99 Y150.191 E26.71725
G1 X129.624 Y150.19 E27.09528
G1 X128.98 Y150.15 E27.11674
G1 X128.347 Y150.031 E27.13817
G1 X127.733 Y149.834 E27.15961
G1 X127.381 Y149.681 E27.17238
G1 X125.62 Y148.839 E27.2373
G1 X120.656 Y146.683 E27.4173
G1 X115.606 Y144.824 E27.59629
G1 X110.484 Y143.26 E27.77441
G1 X105.214 Y141.971 E27.95486
G1 X102.687 Y141.468 E28.04056
G1 X97.332 Y140.633 E28.22082
G1 X92.842 Y140.162 E28.37097
G1 X92.206 Y140.055 E28.39242
G1 X91.589 Y139.87 E28.41385
G1 X90.998 Y139.611 E28.43531
G1 X90.445 Y139.28 E28.45675
G1 X89.714 Y138.674 E28.48833
G1 X85.811 Y134.786 E28.67156
G1 X85.751 Y134.725 E28.67441
G1 X85.28 Y134.24 E28.69689
G1 X84.86 Y133.75 E28.71836
G1 X84.504 Y133.213 E28.73979
G1 X84.218 Y132.635 E28.76123
G1 X84.005 Y132.027 E28.78266
G1 X83.869 Y131.397 E28.8041
G1 X83.81 Y130.621 E28.82998
G1 X83.8 Y117.711 E29.25937
G1 X83.803 Y117.536 E29.26519
G1 X83.978 Y112.209 E29.44247
G1 X83.976 Y109.547 E29.531
G1 X83.814 Y105.21 E29.67535
G1 X83.81 Y105.016 E29.68181
G1 X83.81 Y94.384 E30.03543
G1 X83.85 Y93.741 E30.05686
G1 X83.969 Y93.107 E30.07831
G1 X84.166 Y92.493 E30.09976
G1 X84.437 Y91.908 E30.1212
G1 X84.779 Y91.361 E30.14266
G1 X85.326 Y90.714 E30.17084
G1 X89.214 Y86.811 E30.35407
M204 S5000
M205 X30 Y30
G1 F2400 E25.35407
;MESH:CableCareerExtruder1.stl
G0 F3600 X92.727 Y89.712
G0 X93.634 Y90.618
G0 X112.33 Y93.83
G0 X112.4 Y93.9
M204 S500
M205 X20 Y20
;TYPE:WALL-INNER
G1 F2400 E30.35407
G1 F1800 X112.4 Y111.6 E30.94278
G1 X130.1 Y111.6 E31.53148
G1 X130.1 Y95.994 E32.05054
G1 X128.006 Y93.9 E32.14903
G1 X112.4 Y93.9 E32.66809
M204 S5000
M205 X30 Y30
G0 F3600 X112.33 Y93.83
G0 X112.33 Y113.33
G0 X112.4 Y113.4
M204 S500
M205 X20 Y20
G1 F1800 X112.4 Y131.1 E33.25679
G1 X128.006 Y131.1 E33.77585
G1 X130.1 Y129.006 E33.87435
G1 X130.1 Y113.4 E34.39341
G1 X112.4 Y113.4 E34.98211
M204 S5000
M205 X30 Y30
G0 F3600 X112.33 Y113.33
G0 X92.83 Y113.33
G0 X92.9 Y113.4
M204 S500
M205 X20 Y20
G1 F1800 X92.9 Y129.006 E35.50117
G1 X94.994 Y131.1 E35.59966
G1 X110.6 Y131.1 E36.11872
G1 X110.6 Y113.4 E36.70743
G1 X92.9 Y113.4 E37.29613
M204 S5000
M205 X30 Y30
G0 F3600 X92.83 Y113.33
G0 X92.83 Y111.67
G0 X92.9 Y111.6
M204 S500
M205 X20 Y20
G1 F1800 X110.6 Y111.6 E37.88483
G1 X110.6 Y93.9 E38.47354
G1 X94.994 Y93.9 E38.9926
G1 X92.9 Y95.994 E39.09109
G1 X92.9 Y111.6 E39.61015
M204 S5000
M205 X30 Y30
G0 F3600 X92.83 Y111.67
G0 X130.128 Y113.372
G0 X133.33 Y125.67
G0 X133.4 Y125.6
M204 S500
M205 X20 Y20
G1 F1800 X134.9 Y125.6 E39.66004
G1 X140.4 Y125.6 E39.84297
G1 X140.4 Y125.9 E39.85295
G1 X134.9 Y125.9 E39.99015
G1 X134.9 Y144.1 E40.59548
G1 X140.4 Y144.1 E40.77841
G1 X140.4 Y144.4 E40.78839
G1 X134.9 Y144.4 E40.92559
G1 X129.887 Y144.4 E41.09232
G1 X120.765 Y134.4 E41.54251
G1 X93.627 Y134.4 E42.44513
G1 X89.6 Y130.373 E42.63455
G1 X89.6 Y117.6 E43.05938
G1 X91.1 Y117.6 E43.10927
G1 X91.1 Y104.4 E43.5483
G1 X89.6 Y104.4 E43.59819
G1 X89.6 Y94.627 E43.92324
G1 X93.627 Y90.6 E44.11266
G1 X129.373 Y90.6 E45.30158
G1 X133.4 Y94.627 E45.49099
G1 X133.4 Y125.6 E46.52116
M204 S5000
M205 X30 Y30
G0 F3600 X133.8 Y125.2
M204 S500
M205 X20 Y20
;TYPE:WALL-OUTER
G1 F1800 X140.8 Y125.2 E46.75398
G1 X140.8 Y126.3 E46.79057
G1 X135.3 Y126.3 E46.9735
G1 X135.3 Y143.7 E47.55223
G1 X140.8 Y143.7 E47.73516
G1 X140.8 Y144.8 E47.77174
G1 X129.71 Y144.8 E48.1406
G1 X120.588 Y134.8 E48.59079
G1 X93.461 Y134.8 E49.49304
G1 X89.2 Y130.539 E49.69346
G1 X89.2 Y117.2 E50.13712
G1 X90.7 Y117.2 E50.18701
G1 X90.7 Y104.8 E50.59944
G1 X89.2 Y104.8 E50.64933
G1 X89.2 Y94.461 E50.9932
G1 X93.461 Y90.2 E51.19363
G1 X129.539 Y90.2 E52.39359
G1 X133.8 Y94.461 E52.59401
G1 X133.8 Y125.2 E53.61639
M204 S5000
M205 X30 Y30
G0 F3600 X134 Y125.2
G0 X134 Y125.7
G0 X133.372 Y125.628
G0 X130.128 Y113.372
G0 X112.8 Y113.3
G0 X112.8 Y113.8
M204 S500
M205 X20 Y20
G1 F1800 X112.8 Y130.7 E54.17849
G1 X127.84 Y130.7 E54.67872
G1 X129.7 Y128.84 E54.76621
G1 X129.7 Y113.8 E55.26644
G1 X112.8 Y113.8 E55.82854
M204 S5000
M205 X30 Y30
G0 F3600 X112.8 Y114
G0 X112.3 Y114
G0 X110.628 Y113.372
G0 X93.3 Y113.3
G0 X93.3 Y113.8
M204 S500
M205 X20 Y20
G1 F1800 X93.3 Y128.84 E56.32877
G1 X95.16 Y130.7 E56.41626
G1 X110.2 Y130.7 E56.91649
G1 X110.2 Y113.8 E57.47859
G1 X93.3 Y113.8 E58.04069
M204 S5000
M205 X30 Y30
G0 F3600 X93.3 Y114
G0 X92.8 Y114
G0 X92.8 Y111.2
G0 X93.3 Y111.2
M204 S500
M205 X20 Y20
G1 F1800 X110.2 Y111.2 E58.60278
G1 X110.2 Y94.3 E59.16488
G1 X95.16 Y94.3 E59.66511
G1 X93.3 Y96.16 E59.7526
G1 X93.3 Y111.2 E60.25283
M204 S5000
M205 X30 Y30
G0 F3600 X93.5 Y111.2
G0 X93.5 Y111.7
G0 X110.628 Y111.628
G0 X112.372 Y93.872
G0 X112.8 Y93.8
G0 X112.8 Y94.3
M204 S500
M205 X20 Y20
G1 F1800 X112.8 Y111.2 E60.81493
G1 X129.7 Y111.2 E61.37702
G1 X129.7 Y96.16 E61.87726
G1 X127.84 Y94.3 E61.96475
G1 X112.8 Y94.3 E62.46498
M204 S5000
M205 X30 Y30
G0 F3600 X112.8 Y94.5
G0 X112.3 Y94.5
G0 X112.01 Y93.51
M204 S500
M205 X20 Y20
;TYPE:SKIN
G1 F1800 X112.01 Y111.99 E63.07963
G1 X130.49 Y111.99 E63.69427
G1 X130.49 Y95.832 E64.23169
G1 X128.168 Y93.51 E64.34091
