;FLAVOR:Marlin
;TIME:1961
;Filament used: 1.00186m
;Layer height: 0.2
;Generated with Cura_SteamEngine 3.6.0
M140 S60
M105
M190 S60
M104 S200
M105
M109 S200
M82 ;absolute extrusion mode
; Ender 3 Custom Start G-code
G28 ; Home all axes
G92 E0 ; Reset Extruder
G1 Z2.0 F3000 ; Move Z Axis up little to prevent scratching of Heat Bed
G1 X0.1 Y20 Z0.3 F5000.0 ; Move to start position
G1 X0.1 Y200.0 Z0.3 F1500.0 E15 ; Draw the first line
G1 X0.4 Y200.0 Z0.3 F5000.0 ; Move to side a little
G1 X0.4 Y20 Z0.3 F1500.0 E30 ; Draw the second line
G92 E0 ; Reset Extruder
G1 Z2.0 F3000 ; Move Z Axis up little to prevent scratching of Heat Bed
; End of custom start GCode
G92 E0
G1 F2400 E-5
;LAYER_COUNT:103
;LAYER:0
M107
M204 S5000
M205 X30 Y30
;MESH:CableCareerTableFooter.stl
G0 F3600 X132.65 Y98.9 Z0.2
M204 S500
M205 X20 Y20
;TYPE:WALL-INNER
G1 F2400 E0
G1 F900 X132.65 Y106.4 E0.24945
G1 X104.65 Y106.4 E1.18073
G1 X104.65 Y117.6 E1.55325
G1 X110.65 Y117.6 E1.75281
G1 X110.65 Y119.6 E1.81933
G1 X100.85 Y119.6 E2.14528
G1 X100.85 Y102.6 E2.7107
G1 X107.85 Y102.6 E2.94352
G1 X107.85 Y98.9 E3.06658
G1 X106.35 Y98.9 E3.11647
G1 X106.35 Y98.6 E3.12645
G1 X107.85 Y98.6 E3.16387
G1 X112.65 Y98.6 E3.32352
G1 X114.15 Y98.6 E3.37341
G1 X114.15 Y98.9 E3.38339
G1 X112.65 Y98.9 E3.4208
G1 X112.65 Y102.6 E3.54387
G1 X127.85 Y102.6 E4.04942
G1 X127.85 Y98.9 E4.17248
G1 X126.35 Y98.9 E4.22237
G1 X126.35 Y98.6 E4.23235
G1 X127.85 Y98.6 E4.26977
G1 X132.65 Y98.6 E4.42942
G1 X134.15 Y98.6 E4.47931
G1 X134.15 Y98.9 E4.48929
G1 X132.65 Y98.9 E4.5267
M204 S5000
M205 X30 Y30
G0 F3600 X132.58 Y98.83
G0 X123.686 Y106.365
G0 X104.622 Y106.372
G0 X101.037 Y119.572
G0 X101.037 Y134.428
G0 X110.58 Y136.33
G0 X110.65 Y136.4
M204 S500
M205 X20 Y20
G1 F900 X100.85 Y136.4 E4.85265
G1 X100.85 Y134.4 E4.91917
G1 X110.65 Y134.4 E5.24512
G1 X110.65 Y136.4 E5.31164
M204 S5000
M205 X30 Y30
G0 F3600 X110.58 Y136.33
G0 X101.037 Y134.428
G0 X101.037 Y119.572
G0 X104.622 Y106.372
G0 X123.847 Y106.366
G0 X132.55 Y99.3
G0 X133.05 Y99.3
M204 S500
M205 X20 Y20
;TYPE:WALL-OUTER
G1 F900 X133.05 Y106.8 E5.56109
G1 X105.05 Y106.8 E6.49238
G1 X105.05 Y117.2 E6.83828
G1 X111.05 Y117.2 E7.03784
G1 X111.05 Y120 E7.13097
G1 X101.05 Y120 E7.46357
G1 X101.05 Y134 E7.92922
G1 X111.05 Y134 E8.26182
G1 X111.05 Y136.8 E8.35495
G1 X100.45 Y136.8 E8.7075
G1 X100.45 Y102.2 E9.8583
G1 X107.45 Y102.2 E10.09112
G1 X107.45 Y99.3 E10.18758
G1 X105.95 Y99.3 E10.23747
G1 X105.95 Y98.2 E10.27406
G1 X114.55 Y98.2 E10.56009
G1 X114.55 Y99.3 E10.59668
G1 X113.05 Y99.3 E10.64657
G1 X113.05 Y102.2 E10.74302
G1 X127.45 Y102.2 E11.22197
G1 X127.45 Y99.3 E11.31842
G1 X125.95 Y99.3 E11.36831
G1 X125.95 Y98.2 E11.4049
G1 X134.55 Y98.2 E11.69094
G1 X134.55 Y99.3 E11.72752
G1 X133.05 Y99.3 E11.77741
M204 S5000
M205 X30 Y30
G0 F3600 X133.05 Y99.5
G0 X132.55 Y99.5
G0 X132.26 Y98.99
M204 S500
M205 X20 Y20
;TYPE:SKIN
G1 F900 X132.26 Y106.01 E12.0109
G1 X104.26 Y106.01 E12.94218
G1 X104.26 Y117.99 E13.34064
G1 X110.26 Y117.99 E13.5402
G1 X110.26 Y119.21 E13.58078
G1 X101.24 Y119.21 E13.88078
G1 X101.24 Y102.99 E14.42026
G1 X108.24 Y102.99 E14.65309
G1 X108.24 Y98.99 E14.78613
G1 X112.26 Y98.99 E14.91983
G1 X112.26 Y102.99 E15.05287
G1 X128.24 Y102.99 E15.58437
G1 X128.24 Y98.99 E15.71741
G1 X132.26 Y98.99 E15.85112
M204 S5000
M205 X30 Y30
G0 F3600 X132.079 Y99.269
M204 S500
M205 X20 Y20
G1 F900 X131.98 Y99.17 E15.85577
M204 S5000
M205 X30 Y30
G0 F3600 X131.414 Y99.17
M204 S500
M205 X20 Y20
G1 F900 X132.079 Y99.834 E15.88703
M204 S5000
M205 X30 Y30
G0 F3600 X132.079 Y100.4
M204 S500
M205 X20 Y20
G1 F900 X130.848 Y99.17 E15.94491
M204 S5000
M205 X30 Y30
G0 F3600 X130.283 Y99.17
M204 S500
M205 X20 Y20
G1 F900 X132.079 Y100.966 E16.02939
M204 S5000
M205 X30 Y30
G0 F3600 X132.079 Y101.532
M204 S500
M205 X20 Y20
G1 F900 X129.717 Y99.17 E16.14049
M204 S5000
M205 X30 Y30
G0 F3600 X129.151 Y99.17
M204 S500
M205 X20 Y20
G1 F900 X132.079 Y102.097 E16.27819
M204 S5000
M205 X30 Y30
G0 F3600 X132.079 Y102.663
M204 S500
M205 X20 Y20
G1 F900 X128.585 Y99.17 E16.44251
M204 S5000
M205 X30 Y30
G0 F3600 X128.419 Y99.569
M204 S500
M205 X20 Y20
G1 F900 X132.079 Y103.229 E16.61467
M204 S5000
M205 X30 Y30
G0 F3600 X132.079 Y103.794
M204 S500
M205 X20 Y20
G1 F900 X128.419 Y100.134 E16.78682
M204 S5000
M205 X30 Y30
G0 F3600 X128.419 Y100.7
M204 S500
M205 X20 Y20
G1 F900 X132.079 Y104.36 E16.95898
M204 S5000
M205 X30 Y30
G0 F3600 X132.079 Y104.926
M204 S500
M205 X20 Y20
G1 F900 X128.419 Y101.266 E17.13113
M204 S5000
M205 X30 Y30
G0 F3600 X128.419 Y101.831
M204 S500
M205 X20 Y20
G1 F900 X132.079 Y105.491 E17.30329
M204 S5000
M205 X30 Y30
G0 F3600 X131.85 Y105.829
M204 S500
M205 X20 Y20
G1 F900 X128.419 Y102.397 E17.46469
M204 S5000
M205 X30 Y30
G0 F3600 X128.419 Y102.963
M204 S500
M205 X20 Y20
G1 F900 X131.284 Y105.829 E17.59948
M204 S5000
M205 X30 Y30
G0 F3600 X130.719 Y105.829
M204 S500
M205 X20 Y20
G1 F900 X128.059 Y103.169 E17.7246
M204 S5000
M205 X30 Y30
G0 F3600 X127.494 Y103.169
M204 S500
M205 X20 Y20
G1 F900 X130.153 Y105.829 E17.84969
M204 S5000
M205 X30 Y30
G0 F3600 X129.587 Y105.829
M204 S500
M205 X20 Y20
G1 F900 X126.928 Y103.169 E17.97479
M204 S5000
M205 X30 Y30
G0 F3600 X126.362 Y103.169
M204 S500
M205 X20 Y20
G1 F900 X129.022 Y105.829 E18.0999
M204 S5000
M205 X30 Y30
G0 F3600 X128.456 Y105.829
M204 S500
M205 X20 Y20
G1 F900 X125.797 Y103.169 E18.225
M204 S5000
M205 X30 Y30
G0 F3600 X125.231 Y103.169
M204 S500
M205 X20 Y20
G1 F900 X127.89 Y105.829 E18.35009
M204 S5000
M205 X30 Y30
G0 F3600 X127.325 Y105.829
M204 S500
M205 X20 Y20
G1 F900 X124.665 Y103.169 E18.47521
M204 S5000
M205 X30 Y30
G0 F3600 X124.1 Y103.169
M204 S500
M205 X20 Y20
G1 F900 X126.759 Y105.829 E18.60031
M204 S5000
M205 X30 Y30
G0 F3600 X126.193 Y105.829
M204 S500
M205 X20 Y20
G1 F900 X123.534 Y103.169 E18.7254
M204 S5000
M205 X30 Y30
G0 F3600 X122.968 Y103.169
M204 S500
M205 X20 Y20
G1 F900 X125.628 Y105.829 E18.85052
M204 S5000
M205 X30 Y30
G0 F3600 X125.062 Y105.829
M204 S500
M205 X20 Y20
G1 F900 X122.403 Y103.169 E18.97561
M204 S5000
M205 X30 Y30
G0 F3600 X121.837 Y103.169
M204 S500
M205 X20 Y20
G1 F900 X124.496 Y105.829 E19.10071
M204 S5000
M205 X30 Y30
G0 F3600 X123.931 Y105.829
M204 S500
M205 X20 Y20
G1 F900 X121.271 Y103.169 E19.22583
M204 S5000
M205 X30 Y30
G0 F3600 X120.705 Y103.169
M204 S500
M205 X20 Y20
G1 F900 X123.365 Y105.829 E19.35095
M204 S5000
M205 X30 Y30
G0 F3600 X122.799 Y105.829
M204 S500
M205 X20 Y20
G1 F900 X120.14 Y103.169 E19.47604
M204 S5000
M205 X30 Y30
G0 F3600 X119.574 Y103.169
M204 S500
M205 X20 Y20
G1 F900 X122.234 Y105.829 E19.60116
M204 S5000
M205 X30 Y30
G0 F3600 X121.668 Y105.829
M204 S500
M205 X20 Y20
G1 F900 X119.008 Y103.169 E19.72628
M204 S5000
M205 X30 Y30
G0 F3600 X118.443 Y103.169
M204 S500
M205 X20 Y20
G1 F900 X121.102 Y105.829 E19.85137
M204 S5000
M205 X30 Y30
G0 F3600 X120.536 Y105.829
M204 S500
M205 X20 Y20
G1 F900 X117.877 Y103.169 E19.97647
M204 S5000
M205 X30 Y30
G0 F3600 X117.311 Y103.169
M204 S500
M205 X20 Y20
G1 F900 X119.971 Y105.829 E20.10158
M204 S5000
M205 X30 Y30
G0 F3600 X119.405 Y105.829
M204 S500
M205 X20 Y20
G1 F900 X116.746 Y103.169 E20.22668
M204 S5000
M205 X30 Y30
G0 F3600 X116.18 Y103.169
M204 S500
M205 X20 Y20
G1 F900 X118.839 Y105.829 E20.35177
M204 S5000
M205 X30 Y30
G0 F3600 X118.274 Y105.829
M204 S500
M205 X20 Y20
G1 F900 X115.614 Y103.169 E20.47689
M204 S5000
M205 X30 Y30
G0 F3600 X115.049 Y103.169
M204 S500
M205 X20 Y20
G1 F900 X117.708 Y105.829 E20.60199
M204 S5000
M205 X30 Y30
G0 F3600 X117.142 Y105.829
M204 S500
M205 X20 Y20
G1 F900 X114.483 Y103.169 E20.72708
M204 S5000
M205 X30 Y30
G0 F3600 X113.917 Y103.169
M204 S500
M205 X20 Y20
G1 F900 X116.577 Y105.829 E20.8522
M204 S5000
M205 X30 Y30
G0 F3600 X116.011 Y105.829
M204 S500
M205 X20 Y20
G1 F900 X113.352 Y103.169 E20.97729
M204 S5000
M205 X30 Y30
G0 F3600 X112.786 Y103.169
M204 S500
M205 X20 Y20
G1 F900 X115.445 Y105.829 E21.10239
M204 S5000
M205 X30 Y30
G0 F3600 X114.88 Y105.829
M204 S500
M205 X20 Y20
G1 F900 X112.22 Y103.169 E21.22751
M204 S5000
M205 X30 Y30
G0 F3600 X112.079 Y103.028
M204 S500
M205 X20 Y20
G1 F900 X108.419 Y99.368 E21.39966
M204 S5000
M205 X30 Y30
G0 F3600 X108.786 Y99.17
M204 S500
M205 X20 Y20
G1 F900 X112.079 Y102.462 E21.55453
M204 S5000
M205 X30 Y30
G0 F3600 X112.079 Y101.896
M204 S500
M205 X20 Y20
G1 F900 X109.352 Y99.17 E21.68278
M204 S5000
M205 X30 Y30
G0 F3600 X109.918 Y99.17
M204 S500
M205 X20 Y20
G1 F900 X112.079 Y101.331 E21.78442
M204 S5000
M205 X30 Y30
G0 F3600 X112.079 Y100.765
M204 S500
M205 X20 Y20
G1 F900 X110.484 Y99.17 E21.85945
M204 S5000
M205 X30 Y30
G0 F3600 X111.049 Y99.17
M204 S500
M205 X20 Y20
G1 F900 X112.079 Y100.199 E21.90787
M204 S5000
M205 X30 Y30
G0 F3600 X112.079 Y99.634
M204 S500
M205 X20 Y20
G1 F900 X111.615 Y99.17 E21.9297
M204 S5000
M205 X30 Y30
G0 F3600 X108.419 Y99.933
M204 S500
M205 X20 Y20
G1 F900 X114.314 Y105.829 E22.207
M204 S5000
M205 X30 Y30
G0 F3600 X113.748 Y105.829
M204 S500
M205 X20 Y20
G1 F900 X108.419 Y100.499 E22.45769
M204 S5000
M205 X30 Y30
G0 F3600 X108.419 Y101.065
M204 S500
M205 X20 Y20
G1 F900 X113.183 Y105.829 E22.68177
M204 S5000
M205 X30 Y30
G0 F3600 X112.617 Y105.829
M204 S500
M205 X20 Y20
G1 F900 X108.419 Y101.631 E22.87923
M204 S5000
M205 X30 Y30
G0 F3600 X108.419 Y102.196
M204 S500
M205 X20 Y20
G1 F900 X112.051 Y105.829 E23.05009
M204 S5000
M205 X30 Y30
G0 F3600 X111.485 Y105.829
M204 S500
M205 X20 Y20
G1 F900 X108.419 Y102.762 E23.19433
M204 S5000
M205 X30 Y30
G0 F3600 X108.26 Y103.169
M204 S500
M205 X20 Y20
G1 F900 X110.92 Y105.829 E23.31945
M204 S5000
M205 X30 Y30
G0 F3600 X110.354 Y105.829
M204 S500
M205 X20 Y20
G1 F900 X107.695 Y103.169 E23.44455
M204 S5000
M205 X30 Y30
G0 F3600 X107.129 Y103.169
M204 S500
M205 X20 Y20
G1 F900 X109.788 Y105.829 E23.56964
M204 S5000
M205 X30 Y30
G0 F3600 X109.223 Y105.829
M204 S500
M205 X20 Y20
G1 F900 X106.563 Y103.169 E23.69476
M204 S5000
M205 X30 Y30
G0 F3600 X105.998 Y103.169
M204 S500
M205 X20 Y20
G1 F900 X108.657 Y105.829 E23.81985
M204 S5000
M205 X30 Y30
G0 F3600 X108.091 Y105.829
M204 S500
M205 X20 Y20
G1 F900 X105.432 Y103.169 E23.94495
M204 S5000
M205 X30 Y30
G0 F3600 X104.866 Y103.169
M204 S500
M205 X20 Y20
G1 F900 X107.526 Y105.829 E24.07007
M204 S5000
M205 X30 Y30
G0 F3600 X106.96 Y105.829
M204 S500
M205 X20 Y20
G1 F900 X104.301 Y103.169 E24.19516
M204 S5000
M205 X30 Y30
G0 F3600 X103.735 Y103.169
M204 S500
M205 X20 Y20
G1 F900 X106.394 Y105.829 E24.32026
M204 S5000
M205 X30 Y30
G0 F3600 X105.829 Y105.829
M204 S500
M205 X20 Y20
G1 F900 X103.169 Y103.169 E24.44537
M204 S5000
M205 X30 Y30
G0 F3600 X102.604 Y103.169
M204 S500
M205 X20 Y20
G1 F900 X105.263 Y105.829 E24.57047
M204 S5000
M205 X30 Y30
G0 F3600 X104.697 Y105.829
M204 S500
M205 X20 Y20
G1 F900 X102.038 Y103.169 E24.69556
M204 S5000
M205 X30 Y30
G0 F3600 X101.472 Y103.169
M204 S500
M205 X20 Y20
G1 F900 X104.132 Y105.829 E24.82068
M204 S5000
M205 X30 Y30
G0 F3600 X104.079 Y106.342
M204 S500
M205 X20 Y20
G1 F900 X101.419 Y103.682 E24.9458
M204 S5000
M205 X30 Y30
G0 F3600 X101.419 Y104.248
M204 S500
M205 X20 Y20
G1 F900 X104.079 Y106.908 E25.07092
M204 S5000
M205 X30 Y30
G0 F3600 X104.079 Y107.473
M204 S500
M205 X20 Y20
G1 F900 X101.419 Y104.813 E25.19604
M204 S5000
M205 X30 Y30
G0 F3600 X101.419 Y105.379
M204 S500
M205 X20 Y20
G1 F900 X104.079 Y108.039 E25.32116
M204 S5000
M205 X30 Y30
G0 F3600 X104.079 Y108.605
M204 S500
M205 X20 Y20
G1 F900 X101.419 Y105.945 E25.44627
M204 S5000
M205 X30 Y30
G0 F3600 X101.419 Y106.51
M204 S500
M205 X20 Y20
G1 F900 X104.079 Y109.17 E25.57139
M204 S5000
M205 X30 Y30
G0 F3600 X104.079 Y109.736
M204 S500
M205 X20 Y20
G1 F900 X101.419 Y107.076 E25.69651
M204 S5000
M205 X30 Y30
G0 F3600 X101.419 Y107.642
M204 S500
M205 X20 Y20
G1 F900 X104.079 Y110.302 E25.82163
M204 S5000
M205 X30 Y30
G0 F3600 X104.079 Y110.867
M204 S500
M205 X20 Y20
G1 F900 X101.419 Y108.207 E25.94675
M204 S5000
M205 X30 Y30
G0 F3600 X101.419 Y108.773
M204 S500
M205 X20 Y20
G1 F900 X104.079 Y111.433 E26.07186
M204 S5000
M205 X30 Y30
G0 F3600 X104.079 Y111.999
M204 S500
M205 X20 Y20
G1 F900 X101.419 Y109.339 E26.19698
M204 S5000
M205 X30 Y30
G0 F3600 X101.419 Y109.904
M204 S500
M205 X20 Y20
G1 F900 X104.079 Y112.565 E26.32212
M204 S5000
M205 X30 Y30
G0 F3600 X104.079 Y113.13
M204 S500
M205 X20 Y20
G1 F900 X101.419 Y110.47 E26.44724
M204 S5000
M205 X30 Y30
G0 F3600 X101.419 Y111.036
M204 S500
M205 X20 Y20
G1 F900 X104.079 Y113.696 E26.57236
M204 S5000
M205 X30 Y30
G0 F3600 X104.079 Y114.262
M204 S500
M205 X20 Y20
G1 F900 X101.419 Y111.601 E26.6975
M204 S5000
M205 X30 Y30
G0 F3600 X101.419 Y112.167
M204 S500
M205 X20 Y20
G1 F900 X104.079 Y114.827 E26.82262
M204 S5000
M205 X30 Y30
G0 F3600 X104.079 Y115.393
M204 S500
M205 X20 Y20
G1 F900 X101.419 Y112.733 E26.94774
M204 S5000
M205 X30 Y30
G0 F3600 X101.419 Y113.299
M204 S500
M205 X20 Y20
G1 F900 X104.079 Y115.959 E27.07286
M204 S5000
M205 X30 Y30
G0 F3600 X104.079 Y116.524
M204 S500
M205 X20 Y20
G1 F900 X101.419 Y113.864 E27.19798
M204 S5000
M205 X30 Y30
G0 F3600 X101.419 Y114.43
M204 S500
M205 X20 Y20
G1 F900 X104.079 Y117.09 E27.32309
M204 S5000
M205 X30 Y30
G0 F3600 X104.079 Y117.656
M204 S500
M205 X20 Y20
G1 F900 X101.419 Y114.996 E27.44821
M204 S5000
M205 X30 Y30
G0 F3600 X101.419 Y115.561
M204 S500
M205 X20 Y20
G1 F900 X104.887 Y119.029 E27.61134
M204 S5000
M205 X30 Y30
G0 F3600 X105.452 Y119.029
M204 S500
M205 X20 Y20
G1 F900 X104.593 Y118.169 E27.65176
M204 S5000
M205 X30 Y30
G0 F3600 X105.158 Y118.169
M204 S500
M205 X20 Y20
G1 F900 X106.018 Y119.029 E27.69222
M204 S5000
M205 X30 Y30
G0 F3600 X106.584 Y119.029
M204 S500
M205 X20 Y20
G1 F900 X105.724 Y118.169 E27.73267
G1 X105.654 Y118.099
M204 S5000
M205 X30 Y30
G0 F3600 X104.321 Y119.029
M204 S500
M205 X20 Y20
G1 F900 X101.419 Y116.127 E27.86917
M204 S5000
M205 X30 Y30
G0 F3600 X101.419 Y116.693
M204 S500
M205 X20 Y20
G1 F900 X103.755 Y119.029 E27.97905
M204 S5000
M205 X30 Y30
G0 F3600 X103.19 Y119.029
M204 S500
M205 X20 Y20
G1 F900 X101.419 Y117.258 E28.06235
M204 S5000
M205 X30 Y30
G0 F3600 X101.419 Y117.824
M204 S500
M205 X20 Y20
G1 F900 X102.624 Y119.029 E28.11903
M204 S5000
M205 X30 Y30
G0 F3600 X102.058 Y119.029
M204 S500
M205 X20 Y20
G1 F900 X101.419 Y118.39 E28.14909
M204 S5000
M205 X30 Y30
G0 F3600 X101.419 Y118.955
M204 S500
M205 X20 Y20
G1 F900 X101.493 Y119.029 E28.15257
M204 S5000
M205 X30 Y30
G0 F3600 X106.29 Y118.169
M204 S500
M205 X20 Y20
G1 F900 X107.15 Y119.029 E28.19302
M204 S5000
M205 X30 Y30
G0 F3600 X107.715 Y119.029
M204 S500
M205 X20 Y20
G1 F900 X106.855 Y118.169 E28.23347
M204 S5000
M205 X30 Y30
G0 F3600 X107.421 Y118.169
M204 S500
M205 X20 Y20
G1 F900 X108.281 Y119.029 E28.27392
M204 S5000
M205 X30 Y30
G0 F3600 X108.847 Y119.029
M204 S500
M205 X20 Y20
G1 F900 X107.987 Y118.169 E28.31437
M204 S5000
M205 X30 Y30
G0 F3600 X108.552 Y118.169
M204 S500
M205 X20 Y20
G1 F900 X109.412 Y119.029 E28.35483
M204 S5000
M205 X30 Y30
G0 F3600 X109.978 Y119.029
M204 S500
M205 X20 Y20
G1 F900 X109.118 Y118.169 E28.39528
M204 S5000
M205 X30 Y30
G0 F3600 X109.684 Y118.169
M204 S500
M205 X20 Y20
G1 F900 X110.08 Y118.565 E28.4139
M204 S5000
M205 X30 Y30
G0 F3600 X101.037 Y119.572
G0 X101.037 Y134.428
G0 X110.26 Y134.79
M204 S500
M205 X20 Y20
G1 F900 X110.26 Y136.01 E28.45448
G1 X101.24 Y136.01 E28.75449
G1 X101.24 Y134.79 E28.79507
G1 X110.26 Y134.79 E29.09507
M204 S5000
M205 X30 Y30
G0 F3600 X110.08 Y135.536
M204 S500
M205 X20 Y20
G1 F900 X109.513 Y134.969 E29.12174
M204 S5000
M205 X30 Y30
G0 F3600 X108.947 Y134.969
M204 S500
M205 X20 Y20
G1 F900 X109.807 Y135.828 E29.16217
M204 S5000
M205 X30 Y30
G0 F3600 X109.241 Y135.828
M204 S500
M205 X20 Y20
G1 F900 X108.381 Y134.969 E29.2026
M204 S5000
M205 X30 Y30
G0 F3600 X107.816 Y134.969
M204 S500
M205 X20 Y20
G1 F900 X108.675 Y135.828 E29.243
M204 S5000
M205 X30 Y30
G0 F3600 X108.11 Y135.828
M204 S500
M205 X20 Y20
G1 F900 X107.25 Y134.969 E29.28343
M204 S5000
M205 X30 Y30
G0 F3600 X106.684 Y134.969
M204 S500
M205 X20 Y20
G1 F900 X107.544 Y135.828 E29.32386
M204 S5000
M205 X30 Y30
G0 F3600 X106.978 Y135.828
M204 S500
M205 X20 Y20
G1 F900 X106.119 Y134.969 E29.36426
