;FLAVOR:Marlin
;TIME:3456
;Filament used: 2.80134m
;Layer height: 0.2
;Generated with Cura_SteamEngine 3.6.0
M140 S60
M105
M190 S60
M104 S200
M105
M109 S200
M82 ;absolute extrusion mode
; Ender 3 Custom Start G-code
G28 ; Home all axes
G92 E0 ; Reset Extruder
G1 Z2.0 F3000 ; Move Z Axis up little to prevent scratching of Heat Bed
G1 X0.1 Y20 Z0.3 F5000.0 ; Move to start position
G1 X0.1 Y200.0 Z0.3 F1500.0 E15 ; Draw the first line
G1 X0.4 Y200.0 Z0.3 F5000.0 ; Move to side a little
G1 X0.4 Y20 Z0.3 F1500.0 E30 ; Draw the second line
G92 E0 ; Reset Extruder
G1 Z2.0 F3000 ; Move Z Axis up little to prevent scratching of Heat Bed
; End of custom start GCode
G92 E0
G1 F2400 E-5
;LAYER_COUNT:151
;LAYER:0
M107
M204 S5000
M205 X30 Y30
;MESH:CableCareerTable.stl
G0 F3600 X111.001 Y108.441 Z0.2
M204 S500
M205 X20 Y20
;TYPE:WALL-INNER
G1 F2400 E0
G1 F1800 X110.577 Y109.057 E0.02487
G1 X110.311 Y109.758 E0.04981
G1 X110.221 Y110.5 E0.07467
G1 X110.311 Y111.242 E0.09953
G1 X110.577 Y111.943 E0.12447
G1 X111.001 Y112.559 E0.14934
G1 X111.562 Y113.055 E0.17425
G1 X112.224 Y113.403 E0.19912
G1 X112.951 Y113.582 E0.22402
G1 X113.7 Y113.582 E0.24894
G1 X114.427 Y113.403 E0.27384
G1 X115.088 Y113.055 E0.29868
G1 X115.649 Y112.559 E0.32359
G1 X116.074 Y111.943 E0.34848
G1 X116.34 Y111.242 E0.37342
G1 X116.429 Y110.5 E0.39827
G1 X116.34 Y109.758 E0.42313
G1 X116.074 Y109.057 E0.44807
G1 X115.649 Y108.441 E0.47296
G1 X115.088 Y107.945 E0.49786
G1 X114.427 Y107.597 E0.52271
G1 X113.7 Y107.418 E0.54761
G1 X112.951 Y107.418 E0.57252
G1 X112.224 Y107.597 E0.59743
G1 X111.562 Y107.945 E0.6223
G1 X111.001 Y108.441 E0.64721
M204 S5000
M205 X30 Y30
G0 F3600 X110.927 Y108.375
G0 X110.542 Y109.039
G0 X110.325 Y109.614
G0 X103.126 Y142.066
G0 X103.207 Y142.124
M204 S500
M205 X20 Y20
G1 F1800 X102.942 Y142.592 E0.6651
G1 X102.777 Y143.103 E0.68296
G1 X102.725 Y143.607 E0.69981
G1 X102.725 Y153.9 E1.04215
G1 X83.925 Y153.9 E1.66744
G1 X83.925 Y131.244 E2.42099
G1 X84.012 Y130.267 E2.45361
G1 X84.271 Y129.327 E2.48604
G1 X84.698 Y128.442 E2.51872
G1 X112.648 Y81.558 E4.33416
G1 X112.772 Y81.391 E4.34108
G1 X112.907 Y81.272 E4.34707
G1 X113.074 Y81.178 E4.35344
G1 X113.244 Y81.123 E4.35938
G1 X113.464 Y81.1 E4.36674
G1 X150.802 Y81.1 E5.60861
G1 X150.919 Y81.1 E5.6125
G1 X150.998 Y81.107 E5.61514
G1 X151.033 Y81.124 E5.61643
G1 X151.061 Y81.156 E5.61784
G1 X151.07 Y81.202 E5.6194
G1 X151.063 Y81.261 E5.62138
G1 X151.035 Y81.374 E5.62525
G1 X142.167 Y116.838 E6.84111
G1 X141.795 Y117.864 E6.87741
G1 X141.249 Y118.77 E6.91259
G1 X140.527 Y119.558 E6.94814
G1 X139.66 Y120.197 E6.98396
G1 X103.97 Y141.419 E8.36501
G1 X103.564 Y141.721 E8.38184
G1 X103.207 Y142.124 E8.39975
M204 S5000
M205 X30 Y30
G0 F3600 X103.534 Y142.358
M204 S500
M205 X20 Y20
;TYPE:WALL-OUTER
G1 F1800 X103.31 Y142.753 E8.41485
G1 X103.171 Y143.186 E8.42998
G1 X103.125 Y143.628 E8.44476
G1 X103.125 Y154.3 E8.79971
G1 X83.525 Y154.3 E9.45161
G1 X83.525 Y131.23 E10.21892
G1 X83.618 Y130.192 E10.25358
G1 X83.894 Y129.188 E10.28822
G1 X84.348 Y128.246 E10.323
G1 X112.31 Y81.343 E12.13918
G1 X112.476 Y81.119 E12.14846
G1 X112.675 Y80.944 E12.15727
G1 X112.913 Y80.809 E12.16637
G1 X113.162 Y80.729 E12.17507
G1 X113.442 Y80.7 E12.18443
G1 X150.935 Y80.7 E13.43146
G1 X151.085 Y80.714 E13.43647
G1 X151.192 Y80.751 E13.44023
G1 X151.286 Y80.811 E13.44394
G1 X151.367 Y80.891 E13.44773
G1 X151.426 Y80.987 E13.45148
G1 X151.461 Y81.093 E13.45519
G1 X151.473 Y81.206 E13.45897
G1 X151.457 Y81.333 E13.46322
G1 X142.55 Y116.954 E14.68446
G1 X142.158 Y118.037 E14.72277
G1 X141.57 Y119.011 E14.76061
G1 X140.796 Y119.857 E14.79875
G1 X139.88 Y120.531 E14.83657
G1 X104.192 Y141.752 E16.21755
G1 X103.836 Y142.017 E16.23232
G1 X103.534 Y142.358 E16.24747
M204 S5000
M205 X30 Y30
G0 F3600 X103.436 Y142.532
G0 X103.001 Y142.285
G0 X115.758 Y112.576
G0 X115.348 Y112.292
M204 S500
M205 X20 Y20
G1 F1800 X115.717 Y111.756 E16.26911
G1 X115.949 Y111.146 E16.29082
G1 X116.026 Y110.5 E16.31245
G1 X115.949 Y109.854 E16.33409
G1 X115.717 Y109.244 E16.3558
G1 X115.348 Y108.708 E16.37744
G1 X114.859 Y108.277 E16.39912
G1 X114.284 Y107.974 E16.42074
G1 X113.651 Y107.818 E16.44242
G1 X113 Y107.818 E16.46408
G1 X112.367 Y107.974 E16.48576
G1 X111.791 Y108.277 E16.50741
G1 X111.303 Y108.708 E16.52906
G1 X110.934 Y109.244 E16.5507
G1 X110.702 Y109.854 E16.57241
G1 X110.624 Y110.5 E16.59405
G1 X110.702 Y111.146 E16.61569
G1 X110.934 Y111.756 E16.6374
G1 X111.303 Y112.292 E16.65904
G1 X111.791 Y112.723 E16.6807
G1 X112.367 Y113.026 E16.70235
G1 X113 Y113.182 E16.72403
G1 X113.651 Y113.182 E16.74568
G1 X114.284 Y113.026 E16.76737
G1 X114.859 Y112.723 E16.78898
G1 X115.348 Y112.292 E16.81066
M204 S5000
M205 X30 Y30
G0 F3600 X115.461 Y112.128
G0 X115.871 Y112.411
G0 X115.943 Y112.82
M204 S500
M205 X20 Y20
;TYPE:SKIN
G1 F1800 X116.421 Y112.126 E16.83869
G1 X116.722 Y111.336 E16.86681
G1 X116.821 Y110.5 E16.89481
G1 X116.722 Y109.664 E16.92281
G1 X116.421 Y108.874 E16.95093
G1 X115.943 Y108.18 E16.97896
G1 X115.311 Y107.621 E17.00702
G1 X114.567 Y107.23 E17.03497
G1 X113.747 Y107.028 E17.06306
G1 X112.904 Y107.028 E17.0911
G1 X112.085 Y107.23 E17.11916
G1 X111.339 Y107.621 E17.14717
G1 X110.707 Y108.18 E17.17523
G1 X110.23 Y108.874 E17.20324
G1 X109.929 Y109.664 E17.23136
G1 X109.829 Y110.5 E17.25936
G1 X109.929 Y111.336 E17.28737
G1 X110.23 Y112.126 E17.31549
G1 X110.707 Y112.82 E17.34349
G1 X111.339 Y113.379 E17.37156
G1 X112.085 Y113.77 E17.39957
G1 X112.904 Y113.972 E17.42763
G1 X113.747 Y113.972 E17.45567
G1 X114.567 Y113.77 E17.48375
G1 X115.311 Y113.379 E17.51171
G1 X115.943 Y112.82 E17.53977
M204 S5000
M205 X30 Y30
G0 F3600 X139.437 Y119.875
M204 S500
M205 X20 Y20
G1 F1800 X103.753 Y141.094 E18.92061
G1 X103.299 Y141.432 E18.93943
G1 X102.888 Y141.896 E18.96005
G1 X102.583 Y142.434 E18.98062
G1 X102.393 Y143.023 E19.0012
G1 X102.335 Y143.587 E19.02006
G1 X102.335 Y153.51 E19.3501
G1 X84.315 Y153.51 E19.94945
G1 X84.315 Y131.257 E20.68958
G1 X84.397 Y130.339 E20.72024
G1 X84.637 Y129.465 E20.75038
G1 X85.045 Y128.62 E20.78159
G1 X112.972 Y81.774 E22.59556
G1 X113.06 Y81.657 E22.60043
G1 X113.133 Y81.592 E22.60368
G1 X113.232 Y81.537 E22.60744
G1 X113.324 Y81.507 E22.61066
G1 X113.485 Y81.49 E22.61605
G1 X150.604 Y81.49 E23.85063
G1 X141.796 Y116.716 E25.05832
G1 X141.44 Y117.698 E25.09306
G1 X140.934 Y118.538 E25.12568
G1 X140.269 Y119.262 E25.15838
G1 X139.437 Y119.875 E25.19275
M204 S5000
M205 X30 Y30
G0 F3600 X150.322 Y81.874
M204 S500
M205 X20 Y20
G1 F1800 X150.118 Y81.67 E25.20234
M204 S5000
M205 X30 Y30
G0 F3600 X149.552 Y81.67
M204 S500
M205 X20 Y20
G1 F1800 X150.209 Y82.327 E25.23325
M204 S5000
M205 X30 Y30
G0 F3600 X150.096 Y82.779
M204 S500
M205 X20 Y20
G1 F1800 X148.986 Y81.67 E25.28543
M204 S5000
M205 X30 Y30
G0 F3600 X148.421 Y81.67
M204 S500
M205 X20 Y20
G1 F1800 X149.983 Y83.232 E25.35891
M204 S5000
M205 X30 Y30
G0 F3600 X149.869 Y83.684
M204 S500
M205 X20 Y20
G1 F1800 X147.855 Y81.67 E25.45364
M204 S5000
M205 X30 Y30
G0 F3600 X147.289 Y81.67
M204 S500
M205 X20 Y20
G1 F1800 X149.756 Y84.137 E25.56968
M204 S5000
M205 X30 Y30
G0 F3600 X149.643 Y84.589
M204 S500
M205 X20 Y20
G1 F1800 X146.723 Y81.67 E25.707
M204 S5000
M205 X30 Y30
G0 F3600 X146.158 Y81.67
M204 S500
M205 X20 Y20
G1 F1800 X149.53 Y85.042 E25.86561
M204 S5000
M205 X30 Y30
G0 F3600 X149.417 Y85.494
M204 S500
M205 X20 Y20
G1 F1800 X145.592 Y81.67 E26.0455
M204 S5000
M205 X30 Y30
G0 F3600 X145.026 Y81.67
M204 S500
M205 X20 Y20
G1 F1800 X149.304 Y85.947 E26.24671
M204 S5000
M205 X30 Y30
G0 F3600 X149.191 Y86.399
M204 S500
M205 X20 Y20
G1 F1800 X144.461 Y81.67 E26.46917
M204 S5000
M205 X30 Y30
G0 F3600 X143.895 Y81.67
M204 S500
M205 X20 Y20
G1 F1800 X149.077 Y86.852 E26.71291
M204 S5000
M205 X30 Y30
G0 F3600 X148.964 Y87.305
M204 S500
M205 X20 Y20
G1 F1800 X143.329 Y81.67 E26.97796
M204 S5000
M205 X30 Y30
G0 F3600 X142.764 Y81.67
M204 S500
M205 X20 Y20
G1 F1800 X148.851 Y87.757 E27.26428
M204 S5000
M205 X30 Y30
G0 F3600 X148.738 Y88.21
M204 S500
M205 X20 Y20
G1 F1800 X142.198 Y81.67 E27.5719
M204 S5000
M205 X30 Y30
G0 F3600 X141.632 Y81.67
M204 S500
M205 X20 Y20
G1 F1800 X148.625 Y88.662 E27.90081
M204 S5000
M205 X30 Y30
G0 F3600 X148.512 Y89.115
M204 S500
M205 X20 Y20
G1 F1800 X141.067 Y81.67 E28.251
M204 S5000
M205 X30 Y30
G0 F3600 X140.501 Y81.67
M204 S500
M205 X20 Y20
G1 F1800 X148.399 Y89.567 E28.62247
M204 S5000
M205 X30 Y30
G0 F3600 X148.285 Y90.02
M204 S500
M205 X20 Y20
G1 F1800 X139.935 Y81.67 E29.01523
M204 S5000
M205 X30 Y30
G0 F3600 X139.37 Y81.67
M204 S500
M205 X20 Y20
G1 F1800 X148.172 Y90.472 E29.42925
M204 S5000
M205 X30 Y30
G0 F3600 X148.058 Y90.924
M204 S500
M205 X20 Y20
G1 F1800 X138.804 Y81.67 E29.86453
M204 S5000
M205 X30 Y30
G0 F3600 X138.238 Y81.67
M204 S500
M205 X20 Y20
G1 F1800 X147.945 Y91.377 E30.32111
M204 S5000
M205 X30 Y30
G0 F3600 X147.832 Y91.829
M204 S500
M205 X20 Y20
G1 F1800 X137.672 Y81.67 E30.79899
M204 S5000
M205 X30 Y30
G0 F3600 X137.107 Y81.67
M204 S500
M205 X20 Y20
G1 F1800 X147.719 Y92.282 E31.29814
M204 S5000
M205 X30 Y30
G0 F3600 X147.606 Y92.734
M204 S500
M205 X20 Y20
G1 F1800 X136.541 Y81.67 E31.81858
M204 S5000
M205 X30 Y30
G0 F3600 X135.975 Y81.67
M204 S500
M205 X20 Y20
G1 F1800 X147.493 Y93.187 E32.36033
M204 S5000
M205 X30 Y30
G0 F3600 X147.38 Y93.64
M204 S500
M205 X20 Y20
G1 F1800 X135.41 Y81.67 E32.92336
M204 S5000
M205 X30 Y30
G0 F3600 X134.844 Y81.67
M204 S500
M205 X20 Y20
G1 F1800 X147.267 Y94.092 E33.50768
M204 S5000
M205 X30 Y30
G0 F3600 X147.153 Y94.545
M204 S500
M205 X20 Y20
G1 F1800 X134.278 Y81.67 E34.11328
M204 S5000
M205 X30 Y30
G0 F3600 X133.713 Y81.67
M204 S500
M205 X20 Y20
G1 F1800 X147.04 Y94.997 E34.74014
M204 S5000
M205 X30 Y30
G0 F3600 X146.927 Y95.45
M204 S500
M205 X20 Y20
G1 F1800 X133.147 Y81.67 E35.38831
M204 S5000
M205 X30 Y30
G0 F3600 X132.581 Y81.67
M204 S500
M205 X20 Y20
G1 F1800 X146.814 Y95.902 E36.05776
M204 S5000
M205 X30 Y30
G0 F3600 X146.701 Y96.355
M204 S500
M205 X20 Y20
G1 F1800 X132.016 Y81.67 E36.7485
M204 S5000
M205 X30 Y30
G0 F3600 X131.45 Y81.67
M204 S500
M205 X20 Y20
G1 F1800 X146.588 Y96.807 E37.46052
M204 S5000
M205 X30 Y30
G0 F3600 X146.475 Y97.26
M204 S500
M205 X20 Y20
G1 F1800 X130.884 Y81.67 E38.19385
M204 S5000
M205 X30 Y30
G0 F3600 X130.319 Y81.67
M204 S500
M205 X20 Y20
G1 F1800 X146.361 Y97.712 E38.94842
M204 S5000
M205 X30 Y30
G0 F3600 X146.248 Y98.165
M204 S500
M205 X20 Y20
G1 F1800 X129.753 Y81.67 E39.72429
M204 S5000
M205 X30 Y30
G0 F3600 X129.187 Y81.67
M204 S500
M205 X20 Y20
G1 F1800 X146.135 Y98.618 E40.52147
M204 S5000
M205 X30 Y30
G0 F3600 X146.022 Y99.07
M204 S500
M205 X20 Y20
G1 F1800 X128.622 Y81.67 E41.33992
M204 S5000
M205 X30 Y30
G0 F3600 X128.056 Y81.67
M204 S500
M205 X20 Y20
G1 F1800 X145.909 Y99.523 E42.17967
M204 S5000
M205 X30 Y30
G0 F3600 X145.796 Y99.975
M204 S500
M205 X20 Y20
G1 F1800 X127.49 Y81.67 E43.0407
M204 S5000
M205 X30 Y30
G0 F3600 X126.924 Y81.67
M204 S500
M205 X20 Y20
G1 F1800 X145.683 Y100.428 E43.92304
M204 S5000
M205 X30 Y30
G0 F3600 X145.569 Y100.88
M204 S500
M205 X20 Y20
G1 F1800 X126.359 Y81.67 E44.82662
M204 S5000
M205 X30 Y30
G0 F3600 X125.793 Y81.67
M204 S500
M205 X20 Y20
G1 F1800 X145.456 Y101.333 E45.75151
M204 S5000
M205 X30 Y30
G0 F3600 X145.343 Y101.785
M204 S500
M205 X20 Y20
G1 F1800 X125.227 Y81.67 E46.69768
M204 S5000
M205 X30 Y30
G0 F3600 X124.662 Y81.67
M204 S500
M205 X20 Y20
G1 F1800 X145.23 Y102.238 E47.66514
M204 S5000
M205 X30 Y30
G0 F3600 X145.117 Y102.69
M204 S500
M205 X20 Y20
G1 F1800 X124.096 Y81.67 E48.65388
M204 S5000
M205 X30 Y30
G0 F3600 X123.53 Y81.67
M204 S500
M205 X20 Y20
G1 F1800 X145.004 Y103.143 E49.66393
M204 S5000
M205 X30 Y30
G0 F3600 X144.891 Y103.596
M204 S500
M205 X20 Y20
G1 F1800 X122.965 Y81.67 E50.69526
M204 S5000
M205 X30 Y30
G0 F3600 X122.399 Y81.67
M204 S500
M205 X20 Y20
G1 F1800 X144.777 Y104.048 E51.74785
M204 S5000
M205 X30 Y30
G0 F3600 X144.664 Y104.501
M204 S500
M205 X20 Y20
G1 F1800 X121.833 Y81.67 E52.82175
M204 S5000
M205 X30 Y30
G0 F3600 X121.268 Y81.67
M204 S500
M205 X20 Y20
G1 F1800 X144.551 Y104.953 E53.91691
M204 S5000
M205 X30 Y30
G0 F3600 X144.437 Y105.405
M204 S500
M205 X20 Y20
G1 F1800 X120.702 Y81.67 E55.03333
M204 S5000
M205 X30 Y30
G0 F3600 X120.136 Y81.67
M204 S500
M205 X20 Y20
G1 F1800 X144.324 Y105.858 E56.17106
M204 S5000
M205 X30 Y30
G0 F3600 X144.211 Y106.31
M204 S500
M205 X20 Y20
G1 F1800 X119.571 Y81.67 E57.33005
M204 S5000
M205 X30 Y30
G0 F3600 X119.005 Y81.67
M204 S500
M205 X20 Y20
G1 F1800 X144.098 Y106.763 E58.51035
M204 S5000
M205 X30 Y30
G0 F3600 X143.985 Y107.215
M204 S500
M205 X20 Y20
G1 F1800 X118.439 Y81.67 E59.71193
M204 S5000
M205 X30 Y30
G0 F3600 X117.873 Y81.67
M204 S500
M205 X20 Y20
G1 F1800 X143.872 Y107.668 E60.93482
M204 S5000
M205 X30 Y30
G0 F3600 X143.759 Y108.12
M204 S500
M205 X20 Y20
G1 F1800 X117.308 Y81.67 E62.17897
M204 S5000
M205 X30 Y30
G0 F3600 X116.742 Y81.67
M204 S500
M205 X20 Y20
G1 F1800 X143.645 Y108.573 E63.44441
M204 S5000
M205 X30 Y30
G0 F3600 X143.532 Y109.025
M204 S500
M205 X20 Y20
G1 F1800 X116.176 Y81.67 E64.73113
M204 S5000
M205 X30 Y30
G0 F3600 X115.611 Y81.67
M204 S500
M205 X20 Y20
G1 F1800 X143.419 Y109.478 E66.03913
M204 S5000
M205 X30 Y30
G0 F3600 X143.306 Y109.931
M204 S500
M205 X20 Y20
G1 F1800 X115.045 Y81.67 E67.36844
M204 S5000
M205 X30 Y30
G0 F3600 X114.479 Y81.67
M204 S500
M205 X20 Y20
G1 F1800 X143.193 Y110.383 E68.71903
M204 S5000
M205 X30 Y30
G0 F3600 X143.08 Y110.836
M204 S500
M205 X20 Y20
G1 F1800 X113.914 Y81.67 E70.09091
M204 S5000
M205 X30 Y30
G0 F3600 X113.361 Y81.683
M204 S500
M205 X20 Y20
G1 F1800 X142.967 Y111.288 E71.48347
M204 S5000
M205 X30 Y30
G0 F3600 X142.853 Y111.741
M204 S500
M205 X20 Y20
G1 F1800 X113.069 Y81.957 E72.88441
M204 S5000
M205 X30 Y30
G0 F3600 X112.858 Y82.311
M204 S500
M205 X20 Y20
G1 F1800 X142.74 Y112.193 E74.28997
M204 S5000
M205 X30 Y30
G0 F3600 X142.627 Y112.646
M204 S500
M205 X20 Y20
G1 F1800 X112.647 Y82.666 E75.70014
M204 S5000
M205 X30 Y30
G0 F3600 X112.436 Y83.02
M204 S500
M205 X20 Y20
G1 F1800 X142.514 Y113.098 E77.11492
M204 S5000
M205 X30 Y30
G0 F3600 X142.401 Y113.551
M204 S500
M205 X20 Y20
G1 F1800 X112.224 Y83.374 E78.53435
M204 S5000
M205 X30 Y30
G0 F3600 X112.013 Y83.729
M204 S500
M205 X20 Y20
G1 F1800 X142.288 Y114.003 E79.95837
M204 S5000
M205 X30 Y30
G0 F3600 X142.175 Y114.456
M204 S500
M205 X20 Y20
G1 F1800 X111.802 Y84.084 E81.387
M204 S5000
M205 X30 Y30
G0 F3600 X111.591 Y84.438
M204 S500
M205 X20 Y20
G1 F1800 X142.061 Y114.909 E82.82024
M204 S5000
M205 X30 Y30
G0 F3600 X141.948 Y115.361
M204 S500
M205 X20 Y20
G1 F1800 X111.379 Y84.792 E84.25811
M204 S5000
M205 X30 Y30
G0 F3600 X111.168 Y85.146
M204 S500
M205 X20 Y20
G1 F1800 X141.835 Y115.814 E85.70061
M204 S5000
M205 X30 Y30
G0 F3600 X141.722 Y116.266
M204 S500
M205 X20 Y20
G1 F1800 X110.957 Y85.501 E87.1477
M204 S5000
M205 X30 Y30
G0 F3600 X110.746 Y85.856
M204 S500
M205 X20 Y20
G1 F1800 X141.604 Y116.714 E88.59917
M204 S5000
M205 X30 Y30
G0 F3600 X141.453 Y117.129
M204 S500
M205 X20 Y20
G1 F1800 X110.534 Y86.21 E90.05351
M204 S5000
M205 X30 Y30
G0 F3600 X110.323 Y86.564
M204 S500
M205 X20 Y20
G1 F1800 X141.303 Y117.544 E91.51071
M204 S5000
M205 X30 Y30
G0 F3600 X141.102 Y117.909
M204 S500
M205 X20 Y20
G1 F1800 X110.112 Y86.918 E92.96841
M204 S5000
M205 X30 Y30
G0 F3600 X109.9 Y87.273
M204 S500
M205 X20 Y20
G1 F1800 X140.889 Y118.262 E94.42604
M204 S5000
M205 X30 Y30
G0 F3600 X140.646 Y118.584
M204 S500
M205 X20 Y20
G1 F1800 X109.689 Y87.628 E95.88213
M204 S5000
M205 X30 Y30
G0 F3600 X109.478 Y87.982
M204 S500
M205 X20 Y20
G1 F1800 X140.375 Y118.879 E97.33543
M204 S5000
M205 X30 Y30
G0 F3600 X140.094 Y119.164
M204 S500
M205 X20 Y20
G1 F1800 X109.267 Y88.336 E98.78547
M204 S5000
M205 X30 Y30
G0 F3600 X109.055 Y88.69
M204 S500
M205 X20 Y20
G1 F1800 X139.769 Y119.404 E100.23016
M204 S5000
M205 X30 Y30
G0 F3600 X139.443 Y119.644
M204 S500
M205 X20 Y20
G1 F1800 X108.844 Y89.045 E101.66944
M204 S5000
M205 X30 Y30
G0 F3600 X108.633 Y89.4
M204 S500
M205 X20 Y20
G1 F1800 X139.098 Y119.865 E103.10242
M204 S5000
M205 X30 Y30
G0 F3600 X138.743 Y120.075
M204 S500
