;FLAVOR:Marlin
;TIME:1320
;Filament used: 1.15656m
;Layer height: 0.2
;Generated with Cura_SteamEngine 3.6.0
M140 S60
M105
M190 S60
M104 S200
M105
M109 S200
M82 ;absolute extrusion mode
; Ender 3 Custom Start G-code
G28 ; Home all axes
G92 E0 ; Reset Extruder
G1 Z2.0 F3000 ; Move Z Axis up little to prevent scratching of Heat Bed
G1 X0.1 Y20 Z0.3 F5000.0 ; Move to start position
G1 X0.1 Y200.0 Z0.3 F1500.0 E15 ; Draw the first line
G1 X0.4 Y200.0 Z0.3 F5000.0 ; Move to side a little
G1 X0.4 Y20 Z0.3 F1500.0 E30 ; Draw the second line
G92 E0 ; Reset Extruder
G1 Z2.0 F3000 ; Move Z Axis up little to prevent scratching of Heat Bed
; End of custom start GCode
G92 E0
G1 F2400 E-5
;LAYER_COUNT:28
;LAYER:0
M107
M204 S5000
M205 X30 Y30
G0 F3600 X81.503 Y92.167 Z0.2
M204 S500
M205 X20 Y20
;TYPE:SKIRT
G1 F2400 E0
G1 F1800 X82.085 Y91.752 E0.02377
G1 X82.71 Y91.403 E0.04758
G1 X83.37 Y91.127 E0.07138
G1 X84.056 Y90.926 E0.09515
G1 X84.761 Y90.803 E0.11896
G1 X85.802 Y90.766 E0.1536
G1 X91.712 Y91.037 E0.35038
G1 X97.106 Y91.1 E0.52979
G1 X104.599 Y90.757 E0.77927
G1 X104.892 Y90.75 E0.78902
G1 X108.293 Y90.75 E0.90214
G1 X108.577 Y90.756 E0.91159
G1 X116.471 Y91.107 E1.1744
G1 X121.799 Y91.018 E1.35164
G1 X126.64 Y90.759 E1.51288
G1 X126.998 Y90.75 E1.52479
G1 X131.006 Y90.76 E1.6581
G1 X131.377 Y90.772 E1.67044
G1 X135.765 Y91.038 E1.81665
G1 X141.106 Y91.1 E1.99431
G1 X149.226 Y90.764 E2.26461
G1 X149.942 Y90.775 E2.28843
G1 X150.651 Y90.865 E2.3122
G1 X151.346 Y91.034 E2.33599
G1 X152.018 Y91.279 E2.35978
G1 X152.658 Y91.598 E2.38356
G1 X153.259 Y91.986 E2.40736
G1 X153.813 Y92.439 E2.43116
G1 X154.313 Y92.95 E2.45494
G1 X154.752 Y93.515 E2.47874
G1 X155.126 Y94.125 E2.50253
G1 X155.429 Y94.772 E2.5263
G1 X155.659 Y95.45 E2.55011
G1 X155.811 Y96.149 E2.5739
G1 X155.891 Y97.159 E2.6076
G1 X155.891 Y119.841 E3.36201
G1 X155.851 Y120.555 E3.38579
G1 X155.732 Y121.26 E3.40957
G1 X155.534 Y121.948 E3.43338
G1 X155.261 Y122.609 E3.45717
G1 X154.917 Y123.236 E3.48095
G1 X154.504 Y123.82 E3.50474
G1 X154.029 Y124.354 E3.52852
G1 X153.497 Y124.833 E3.55233
G1 X152.915 Y125.248 E3.5761
G1 X152.29 Y125.597 E3.59991
G1 X151.63 Y125.873 E3.6237
G1 X150.944 Y126.074 E3.64748
G1 X150.239 Y126.197 E3.67128
G1 X149.491 Y126.241 E3.6962
G1 X85.509 Y126.241 E5.82425
G1 X84.795 Y126.201 E5.84804
G1 X84.09 Y126.082 E5.87182
G1 X83.402 Y125.884 E5.89563
G1 X82.741 Y125.611 E5.91942
G1 X82.114 Y125.267 E5.9432
G1 X81.53 Y124.854 E5.96699
G1 X80.996 Y124.379 E5.99076
G1 X80.517 Y123.847 E6.01457
G1 X80.102 Y123.265 E6.03835
G1 X79.753 Y122.64 E6.06216
G1 X79.477 Y121.98 E6.08595
G1 X79.276 Y121.294 E6.10973
G1 X79.153 Y120.589 E6.13353
G1 X79.109 Y119.841 E6.15845
G1 X79.109 Y97.159 E6.91286
G1 X79.149 Y96.445 E6.93664
G1 X79.268 Y95.74 E6.96042
G1 X79.466 Y95.052 E6.98423
G1 X79.739 Y94.391 E7.00802
G1 X80.083 Y93.764 E7.03181
G1 X80.496 Y93.18 E7.0556
G1 X80.971 Y92.646 E7.07937
G1 X81.503 Y92.167 E7.10318
M204 S5000
M205 X30 Y30
G0 F3600 X81.893 Y92.371
M204 S500
M205 X20 Y20
G1 F1800 X82.468 Y91.986 E7.12619
G1 X83.085 Y91.671 E7.14923
G1 X83.733 Y91.428 E7.17225
G1 X84.406 Y91.261 E7.19531
G1 X85.092 Y91.173 E7.21832
G1 X85.784 Y91.165 E7.24134
G1 X91.719 Y91.437 E7.43894
G1 X97.102 Y91.5 E7.61799
G1 X104.618 Y91.156 E7.86824
G1 X104.892 Y91.15 E7.87735
G1 X108.293 Y91.15 E7.99047
G1 X108.559 Y91.156 E7.99932
G1 X116.459 Y91.507 E8.26234
G1 X121.826 Y91.418 E8.44087
G1 X126.661 Y91.159 E8.60191
G1 X126.997 Y91.15 E8.61309
G1 X131.005 Y91.16 E8.7464
G1 X131.353 Y91.171 E8.75798
G1 X135.757 Y91.438 E8.90472
G1 X141.118 Y91.5 E9.08304
G1 X149.243 Y91.164 E9.35351
G1 X149.935 Y91.175 E9.37653
G1 X150.622 Y91.267 E9.39959
G1 X151.293 Y91.436 E9.4226
G1 X151.941 Y91.682 E9.44565
G1 X152.556 Y92.001 E9.4687
G1 X153.13 Y92.388 E9.49172
G1 X153.655 Y92.839 E9.51474
G1 X154.125 Y93.348 E9.53778
G1 X154.533 Y93.907 E9.5608
G1 X154.875 Y94.51 E9.58386
G1 X155.144 Y95.148 E9.60689
G1 X155.338 Y95.813 E9.62993
G1 X155.454 Y96.495 E9.65294
G1 X155.491 Y97.159 E9.67506
G1 X155.491 Y119.841 E10.42946
G1 X155.451 Y120.532 E10.45248
G1 X155.332 Y121.215 E10.47554
G1 X155.134 Y121.878 E10.49856
G1 X154.862 Y122.515 E10.52159
G1 X154.518 Y123.116 E10.54463
G1 X154.107 Y123.674 E10.56768
G1 X153.635 Y124.18 E10.59069
G1 X153.107 Y124.629 E10.61374
G1 X152.532 Y125.014 E10.63676
G1 X151.915 Y125.329 E10.6598
G1 X151.267 Y125.572 E10.68282
G1 X150.594 Y125.739 E10.70588
G1 X149.908 Y125.827 E10.72889
G1 X149.491 Y125.841 E10.74276
G1 X85.509 Y125.841 E12.87081
G1 X84.818 Y125.801 E12.89383
G1 X84.135 Y125.682 E12.91689
G1 X83.472 Y125.484 E12.93991
G1 X82.835 Y125.212 E12.96294
G1 X82.234 Y124.868 E12.98598
G1 X81.676 Y124.457 E13.00903
G1 X81.17 Y123.985 E13.03204
G1 X80.721 Y123.457 E13.05509
G1 X80.336 Y122.882 E13.07811
G1 X80.021 Y122.265 E13.10115
G1 X79.778 Y121.617 E13.12417
G1 X79.611 Y120.944 E13.14723
G1 X79.523 Y120.258 E13.17024
G1 X79.509 Y119.841 E13.18411
G1 X79.509 Y97.159 E13.93852
G1 X79.549 Y96.468 E13.96154
G1 X79.668 Y95.785 E13.9846
G1 X79.866 Y95.122 E14.00761
G1 X80.138 Y94.485 E14.03065
G1 X80.482 Y93.884 E14.05368
G1 X80.893 Y93.326 E14.07673
G1 X81.365 Y92.82 E14.09975
G1 X81.893 Y92.371 E14.1228
M204 S5000
M205 X30 Y30
G0 F3600 X81.758 Y93.001
M204 S500
M205 X20 Y20
G1 F1800 X82.28 Y92.583 E14.14504
G1 X82.849 Y92.231 E14.1673
G1 X83.456 Y91.949 E14.18956
G1 X84.092 Y91.741 E14.21181
G1 X84.748 Y91.611 E14.23406
G1 X85.415 Y91.56 E14.25631
G1 X85.766 Y91.565 E14.26798
G1 X91.696 Y91.837 E14.46542
G1 X97.116 Y91.9 E14.6457
G1 X104.636 Y91.556 E14.89608
G1 X104.892 Y91.55 E14.9046
G1 X108.293 Y91.55 E15.01772
G1 X108.542 Y91.556 E15.026
G1 X116.449 Y91.907 E15.28925
G1 X121.828 Y91.818 E15.46818
G1 X126.683 Y91.558 E15.62989
G1 X126.996 Y91.55 E15.6403
G1 X131.004 Y91.56 E15.77361
G1 X131.328 Y91.57 E15.78439
G1 X135.748 Y91.838 E15.93167
G1 X141.13 Y91.9 E16.11069
G1 X149.259 Y91.564 E16.38129
G1 X149.928 Y91.576 E16.40354
G1 X150.591 Y91.668 E16.42581
G1 X151.238 Y91.838 E16.44806
G1 X151.86 Y92.085 E16.47032
G1 X152.448 Y92.404 E16.49256
G1 X152.994 Y92.79 E16.5148
G1 X153.49 Y93.239 E16.53706
G1 X153.929 Y93.744 E16.55931
G1 X154.305 Y94.298 E16.58158
G1 X154.612 Y94.892 E16.60382
G1 X154.845 Y95.519 E16.62607
G1 X155.003 Y96.169 E16.64832
G1 X155.091 Y97.159 E16.68137
G1 X155.091 Y119.841 E17.43578
G1 X155.051 Y120.509 E17.45804
G1 X154.932 Y121.167 E17.48028
G1 X154.735 Y121.807 E17.50255
G1 X154.463 Y122.418 E17.5248
G1 X154.12 Y122.992 E17.54704
G1 X153.711 Y123.522 E17.5693
G1 X153.242 Y123.999 E17.59155
G1 X152.72 Y124.417 E17.61379
G1 X152.151 Y124.769 E17.63605
G1 X151.544 Y125.051 E17.65831
G1 X150.908 Y125.259 E17.68056
G1 X150.252 Y125.389 E17.70281
G1 X149.491 Y125.441 E17.72818
G1 X85.509 Y125.441 E19.85623
G1 X84.841 Y125.401 E19.87848
G1 X84.183 Y125.282 E19.90073
G1 X83.543 Y125.085 E19.923
G1 X82.932 Y124.813 E19.94524
G1 X82.358 Y124.47 E19.96748
G1 X81.828 Y124.061 E19.98975
G1 X81.351 Y123.592 E20.012
G1 X80.933 Y123.07 E20.03424
G1 X80.581 Y122.501 E20.05649
G1 X80.299 Y121.894 E20.07875
G1 X80.091 Y121.258 E20.10101
G1 X79.961 Y120.602 E20.12325
G1 X79.909 Y119.841 E20.14862
G1 X79.909 Y97.159 E20.90303
G1 X79.949 Y96.491 E20.92529
G1 X80.068 Y95.833 E20.94753
G1 X80.265 Y95.193 E20.9698
G1 X80.537 Y94.582 E20.99204
G1 X80.88 Y94.008 E21.01428
G1 X81.289 Y93.478 E21.03655
G1 X81.758 Y93.001 E21.0588
M204 S5000
M205 X30 Y30
G0 F3600 X82.149 Y93.19
M204 S500
M205 X20 Y20
G1 F1800 X82.666 Y92.805 E21.08024
G1 X83.227 Y92.486 E21.1017
G1 X83.823 Y92.24 E21.12315
G1 X84.444 Y92.069 E21.14457
G1 X85.082 Y91.977 E21.16601
G1 X85.747 Y91.964 E21.18814
G1 X91.701 Y92.237 E21.38637
G1 X97.112 Y92.3 E21.56636
G1 X104.654 Y91.955 E21.81747
G1 X104.892 Y91.95 E21.82538
G1 X108.293 Y91.95 E21.9385
G1 X108.524 Y91.955 E21.94619
G1 X116.454 Y92.307 E22.2102
G1 X121.828 Y92.218 E22.38896
G1 X126.704 Y91.957 E22.55137
G1 X126.995 Y91.95 E22.56105
G1 X131.003 Y91.96 E22.69436
G1 X131.304 Y91.97 E22.70438
G1 X135.719 Y92.237 E22.85149
G1 X141.123 Y92.3 E23.03124
G1 X149.276 Y91.963 E23.30264
G1 X149.921 Y91.977 E23.3241
G1 X150.558 Y92.07 E23.34551
G1 X151.18 Y92.241 E23.36697
G1 X151.776 Y92.488 E23.38842
G1 X152.336 Y92.806 E23.40984
G1 X152.853 Y93.192 E23.4313
G1 X153.318 Y93.638 E23.45273
G1 X153.724 Y94.139 E23.47418
G1 X154.065 Y94.686 E23.49562
G1 X154.336 Y95.271 E23.51706
G1 X154.532 Y95.885 E23.5385
G1 X154.651 Y96.518 E23.55992
G1 X154.691 Y97.159 E23.58128
G1 X154.691 Y119.841 E24.33569
G1 X154.651 Y120.484 E24.35712
G1 X154.532 Y121.118 E24.37857
G1 X154.335 Y121.732 E24.40002
G1 X154.064 Y122.317 E24.42146
G1 X153.722 Y122.864 E24.44292
G1 X153.316 Y123.364 E24.46434
G1 X152.851 Y123.81 E24.48577
G1 X152.334 Y124.195 E24.50721
G1 X151.773 Y124.514 E24.52868
G1 X151.177 Y124.76 E24.55012
G1 X150.556 Y124.931 E24.57154
G1 X149.918 Y125.023 E24.59298
G1 X149.491 Y125.041 E24.6072
G1 X85.509 Y125.041 E26.73525
G1 X84.866 Y125.001 E26.75668
G1 X84.232 Y124.882 E26.77813
G1 X83.618 Y124.685 E26.79958
G1 X83.033 Y124.414 E26.82102
G1 X82.486 Y124.072 E26.84248
G1 X81.986 Y123.666 E26.8639
G1 X81.54 Y123.201 E26.88533
G1 X81.155 Y122.684 E26.90677
G1 X80.836 Y122.123 E26.92824
G1 X80.59 Y121.527 E26.94968
G1 X80.419 Y120.906 E26.9711
G1 X80.327 Y120.268 E26.99254
G1 X80.309 Y119.841 E27.00676
G1 X80.309 Y97.159 E27.76116
G1 X80.349 Y96.516 E27.78259
G1 X80.468 Y95.882 E27.80405
G1 X80.665 Y95.268 E27.82549
G1 X80.936 Y94.683 E27.84694
G1 X81.278 Y94.136 E27.86839
G1 X81.684 Y93.636 E27.88982
G1 X82.149 Y93.19 E27.91125
M204 S5000
M205 X30 Y30
G1 F2400 E22.91125
;MESH:Object 12
G0 F3600 X86.114 Y96.485
G0 X86.114 Y97.764
G0 X86.33 Y101.02
G0 X86.4 Y100.95
M204 S500
M205 X20 Y20
;TYPE:WALL-INNER
G1 F2400 E27.91125
G1 F1800 X104.6 Y100.95 E28.51658
G1 X104.6 Y97.753 E28.62291
G1 X104.28 Y97.751 E28.63356
G1 X104.599 Y97.751 E28.63357
G1 X104.9 Y97.75 E28.64357
G1 X104.9 Y100.95 E28.72341
G1 X104.9 Y101.25 E28.73339
G1 X104.6 Y101.25 E28.74337
G1 X86.4 Y101.25 E29.19737
G1 X86.1 Y101.25 E29.20735
G1 X86.1 Y100.95 E29.21732
G1 X86.1 Y97.75 E29.32376
G1 X86.4 Y97.75 E29.33373
G1 X86.4 Y100.95 E29.41356
M204 S5000
M205 X30 Y30
G0 F3600 X86.33 Y101.02
G0 X86.372 Y98.137
G0 X86.8 Y98.065
G0 X86.8 Y98.15
M204 S500
M205 X20 Y20
;TYPE:WALL-OUTER
G1 F1800 X86.8 Y100.55 E29.49338
G1 X104.2 Y100.55 E30.07211
G1 X104.2 Y98.15 E30.15193
G1 X103.846 Y98.147 E30.16371
G1 X103.616 Y98.146 E30.17136
G1 X103.574 Y98.123 E30.17295
G1 X103.551 Y98.09 E30.17429
G1 X103.542 Y98.048 E30.17572
G1 X103.552 Y98.008 E30.17709
G1 X103.58 Y97.967 E30.17874
G1 X103.727 Y97.791 E30.18448
G1 X104.094 Y97.35 E30.20357
G1 X105.3 Y97.35 E30.24368
G1 X105.3 Y101.65 E30.3867
G1 X85.7 Y101.65 E31.0386
G1 X85.7 Y97.35 E31.18161
G1 X86.906 Y97.35 E31.22173
G1 X87.298 Y97.825 E31.24221
G1 X87.448 Y98.007 E31.25005
G1 X87.458 Y98.049 E31.25149
G1 X87.449 Y98.093 E31.25298
G1 X87.425 Y98.124 E31.25429
G1 X87.384 Y98.145 E31.25582
G1 X87.345 Y98.15 E31.25713
G1 X87.108 Y98.15 E31.26302
G1 X86.8 Y98.15 E31.27327
M204 S5000
M205 X30 Y30
G0 F3600 X86.8 Y98.35
G0 X87.072 Y98.032
G1 F2400 E26.27327
;MESH:Object 5
G0 F3600 X86.372 Y98.137
G0 X86.33 Y101.23
G0 X86.33 Y103.77
G0 X86.33 Y107.02
G0 X86.4 Y106.95
M204 S500
M205 X20 Y20
;TYPE:WALL-INNER
G1 F2400 E31.27327
G1 F1800 X104.6 Y106.95 E31.8786
G1 X104.6 Y103.753 E31.98493
G1 X104.28 Y103.751 E31.99558
G1 X104.599 Y103.751 E31.99559
G1 X104.9 Y103.75 E32.00559
G1 X104.9 Y106.95 E32.08543
G1 X104.9 Y107.25 E32.09541
G1 X104.6 Y107.25 E32.10539
G1 X86.4 Y107.25 E32.55939
G1 X86.1 Y107.25 E32.56937
G1 X86.1 Y106.95 E32.57934
G1 X86.1 Y103.75 E32.68578
G1 X86.4 Y103.75 E32.69575
G1 X86.4 Y106.95 E32.77558
M204 S5000
M205 X30 Y30
G0 F3600 X86.33 Y107.02
G0 X86.372 Y104.137
G0 X86.8 Y104.065
G0 X86.8 Y104.15
M204 S500
M205 X20 Y20
;TYPE:WALL-OUTER
G1 F1800 X86.8 Y106.55 E32.8554
G1 X104.2 Y106.55 E33.43413
G1 X104.2 Y104.15 E33.51395
G1 X103.846 Y104.147 E33.52573
G1 X103.616 Y104.146 E33.53338
G1 X103.574 Y104.123 E33.53497
G1 X103.551 Y104.09 E33.53631
G1 X103.542 Y104.048 E33.53774
G1 X103.552 Y104.008 E33.53911
G1 X103.58 Y103.967 E33.54076
G1 X103.727 Y103.791 E33.5465
G1 X104.094 Y103.35 E33.56559
G1 X105.3 Y103.35 E33.6057
G1 X105.3 Y107.65 E33.74872
G1 X85.7 Y107.65 E34.40062
G1 X85.7 Y103.35 E34.54363
G1 X86.906 Y103.35 E34.58375
G1 X87.298 Y103.825 E34.60423
G1 X87.448 Y104.007 E34.61207
G1 X87.458 Y104.049 E34.61351
G1 X87.449 Y104.093 E34.615
G1 X87.425 Y104.124 E34.61631
G1 X87.384 Y104.145 E34.61784
G1 X87.345 Y104.15 E34.61915
G1 X87.108 Y104.15 E34.62504
G1 X86.8 Y104.15 E34.63529
M204 S5000
M205 X30 Y30
G0 F3600 X86.8 Y104.35
G0 X87.072 Y104.032
G1 F2400 E29.63529
;MESH:Object 10
G0 F3600 X86.372 Y104.137
G0 X86.33 Y107.23
G0 X86.33 Y109.77
G0 X86.33 Y113.02
G0 X86.4 Y112.95
M204 S500
M205 X20 Y20
;TYPE:WALL-INNER
G1 F2400 E34.63529
G1 F1800 X104.6 Y112.95 E35.24062
G1 X104.6 Y109.753 E35.34695
G1 X104.28 Y109.751 E35.3576
G1 X104.599 Y109.751 E35.35761
G1 X104.9 Y109.75 E35.36761
G1 X104.9 Y112.95 E35.44745
G1 X104.9 Y113.25 E35.45743
G1 X104.6 Y113.25 E35.46741
G1 X86.4 Y113.25 E35.92141
G1 X86.1 Y113.25 E35.93139
G1 X86.1 Y112.95 E35.94136
G1 X86.1 Y109.75 E36.0478
G1 X86.4 Y109.75 E36.05777
G1 X86.4 Y112.95 E36.1376
M204 S5000
M205 X30 Y30
G0 F3600 X86.33 Y113.02
G0 X86.372 Y110.137
G0 X86.8 Y110.065
G0 X86.8 Y110.15
M204 S500
M205 X20 Y20
;TYPE:WALL-OUTER
G1 F1800 X86.8 Y112.55 E36.21742
G1 X104.2 Y112.55 E36.79615
G1 X104.2 Y110.15 E36.87597
G1 X103.846 Y110.147 E36.88775
G1 X103.616 Y110.146 E36.8954
G1 X103.574 Y110.123 E36.89699
G1 X103.551 Y110.09 E36.89833
G1 X103.542 Y110.048 E36.89976
G1 X103.552 Y110.008 E36.90113
G1 X103.58 Y109.967 E36.90278
G1 X103.727 Y109.791 E36.90852
G1 X104.094 Y109.35 E36.92761
G1 X105.3 Y109.35 E36.96772
G1 X105.3 Y113.65 E37.11074
G1 X85.7 Y113.65 E37.76263
G1 X85.7 Y109.35 E37.90565
G1 X86.906 Y109.35 E37.94577
G1 X87.298 Y109.825 E37.96625
G1 X87.448 Y110.007 E37.97409
G1 X87.458 Y110.049 E37.97553
G1 X87.449 Y110.093 E37.97702
G1 X87.425 Y110.124 E37.97833
G1 X87.384 Y110.145 E37.97986
G1 X87.345 Y110.15 E37.98117
G1 X87.108 Y110.15 E37.98706
G1 X86.8 Y110.15 E37.99731
M204 S5000
M205 X30 Y30
G0 F3600 X86.8 Y110.35
G0 X87.072 Y110.032
G1 F2400 E32.99731
;MESH:Object 9
G0 F3600 X86.372 Y110.137
G0 X86.33 Y113.23
G0 X86.33 Y115.77
G0 X86.33 Y119.02
G0 X86.4 Y118.95
M204 S500
M205 X20 Y20
;TYPE:WALL-INNER
G1 F2400 E37.99731
G1 F1800 X104.6 Y118.95 E38.60264
G1 X104.6 Y115.753 E38.70897
G1 X104.28 Y115.751 E38.71962
G1 X104.599 Y115.751 E38.71963
G1 X104.9 Y115.75 E38.72963
G1 X104.9 Y118.95 E38.80947
G1 X104.9 Y119.25 E38.81945
G1 X104.6 Y119.25 E38.82943
G1 X86.4 Y119.25 E39.28343
G1 X86.1 Y119.25 E39.29341
G1 X86.1 Y118.95 E39.30338
G1 X86.1 Y115.75 E39.40982
G1 X86.4 Y115.75 E39.41979
G1 X86.4 Y118.95 E39.49962
M204 S5000
M205 X30 Y30
G0 F3600 X86.33 Y119.02
G0 X86.372 Y116.137
G0 X86.8 Y116.065
G0 X86.8 Y116.15
M204 S500
M205 X20 Y20
;TYPE:WALL-OUTER
G1 F1800 X86.8 Y118.55 E39.57944
G1 X104.2 Y118.55 E40.15817
G1 X104.2 Y116.15 E40.23799
G1 X103.846 Y116.147 E40.24977
G1 X103.616 Y116.146 E40.25742
G1 X103.574 Y116.123 E40.25901
G1 X103.551 Y116.09 E40.26035
G1 X103.542 Y116.048 E40.26178
G1 X103.552 Y116.008 E40.26315
G1 X103.58 Y115.967 E40.2648
G1 X103.727 Y115.791 E40.27054
G1 X104.094 Y115.35 E40.28963
G1 X105.3 Y115.35 E40.32974
G1 X105.3 Y119.65 E40.47276
G1 X85.7 Y119.65 E41.12465
G1 X85.7 Y115.35 E41.26767
G1 X86.906 Y115.35 E41.30778
G1 X87.298 Y115.825 E41.32827
G1 X87.448 Y116.007 E41.33611
G1 X87.458 Y116.049 E41.33755
G1 X87.449 Y116.093 E41.33904
G1 X87.425 Y116.124 E41.34035
G1 X87.384 Y116.145 E41.34188
G1 X87.345 Y116.15 E41.34319
G1 X87.108 Y116.15 E41.34908
G1 X86.8 Y116.15 E41.35933
M204 S5000
M205 X30 Y30
G0 F3600 X86.8 Y116.35
G0 X87.072 Y116.032
G1 F2400 E36.35933
;MESH:Object 1
G0 F3600 X86.372 Y116.137
G0 X86.372 Y118.978
G0 X104.62 Y118.97
G0 X106.165 Y118.97
G0 X106.835 Y118.97
G0 X108.12 Y118.97
G0 X108.33 Y119.02
G0 X108.4 Y118.95
M204 S500
M205 X20 Y20
;TYPE:WALL-INNER
G1 F2400 E41.35933
