;FLAVOR:Marlin
;TIME:1374
;Filament used: 1.14456m
;Layer height: 0.2
;Generated with Cura_SteamEngine 3.6.0
M140 S60
M105
M190 S60
M104 S200
M105
M109 S200
M82 ;absolute extrusion mode
; Ender 3 Custom Start G-code
G28 ; Home all axes
G92 E0 ; Reset Extruder
G1 Z2.0 F3000 ; Move Z Axis up little to prevent scratching of Heat Bed
G1 X0.1 Y20 Z0.3 F5000.0 ; Move to start position
G1 X0.1 Y200.0 Z0.3 F1500.0 E15 ; Draw the first line
G1 X0.4 Y200.0 Z0.3 F5000.0 ; Move to side a little
G1 X0.4 Y20 Z0.3 F1500.0 E30 ; Draw the second line
G92 E0 ; Reset Extruder
G1 Z2.0 F3000 ; Move Z Axis up little to prevent scratching of Heat Bed
; End of custom start GCode
G92 E0
G1 F2400 E-5
;LAYER_COUNT:63
;LAYER:0
M107
M204 S5000
M205 X30 Y30
G0 F3600 X81.512 Y93.012 Z0.2
M204 S500
M205 X20 Y20
;TYPE:SKIRT
G1 F2400 E0
G1 F1800 X82.094 Y92.597 E0.02377
G1 X82.719 Y92.249 E0.04757
G1 X83.38 Y91.974 E0.07138
G1 X84.066 Y91.774 E0.09515
G1 X84.771 Y91.652 E0.11894
G1 X85.517 Y91.609 E0.1438
G1 X115.809 Y91.644 E1.15131
G1 X116.039 Y91.648 E1.15896
G1 X119.909 Y91.792 E1.28777
G1 X125.247 Y91.717 E1.46533
G1 X127.222 Y91.616 E1.5311
G1 X127.55 Y91.608 E1.54202
G1 X149.492 Y91.61 E2.27181
G1 X150.206 Y91.65 E2.2956
G1 X150.911 Y91.77 E2.31938
G1 X151.598 Y91.967 E2.34315
G1 X152.26 Y92.24 E2.36697
G1 X152.886 Y92.585 E2.39074
G1 X153.47 Y92.998 E2.41453
G1 X154.005 Y93.473 E2.43833
G1 X154.483 Y94.005 E2.46212
G1 X154.899 Y94.587 E2.48591
G1 X155.247 Y95.212 E2.5097
G1 X155.523 Y95.871 E2.53346
G1 X155.724 Y96.558 E2.55727
G1 X155.847 Y97.262 E2.58104
G1 X155.891 Y98.002 E2.6057
G1 X155.9 Y105.285 E2.84793
G1 X155.882 Y105.779 E2.86437
G1 X155.68 Y108.433 E2.9529
G1 X155.585 Y109.142 E2.97669
G1 X155.422 Y109.806 E2.99943
G1 X154.849 Y111.694 E3.06506
G1 X154.604 Y112.365 E3.08882
G1 X154.364 Y112.863 E3.1072
G1 X153.434 Y114.595 E3.17259
G1 X153.061 Y115.205 E3.19637
G1 X152.741 Y115.629 E3.21404
G1 X151.619 Y116.995 E3.27283
G1 X151.187 Y117.47 E3.29419
G1 X127.01 Y141.527 E4.42858
G1 X126.476 Y142.002 E4.45235
G1 X125.892 Y142.415 E4.47614
G1 X125.265 Y142.76 E4.49994
G1 X124.604 Y143.033 E4.52373
G1 X123.917 Y143.23 E4.5475
G1 X123.211 Y143.35 E4.57132
G1 X122.496 Y143.39 E4.59514
G1 X112.504 Y143.39 E4.92747
G1 X111.79 Y143.35 E4.95126
G1 X111.085 Y143.231 E4.97504
G1 X110.397 Y143.033 E4.99885
G1 X109.736 Y142.76 E5.02264
G1 X109.109 Y142.416 E5.04642
G1 X108.525 Y142.003 E5.07021
G1 X107.993 Y141.53 E5.09389
G1 X84.455 Y118.145 E6.19745
G1 X84.125 Y117.792 E6.21352
G1 X82.378 Y115.772 E6.30235
G1 X81.941 Y115.205 E6.32616
G1 X81.586 Y114.624 E6.34881
G1 X80.643 Y112.876 E6.41487
G1 X80.339 Y112.228 E6.43867
G1 X80.148 Y111.682 E6.45791
G1 X79.57 Y109.762 E6.5246
G1 X79.402 Y109.067 E6.54838
G1 X79.312 Y108.341 E6.57272
G1 X79.114 Y105.357 E6.67218
G1 X79.1 Y104.924 E6.68659
G1 X79.11 Y98 E6.91688
G1 X79.151 Y97.286 E6.94067
G1 X79.271 Y96.581 E6.96446
G1 X79.47 Y95.893 E6.98828
G1 X79.744 Y95.233 E7.01205
G1 X80.089 Y94.607 E7.03582
G1 X80.503 Y94.023 E7.05963
G1 X80.979 Y93.489 E7.08342
G1 X81.512 Y93.012 E7.10721
M204 S5000
M205 X30 Y30
G0 F3600 X81.901 Y93.216
M204 S500
M205 X20 Y20
G1 F1800 X82.477 Y92.832 E7.13024
G1 X83.094 Y92.517 E7.15328
G1 X83.743 Y92.275 E7.17632
G1 X84.415 Y92.11 E7.19933
G1 X85.102 Y92.023 E7.22236
G1 X85.517 Y92.009 E7.23617
G1 X115.809 Y92.044 E8.24369
G1 X116.024 Y92.048 E8.25084
G1 X119.9 Y92.192 E8.37985
G1 X125.274 Y92.117 E8.5586
G1 X127.243 Y92.016 E8.62418
G1 X127.55 Y92.008 E8.63439
G1 X149.492 Y92.01 E9.36419
G1 X150.183 Y92.05 E9.38721
G1 X150.865 Y92.169 E9.41024
G1 X151.529 Y92.367 E9.43328
G1 X152.166 Y92.639 E9.45632
G1 X152.767 Y92.983 E9.47935
G1 X153.324 Y93.394 E9.50237
G1 X153.83 Y93.866 E9.52539
G1 X154.279 Y94.394 E9.54844
G1 X154.664 Y94.97 E9.57148
G1 X154.98 Y95.586 E9.59451
G1 X155.222 Y96.235 E9.61755
G1 X155.389 Y96.907 E9.64058
G1 X155.477 Y97.594 E9.66362
G1 X155.491 Y98.003 E9.67723
G1 X155.5 Y105.286 E9.91946
G1 X155.483 Y105.748 E9.93484
G1 X155.281 Y108.402 E10.02337
G1 X155.188 Y109.089 E10.04642
G1 X155.039 Y109.689 E10.06699
G1 X154.466 Y111.577 E10.13261
G1 X154.227 Y112.227 E10.15564
G1 X154.011 Y112.673 E10.17213
G1 X153.081 Y114.405 E10.23751
G1 X152.719 Y114.996 E10.26056
G1 X152.431 Y115.375 E10.27639
G1 X151.309 Y116.741 E10.33519
G1 X150.905 Y117.186 E10.35518
G1 X126.728 Y141.243 E11.48957
G1 X126.21 Y141.703 E11.51261
G1 X125.642 Y142.099 E11.53564
G1 X125.032 Y142.428 E11.5587
G1 X124.389 Y142.684 E11.58171
G1 X123.72 Y142.864 E11.60476
G1 X123.035 Y142.966 E11.62779
G1 X122.496 Y142.99 E11.64574
G1 X112.504 Y142.99 E11.97807
G1 X111.813 Y142.95 E12.00109
G1 X111.13 Y142.831 E12.02415
G1 X110.467 Y142.633 E12.04717
G1 X109.83 Y142.361 E12.0702
G1 X109.229 Y142.017 E12.09324
G1 X108.671 Y141.606 E12.11629
G1 X108.275 Y141.246 E12.13409
G1 X84.737 Y117.861 E13.23765
G1 X84.428 Y117.53 E13.25271
G1 X82.681 Y115.51 E13.34154
G1 X82.259 Y114.961 E13.36457
G1 X81.938 Y114.434 E13.38509
G1 X80.995 Y112.686 E13.45115
G1 X80.702 Y112.058 E13.4742
G1 X80.531 Y111.567 E13.49149
G1 X79.953 Y109.647 E13.55818
G1 X79.792 Y108.973 E13.58123
G1 X79.711 Y108.314 E13.60331
G1 X79.513 Y105.33 E13.70278
G1 X79.5 Y104.924 E13.71629
G1 X79.51 Y98 E13.94658
G1 X79.551 Y97.309 E13.96961
G1 X79.671 Y96.627 E13.99264
G1 X79.869 Y95.963 E14.01568
G1 X80.143 Y95.327 E14.03872
G1 X80.488 Y94.727 E14.06174
G1 X80.899 Y94.17 E14.08476
G1 X81.372 Y93.664 E14.1078
G1 X81.901 Y93.216 E14.13085
M204 S5000
M205 X30 Y30
G0 F3600 X81.765 Y93.846
M204 S500
M205 X20 Y20
G1 F1800 X82.288 Y93.429 E14.1531
G1 X82.857 Y93.077 E14.17536
G1 X83.464 Y92.796 E14.1976
G1 X84.101 Y92.589 E14.21988
G1 X84.757 Y92.46 E14.24212
G1 X85.516 Y92.409 E14.26742
G1 X115.808 Y92.444 E15.27493
G1 X116.01 Y92.448 E15.28165
G1 X119.891 Y92.592 E15.41083
G1 X125.272 Y92.517 E15.58982
G1 X127.263 Y92.415 E15.65612
G1 X127.55 Y92.408 E15.66567
G1 X149.492 Y92.41 E16.39547
G1 X150.159 Y92.45 E16.41769
G1 X150.818 Y92.569 E16.43996
G1 X151.457 Y92.766 E16.4622
G1 X152.068 Y93.038 E16.48445
G1 X152.643 Y93.381 E16.50672
G1 X153.172 Y93.79 E16.52896
G1 X153.649 Y94.259 E16.55121
G1 X154.067 Y94.782 E16.57348
G1 X154.419 Y95.351 E16.59573
G1 X154.701 Y95.957 E16.61796
G1 X154.909 Y96.593 E16.64022
G1 X155.039 Y97.25 E16.66249
G1 X155.091 Y98.003 E16.6876
G1 X155.1 Y105.286 E16.92983
G1 X155.084 Y105.718 E16.94421
G1 X154.882 Y108.372 E17.03274
G1 X154.791 Y109.035 E17.05499
G1 X154.657 Y109.573 E17.07343
G1 X154.084 Y111.461 E17.13906
G1 X153.851 Y112.089 E17.16134
G1 X153.659 Y112.484 E17.17594
G1 X152.729 Y114.216 E17.24133
G1 X152.378 Y114.786 E17.26359
G1 X152.122 Y115.121 E17.27762
G1 X151 Y116.487 E17.33641
G1 X150.623 Y116.903 E17.35508
G1 X126.446 Y140.96 E18.48948
G1 X125.944 Y141.402 E18.51172
G1 X125.394 Y141.782 E18.53396
G1 X124.801 Y142.093 E18.55623
G1 X124.176 Y142.332 E18.57849
G1 X123.527 Y142.494 E18.60073
G1 X122.863 Y142.578 E18.62299
G1 X122.496 Y142.59 E18.63521
G1 X112.504 Y142.59 E18.96754
G1 X111.836 Y142.55 E18.9898
G1 X111.178 Y142.431 E19.01204
G1 X110.538 Y142.234 E19.03431
G1 X109.927 Y141.962 E19.05656
G1 X109.353 Y141.619 E19.0788
G1 X108.823 Y141.21 E19.10106
G1 X108.557 Y140.963 E19.11314
G1 X85.019 Y117.578 E20.2167
G1 X84.73 Y117.268 E20.2308
G1 X82.983 Y115.248 E20.31962
G1 X82.577 Y114.717 E20.34185
G1 X82.29 Y114.244 E20.36026
G1 X81.347 Y112.496 E20.42632
G1 X81.066 Y111.889 E20.44856
G1 X80.914 Y111.451 E20.46398
G1 X80.336 Y109.531 E20.53067
G1 X80.181 Y108.88 E20.55293
G1 X80.11 Y108.288 E20.57276
G1 X79.912 Y105.304 E20.67223
G1 X79.9 Y104.925 E20.68484
G1 X79.91 Y98.001 E20.91513
G1 X79.951 Y97.333 E20.93739
G1 X80.071 Y96.675 E20.95964
G1 X80.269 Y96.036 E20.98189
G1 X80.542 Y95.425 E21.00415
G1 X80.885 Y94.851 E21.02639
G1 X81.295 Y94.322 E21.04865
G1 X81.765 Y93.846 E21.0709
M204 S5000
M205 X30 Y30
G0 F3600 X82.156 Y94.035
M204 S500
M205 X20 Y20
G1 F1800 X82.674 Y93.651 E21.09234
G1 X83.235 Y93.333 E21.11379
G1 X83.831 Y93.088 E21.13522
G1 X84.453 Y92.918 E21.15667
G1 X85.091 Y92.826 E21.17811
G1 X85.516 Y92.809 E21.19226
G1 X115.808 Y92.844 E22.19977
G1 X115.995 Y92.848 E22.206
G1 X119.881 Y92.992 E22.33533
G1 X125.299 Y92.916 E22.51555
G1 X127.284 Y92.815 E22.58166
G1 X127.549 Y92.808 E22.59048
G1 X149.491 Y92.81 E23.32027
G1 X150.135 Y92.85 E23.34173
G1 X150.768 Y92.969 E23.36315
G1 X151.382 Y93.166 E23.3846
G1 X151.967 Y93.437 E23.40605
G1 X152.514 Y93.779 E23.4275
G1 X153.014 Y94.185 E23.44892
G1 X153.46 Y94.651 E23.47038
G1 X153.846 Y95.168 E23.49184
G1 X154.164 Y95.728 E23.51326
G1 X154.41 Y96.324 E23.5347
G1 X154.581 Y96.946 E23.55616
G1 X154.674 Y97.584 E23.5776
G1 X154.691 Y98.004 E23.59158
G1 X154.7 Y105.287 E23.83382
G1 X154.685 Y105.688 E23.84716
G1 X154.483 Y108.342 E23.93569
G1 X154.394 Y108.98 E23.95712
G1 X154.274 Y109.457 E23.97348
G1 X153.701 Y111.345 E24.0391
G1 X153.476 Y111.949 E24.06054
G1 X153.306 Y112.295 E24.07336
G1 X152.376 Y114.027 E24.13874
G1 X152.037 Y114.575 E24.16018
G1 X151.813 Y114.868 E24.17244
G1 X150.691 Y116.234 E24.23124
G1 X150.341 Y116.619 E24.24854
G1 X126.164 Y140.676 E25.38294
G1 X125.68 Y141.102 E25.40438
G1 X125.146 Y141.464 E25.42584
G1 X124.572 Y141.757 E25.44727
G1 X123.966 Y141.978 E25.46873
G1 X123.338 Y142.121 E25.49015
G1 X122.496 Y142.19 E25.51825
G1 X112.504 Y142.19 E25.85058
G1 X111.861 Y142.15 E25.87201
G1 X111.227 Y142.031 E25.89347
G1 X110.613 Y141.834 E25.91491
G1 X110.028 Y141.563 E25.93636
G1 X109.481 Y141.221 E25.95781
G1 X108.839 Y140.679 E25.98576
G1 X85.301 Y117.294 E27.08932
G1 X85.033 Y117.007 E27.10238
G1 X83.286 Y114.987 E27.19121
G1 X82.895 Y114.474 E27.21266
G1 X82.642 Y114.054 E27.22897
G1 X81.699 Y112.306 E27.29503
G1 X81.429 Y111.721 E27.31646
G1 X81.297 Y111.336 E27.33
G1 X80.719 Y109.416 E27.39669
G1 X80.572 Y108.788 E27.41814
G1 X80.509 Y108.261 E27.43579
G1 X80.311 Y105.277 E27.53526
G1 X80.3 Y104.925 E27.54697
G1 X80.31 Y98.001 E27.77726
G1 X80.351 Y97.358 E27.79869
G1 X80.471 Y96.725 E27.82012
G1 X80.669 Y96.111 E27.84158
G1 X80.941 Y95.527 E27.86301
G1 X81.283 Y94.98 E27.88446
G1 X81.69 Y94.481 E27.90588
G1 X82.156 Y94.035 E27.92734
M204 S5000
M205 X30 Y30
G1 F2400 E22.92734
;MESH:CableCareerNozzleHeader1.stl
G0 F3600 X86.114 Y97.335
G0 X86.114 Y98.614
G0 X94.829 Y100.128
G0 X94.885 Y100.21
M204 S500
M205 X20 Y20
;TYPE:WALL-INNER
G1 F2400 E27.92734
G1 F1800 X94.053 Y100.947 E27.9643
G1 X93.423 Y101.86 E28.0012
G1 X93.029 Y102.899 E28.03816
G1 X92.896 Y104 E28.07504
G1 X93.029 Y105.101 E28.11193
G1 X93.423 Y106.14 E28.14889
G1 X94.053 Y107.053 E28.18578
G1 X94.885 Y107.79 E28.22275
G1 X95.868 Y108.305 E28.25966
G1 X96.945 Y108.571 E28.29656
G1 X98.055 Y108.571 E28.33348
G1 X99.132 Y108.305 E28.37037
G1 X100.115 Y107.79 E28.40728
G1 X100.947 Y107.053 E28.44425
G1 X101.577 Y106.14 E28.48115
G1 X101.971 Y105.101 E28.5181
G1 X102.104 Y104 E28.55499
G1 X101.971 Y102.899 E28.59187
G1 X101.577 Y101.86 E28.62883
G1 X100.947 Y100.947 E28.66573
G1 X100.115 Y100.21 E28.7027
G1 X99.132 Y99.695 E28.73961
G1 X98.055 Y99.429 E28.7765
G1 X96.945 Y99.429 E28.81342
G1 X95.868 Y99.695 E28.85032
G1 X94.885 Y100.21 E28.88723
M204 S5000
M205 X30 Y30
G0 F3600 X94.829 Y100.128
G0 X94.024 Y100.921
G0 X93.388 Y101.842
G0 X92.991 Y102.89
G0 X92.856 Y104
G0 X92.991 Y105.11
G0 X93.388 Y106.158
G0 X111.979 Y131.749
G0 X112.001 Y131.652
M204 S500
M205 X20 Y20
G1 F1800 X112.184 Y131.522 E28.8947
G1 X113.335 Y130.702 E28.9417
G1 X113.709 Y131.125 E28.96048
G1 X114.646 Y131.822 E28.99932
G1 X115.16 Y132.058 E29.01813
G1 X114.708 Y133.396 E29.06511
G1 X114.637 Y133.609 E29.07257
G1 X114.857 Y133.654 E29.07724
G1 X116.892 Y134.078 E29.14638
G1 X118.589 Y134.02 E29.20285
G1 X120.223 Y133.561 E29.2593
G1 X121.702 Y132.728 E29.31576
G1 X122.942 Y131.566 E29.37228
G1 X123.871 Y130.144 E29.42878
G1 X124.435 Y128.542 E29.48527
G1 X124.603 Y126.853 E29.54172
G1 X124.365 Y125.171 E29.59822
G1 X123.894 Y123.994 E29.64039
G1 X127.1 Y120.175 E29.80623
G1 X127.1 Y99.039 E30.50922
G1 X127.114 Y98.911 E30.5135
G1 X127.143 Y98.829 E30.51639
G1 X127.192 Y98.751 E30.51946
G1 X127.251 Y98.692 E30.52223
G1 X127.329 Y98.643 E30.5253
G1 X127.411 Y98.614 E30.52819
G1 X127.539 Y98.6 E30.53247
G1 X148.9 Y98.6 E31.24294
G1 X148.9 Y105.971 E31.4881
G1 X148.715 Y107.839 E31.55053
G1 X148.175 Y109.612 E31.61218
G1 X147.303 Y111.235 E31.67346
G1 X146.107 Y112.686 E31.736
G1 X122.252 Y136.4 E32.85475
G1 X112.748 Y136.4 E33.17086
G1 X88.893 Y112.686 E34.28961
G1 X87.697 Y111.235 E34.35216
G1 X86.825 Y109.612 E34.41343
G1 X86.285 Y107.839 E34.47508
G1 X86.1 Y105.971 E34.53751
G1 X86.1 Y98.6 E34.78267
G1 X114.961 Y98.6 E35.74259
G1 X115.089 Y98.614 E35.74688
G1 X115.171 Y98.643 E35.74977
G1 X115.249 Y98.692 E35.75283
G1 X115.308 Y98.751 E35.75561
G1 X115.357 Y98.829 E35.75867
G1 X115.386 Y98.911 E35.76157
G1 X115.4 Y99.039 E35.76585
G1 X115.4 Y101.533 E35.8488
G1 X115.487 Y102.303 E35.87457
G1 X115.753 Y103.064 E35.90139
G1 X116.183 Y103.747 E35.92823
G1 X116.753 Y104.317 E35.95504
G1 X117.436 Y104.747 E35.98188
G1 X118.197 Y105.013 E36.0087
G1 X118.967 Y105.1 E36.03447
G1 X121.461 Y105.1 E36.11742
G1 X121.589 Y105.114 E36.1217
G1 X121.671 Y105.143 E36.1246
G1 X121.749 Y105.192 E36.12766
G1 X121.808 Y105.251 E36.13043
G1 X121.857 Y105.329 E36.1335
G1 X121.886 Y105.411 E36.13639
G1 X121.9 Y105.539 E36.14067
G1 X121.9 Y118.281 E36.56447
G1 X120.096 Y120.432 E36.65785
G1 X118.944 Y120.045 E36.69827
G1 X117.253 Y119.9 E36.75472
G1 X115.576 Y120.161 E36.81117
G1 X114.01 Y120.812 E36.86757
G1 X112.642 Y121.816 E36.92401
G1 X111.551 Y123.116 E36.98046
G1 X110.8 Y124.637 E37.03688
G1 X110.431 Y126.294 E37.09334
G1 X110.465 Y127.99 E37.14976
G1 X110.901 Y129.63 E37.2062
G1 X111.894 Y131.455 E37.2753
G1 X112.001 Y131.652 E37.27997
M204 S5000
M205 X30 Y30
G0 F3600 X111.979 Y131.749
G0 X114.603 Y133.628
G0 X116.889 Y134.117
G0 X118.595 Y134.059
G0 X120.238 Y133.597
G0 X121.725 Y132.76
G0 X122.972 Y131.591
G0 X123.906 Y130.161
G0 X124.474 Y128.55
G0 X127.137 Y120.188
G0 X133.388 Y101.842
G0 X133.902 Y101.097
G0 X134.829 Y100.128
G0 X134.885 Y100.21
M204 S500
M205 X20 Y20
G1 F1800 X134.053 Y100.947 E37.31694
G1 X133.423 Y101.86 E37.35384
G1 X133.029 Y102.899 E37.39079
G1 X132.896 Y104 E37.42768
G1 X133.029 Y105.101 E37.46457
G1 X133.423 Y106.14 E37.50152
G1 X134.053 Y107.053 E37.53842
G1 X134.885 Y107.79 E37.57539
G1 X135.868 Y108.305 E37.6123
G1 X136.945 Y108.571 E37.64919
G1 X138.055 Y108.571 E37.68611
G1 X139.132 Y108.305 E37.72301
G1 X140.115 Y107.79 E37.75992
G1 X140.947 Y107.053 E37.79689
G1 X141.577 Y106.14 E37.83378
G1 X141.971 Y105.101 E37.87074
G1 X142.104 Y104 E37.90763
G1 X141.971 Y102.899 E37.94451
G1 X141.577 Y101.86 E37.98147
G1 X140.947 Y100.947 E38.01836
G1 X140.115 Y100.21 E38.05533
G1 X139.132 Y99.695 E38.09224
G1 X138.055 Y99.429 E38.12914
G1 X136.945 Y99.429 E38.16606
G1 X135.868 Y99.695 E38.20296
G1 X134.885 Y100.21 E38.23987
M204 S5000
M205 X30 Y30
G0 F3600 X134.829 Y100.128
G0 X134.024 Y100.921
G0 X133.51 Y101.666
G0 X132.925 Y102.935
G0 X133.42 Y102.995
M204 S500
M205 X20 Y20
;TYPE:WALL-OUTER
G1 F1800 X133.299 Y104 E38.27353
G1 X133.42 Y105.005 E38.3072
G1 X133.78 Y105.953 E38.34093
G1 X134.355 Y106.786 E38.3746
G1 X135.114 Y107.458 E38.40831
G1 X136.011 Y107.928 E38.44199
G1 X136.994 Y108.171 E38.47567
G1 X138.006 Y108.171 E38.50933
G1 X138.989 Y107.928 E38.54301
G1 X139.886 Y107.458 E38.57669
G1 X140.645 Y106.786 E38.61041
G1 X141.22 Y105.953 E38.64408
G1 X141.58 Y105.005 E38.6778
G1 X141.701 Y104 E38.71147
G1 X141.58 Y102.995 E38.74514
G1 X141.22 Y102.047 E38.77887
G1 X140.645 Y101.214 E38.81253
G1 X139.886 Y100.542 E38.84625
G1 X138.989 Y100.072 E38.87993
G1 X138.006 Y99.829 E38.91361
G1 X136.994 Y99.829 E38.94727
G1 X136.011 Y100.072 E38.98095
G1 X135.114 Y100.542 E39.01463
G1 X134.355 Y101.214 E39.04835
G1 X133.78 Y102.047 E39.08201
G1 X133.42 Y102.995 E39.11574
M204 S5000
M205 X30 Y30
G0 F3600 X133.397 Y103.193
G0 X132.901 Y103.133
G0 X123.906 Y130.161
G0 X122.972 Y131.591
G0 X121.725 Y132.76
G0 X120.238 Y133.597
G0 X118.595 Y134.059
G0 X116.889 Y134.117
G0 X114.603 Y133.628
G0 X112.427 Y131.471
G0 X112.137 Y131.064
