;FLAVOR:Marlin
;TIME:180
;Filament used: 0.0853809m
;Layer height: 0.2
;Generated with Cura_SteamEngine 3.6.0
M140 S60
M105
M190 S60
M104 S200
M105
M109 S200
M82 ;absolute extrusion mode
; Ender 3 Custom Start G-code
G28 ; Home all axes
G92 E0 ; Reset Extruder
G1 Z2.0 F3000 ; Move Z Axis up little to prevent scratching of Heat Bed
G1 X0.1 Y20 Z0.3 F5000.0 ; Move to start position
G1 X0.1 Y200.0 Z0.3 F1500.0 E15 ; Draw the first line
G1 X0.4 Y200.0 Z0.3 F5000.0 ; Move to side a little
G1 X0.4 Y20 Z0.3 F1500.0 E30 ; Draw the second line
G92 E0 ; Reset Extruder
G1 Z2.0 F3000 ; Move Z Axis up little to prevent scratching of Heat Bed
; End of custom start GCode
G92 E0
G1 F2400 E-5
;LAYER_COUNT:16
;LAYER:0
M107
M204 S5000
M205 X30 Y30
G0 F3600 X107.757 Y108.3 Z0.2
M204 S500
M205 X20 Y20
;TYPE:SKIRT
G1 F2400 E0
G1 F1800 X108.261 Y107.809 E0.0234
G1 X109.154 Y107.031 E0.0628
G1 X109.719 Y106.593 E0.08657
G1 X110.037 Y106.386 E0.09919
G1 X111.07 Y105.759 E0.13938
G1 X111.701 Y105.423 E0.16316
G1 X112.044 Y105.276 E0.17557
G1 X113.14 Y104.844 E0.21476
G1 X113.819 Y104.619 E0.23855
G1 X114.194 Y104.53 E0.25137
G1 X115.377 Y104.286 E0.29154
G1 X116.085 Y104.181 E0.31535
G1 X116.81 Y104.156 E0.33947
G1 X118.633 Y104.196 E0.40012
G1 X119.346 Y104.251 E0.42391
G1 X119.973 Y104.367 E0.44512
G1 X121.172 Y104.652 E0.48611
G1 X121.858 Y104.857 E0.50992
G1 X122.216 Y104.998 E0.52272
G1 X123.283 Y105.456 E0.56134
G1 X123.924 Y105.774 E0.58513
G1 X124.396 Y106.071 E0.60368
G1 X125.841 Y107.069 E0.66209
G1 X126.406 Y107.508 E0.68589
G1 X126.906 Y107.994 E0.70908
G1 X127.712 Y108.867 E0.7486
G1 X128.167 Y109.418 E0.77237
G1 X128.384 Y109.732 E0.78506
G1 X129.029 Y110.729 E0.82456
G1 X129.383 Y111.35 E0.84833
G1 X129.669 Y112.017 E0.87247
G1 X130.301 Y113.754 E0.93395
G1 X130.54 Y114.58 E0.96255
G1 X130.66 Y115.131 E0.9813
G1 X130.796 Y116.122 E1.01457
G1 X130.865 Y117.311 E1.05419
G1 X130.867 Y118.026 E1.07797
G1 X130.836 Y118.4 E1.09045
G1 X130.702 Y119.587 E1.13018
G1 X130.582 Y120.292 E1.15397
G1 X130.486 Y120.66 E1.16662
G1 X130.152 Y121.806 E1.20632
G1 X129.914 Y122.48 E1.23009
G1 X129.754 Y122.833 E1.24298
G1 X129.223 Y123.916 E1.2831
G1 X128.873 Y124.539 E1.30687
G1 X128.659 Y124.854 E1.31953
G1 X127.961 Y125.817 E1.35909
G1 X127.509 Y126.372 E1.3829
G1 X127.253 Y126.637 E1.39515
G1 X126.399 Y127.472 E1.43488
G1 X125.861 Y127.943 E1.45866
G1 X125.549 Y128.171 E1.47151
G1 X124.568 Y128.845 E1.5111
G1 X123.957 Y129.216 E1.53487
G1 X123.609 Y129.389 E1.5478
G1 X122.502 Y129.896 E1.5883
G1 X121.836 Y130.157 E1.61209
G1 X121.474 Y130.264 E1.62464
G1 X120.325 Y130.568 E1.66417
G1 X119.624 Y130.712 E1.68798
G1 X119.243 Y130.757 E1.70074
G1 X118.049 Y130.861 E1.7406
G1 X117.334 Y130.883 E1.76439
G1 X116.622 Y130.825 E1.78815
G1 X115.919 Y130.688 E1.81197
G1 X115.525 Y130.575 E1.82561
G1 X111.426 Y129.25 E1.96889
G1 X110.759 Y128.992 E1.99267
G1 X110.125 Y128.662 E2.01644
G1 X109.531 Y128.262 E2.04026
G1 X108.96 Y127.774 E2.06524
G1 X107.649 Y126.514 E2.12572
G1 X107.162 Y125.991 E2.14949
G1 X106.792 Y125.499 E2.16997
G1 X106.114 Y124.502 E2.21007
G1 X105.745 Y123.889 E2.23387
G1 X105.573 Y123.538 E2.24687
G1 X105.082 Y122.451 E2.28654
G1 X104.825 Y121.783 E2.31034
G1 X104.722 Y121.43 E2.32257
G1 X104.425 Y120.29 E2.36175
G1 X104.283 Y119.588 E2.38558
G1 X104.227 Y119.018 E2.40463
G1 X104.133 Y117.26 E2.46318
G1 X104.135 Y116.544 E2.487
G1 X104.286 Y115.488 E2.52248
G1 X104.702 Y113.673 E2.58441
G1 X104.9 Y112.986 E2.60819
G1 X105.128 Y112.423 E2.62839
G1 X105.609 Y111.38 E2.66659
G1 X105.945 Y110.748 E2.6904
G1 X106.258 Y110.278 E2.70918
G1 X107.302 Y108.853 E2.76793
G1 X107.757 Y108.3 E2.79175
M204 S5000
M205 X30 Y30
G0 F3600 X108.066 Y108.555
M204 S500
M205 X20 Y20
G1 F1800 X108.524 Y108.111 E2.81297
G1 X109.417 Y107.333 E2.85236
G1 X110.245 Y106.728 E2.88647
G1 X111.278 Y106.101 E2.92666
G1 X112.191 Y105.648 E2.96056
G1 X113.287 Y105.216 E2.99974
G1 X114.275 Y104.922 E3.03403
G1 X115.458 Y104.678 E3.0742
G1 X116.143 Y104.577 E3.09723
G1 X116.802 Y104.555 E3.11916
G1 X118.625 Y104.595 E3.17981
G1 X119.315 Y104.651 E3.20283
G1 X119.881 Y104.757 E3.22199
G1 X121.08 Y105.042 E3.26298
G1 X122.059 Y105.365 E3.29726
G1 X123.126 Y105.823 E3.33588
G1 X123.745 Y106.133 E3.35891
G1 X124.169 Y106.4 E3.37558
G1 X125.614 Y107.398 E3.43399
G1 X126.16 Y107.824 E3.45702
G1 X126.612 Y108.265 E3.47802
G1 X127.418 Y109.138 E3.51754
G1 X128.048 Y109.949 E3.5517
G1 X128.693 Y110.946 E3.59119
G1 X129.035 Y111.548 E3.61422
G1 X129.293 Y112.153 E3.6361
G1 X129.925 Y113.89 E3.69757
G1 X130.15 Y114.665 E3.72442
G1 X130.27 Y115.216 E3.74317
G1 X130.397 Y116.145 E3.77436
G1 X130.466 Y117.334 E3.81397
G1 X130.438 Y118.355 E3.84794
G1 X130.304 Y119.542 E3.88767
G1 X130.102 Y120.548 E3.9218
G1 X129.768 Y121.694 E3.9615
G1 X129.395 Y122.656 E3.99582
G1 X128.864 Y123.739 E4.03594
G1 X128.335 Y124.619 E4.07009
G1 X127.637 Y125.582 E4.10964
G1 X126.974 Y126.351 E4.14342
G1 X126.12 Y127.186 E4.18314
G1 X125.323 Y127.841 E4.21745
G1 X124.342 Y128.515 E4.25704
G1 X123.442 Y129.025 E4.29145
G1 X122.335 Y129.532 E4.33194
G1 X121.372 Y129.877 E4.36597
G1 X120.223 Y130.181 E4.4055
G1 X119.209 Y130.358 E4.43973
G1 X118.015 Y130.462 E4.47959
G1 X117.322 Y130.483 E4.50265
G1 X116.632 Y130.423 E4.52569
G1 X115.649 Y130.194 E4.55926
G1 X111.55 Y128.869 E4.70254
G1 X110.904 Y128.618 E4.72559
G1 X110.292 Y128.295 E4.74861
G1 X109.721 Y127.903 E4.77164
G1 X109.237 Y127.486 E4.79289
G1 X107.926 Y126.226 E4.85337
G1 X107.456 Y125.718 E4.87639
G1 X107.123 Y125.274 E4.89485
G1 X106.445 Y124.277 E4.93495
G1 X105.938 Y123.373 E4.96942
G1 X105.447 Y122.286 E5.00909
G1 X105.109 Y121.329 E5.04285
G1 X104.812 Y120.189 E5.08203
G1 X104.676 Y119.51 E5.10506
G1 X104.627 Y118.996 E5.12224
G1 X104.533 Y117.238 E5.18079
G1 X104.536 Y116.546 E5.20381
G1 X104.676 Y115.578 E5.23634
G1 X105.092 Y113.763 E5.29827
G1 X105.285 Y113.098 E5.3213
G1 X105.491 Y112.59 E5.33954
G1 X105.972 Y111.547 E5.37774
G1 X106.298 Y110.936 E5.40077
G1 X106.581 Y110.514 E5.41767
G1 X107.625 Y109.089 E5.47642
G1 X108.066 Y108.555 E5.49946
M204 S5000
M205 X30 Y30
G0 F3600 X108.375 Y108.81
M204 S500
M205 X20 Y20
G1 F1800 X108.786 Y108.413 E5.51846
G1 X109.679 Y107.635 E5.55786
G1 X110.452 Y107.07 E5.5897
G1 X111.485 Y106.443 E5.62989
G1 X112.337 Y106.02 E5.66153
G1 X113.433 Y105.588 E5.70071
G1 X114.356 Y105.313 E5.73275
G1 X115.539 Y105.069 E5.77292
G1 X116.201 Y104.974 E5.79517
G1 X116.793 Y104.955 E5.81487
G1 X118.616 Y104.995 E5.87551
G1 X119.283 Y105.05 E5.89777
G1 X119.788 Y105.146 E5.91487
G1 X120.987 Y105.431 E5.95586
G1 X121.901 Y105.733 E5.98788
G1 X122.968 Y106.191 E6.0265
G1 X123.566 Y106.491 E6.04875
G1 X123.941 Y106.729 E6.06352
G1 X125.386 Y107.727 E6.12193
G1 X125.913 Y108.14 E6.1442
G1 X126.319 Y108.536 E6.16306
G1 X127.125 Y109.409 E6.20258
G1 X127.712 Y110.166 E6.23444
G1 X128.357 Y111.163 E6.27394
G1 X128.686 Y111.746 E6.2962
G1 X128.917 Y112.29 E6.31586
G1 X129.549 Y114.027 E6.37734
G1 X129.759 Y114.75 E6.40238
G1 X129.879 Y115.301 E6.42114
G1 X129.998 Y116.169 E6.45028
G1 X130.067 Y117.358 E6.48989
G1 X130.041 Y118.31 E6.52156
G1 X129.907 Y119.497 E6.56129
G1 X129.718 Y120.436 E6.59315
G1 X129.384 Y121.582 E6.63285
G1 X129.036 Y122.48 E6.66489
G1 X128.505 Y123.563 E6.705
G1 X128.011 Y124.384 E6.73687
G1 X127.313 Y125.347 E6.77643
G1 X126.694 Y126.065 E6.80796
G1 X125.84 Y126.9 E6.84769
G1 X125.096 Y127.512 E6.87973
G1 X124.115 Y128.186 E6.91931
G1 X123.276 Y128.661 E6.95138
G1 X122.169 Y129.168 E6.99188
G1 X121.269 Y129.491 E7.02368
G1 X120.12 Y129.795 E7.06321
G1 X119.174 Y129.96 E7.09515
G1 X117.98 Y130.064 E7.13501
G1 X117.311 Y130.082 E7.15727
G1 X116.645 Y130.02 E7.17952
G1 X115.772 Y129.814 E7.20935
G1 X111.673 Y128.489 E7.35263
G1 X111.049 Y128.245 E7.37492
G1 X110.46 Y127.929 E7.39715
G1 X109.912 Y127.545 E7.41941
G1 X109.515 Y127.198 E7.43694
G1 X108.204 Y125.938 E7.49742
G1 X107.75 Y125.446 E7.51969
G1 X107.453 Y125.049 E7.53618
G1 X106.775 Y124.052 E7.57628
G1 X106.302 Y123.208 E7.60846
G1 X105.811 Y122.121 E7.64813
G1 X105.496 Y121.228 E7.67962
G1 X105.199 Y120.088 E7.71881
G1 X105.069 Y119.431 E7.74108
G1 X105.026 Y118.975 E7.75632
G1 X104.932 Y117.217 E7.81487
G1 X104.936 Y116.548 E7.83712
G1 X105.066 Y115.667 E7.86674
G1 X105.482 Y113.852 E7.92867
G1 X105.67 Y113.21 E7.95092
G1 X105.855 Y112.758 E7.96717
G1 X106.336 Y111.715 E8.00537
G1 X106.652 Y111.125 E8.02763
G1 X106.904 Y110.75 E8.04266
G1 X107.948 Y109.325 E8.10141
G1 X108.375 Y108.81 E8.12366
M204 S5000
M205 X30 Y30
G0 F3600 X108.683 Y109.066
M204 S500
M205 X20 Y20
G1 F1800 X109.049 Y108.714 E8.14055
G1 X109.942 Y107.936 E8.17994
G1 X110.66 Y107.412 E8.20951
G1 X111.693 Y106.785 E8.2497
G1 X112.484 Y106.392 E8.27908
G1 X113.58 Y105.96 E8.31826
G1 X114.437 Y105.705 E8.348
G1 X115.62 Y105.461 E8.38817
G1 X116.258 Y105.37 E8.40961
G1 X116.784 Y105.355 E8.42711
G1 X118.607 Y105.395 E8.48776
G1 X119.249 Y105.449 E8.50919
G1 X119.696 Y105.535 E8.52433
G1 X120.895 Y105.82 E8.56532
G1 X121.743 Y106.101 E8.59503
G1 X122.81 Y106.559 E8.63365
G1 X123.386 Y106.849 E8.6551
G1 X123.714 Y107.058 E8.66803
G1 X125.159 Y108.056 E8.72644
G1 X125.666 Y108.455 E8.7479
G1 X126.025 Y108.808 E8.76465
G1 X126.831 Y109.681 E8.80417
G1 X127.376 Y110.383 E8.83373
G1 X128.021 Y111.38 E8.87322
G1 X128.337 Y111.942 E8.89466
G1 X128.542 Y112.427 E8.91218
G1 X129.174 Y114.164 E8.97366
G1 X129.368 Y114.835 E8.99689
G1 X129.488 Y115.386 E9.01564
G1 X129.598 Y116.192 E9.0427
G1 X129.667 Y117.381 E9.08231
G1 X129.643 Y118.265 E9.11172
G1 X129.509 Y119.452 E9.15146
G1 X129.334 Y120.324 E9.18104
G1 X129 Y121.47 E9.22074
G1 X128.677 Y122.304 E9.25048
G1 X128.146 Y123.387 E9.2906
G1 X127.687 Y124.15 E9.32022
G1 X126.989 Y125.113 E9.35978
G1 X126.414 Y125.779 E9.38904
G1 X125.56 Y126.614 E9.42877
G1 X124.87 Y127.182 E9.45849
G1 X123.889 Y127.856 E9.49808
G1 X123.109 Y128.298 E9.5279
G1 X122.002 Y128.805 E9.56839
G1 X121.167 Y129.104 E9.59789
G1 X120.018 Y129.408 E9.63742
G1 X119.139 Y129.561 E9.6671
G1 X117.945 Y129.665 E9.70696
G1 X117.301 Y129.681 E9.72839
G1 X116.659 Y129.618 E9.74984
G1 X115.895 Y129.433 E9.77599
G1 X111.796 Y128.108 E9.91927
G1 X111.196 Y127.872 E9.94071
G1 X110.629 Y127.564 E9.96217
G1 X110.106 Y127.188 E9.9836
G1 X109.792 Y126.909 E9.99757
G1 X108.481 Y125.649 E10.05805
G1 X108.044 Y125.174 E10.07951
G1 X107.784 Y124.824 E10.09401
G1 X107.106 Y123.827 E10.13412
G1 X106.667 Y123.044 E10.16397
G1 X106.176 Y121.957 E10.20364
G1 X105.883 Y121.127 E10.23292
G1 X105.586 Y119.987 E10.2721
G1 X105.462 Y119.354 E10.29356
G1 X105.425 Y118.954 E10.30692
G1 X105.331 Y117.196 E10.36547
G1 X105.337 Y116.551 E10.38692
G1 X105.455 Y115.756 E10.41366
G1 X105.871 Y113.941 E10.47559
G1 X106.054 Y113.323 E10.49703
G1 X106.218 Y112.925 E10.51134
G1 X106.699 Y111.882 E10.54954
G1 X107.005 Y111.315 E10.57097
G1 X107.226 Y110.987 E10.58413
G1 X108.27 Y109.562 E10.64288
G1 X108.683 Y109.066 E10.66435
M204 S5000
M205 X30 Y30
G1 F2400 E5.66435
;MESH:CableCareerNozzleHeader3.stl
G0 F3600 X111.907 Y112.252
G0 X112.902 Y113.062
G0 X115.843 Y112.02
G0 X116.973 Y111.8
G0 X118.122 Y111.812
G0 X119.248 Y112.054
G0 X120.302 Y112.518
G0 X121.243 Y113.181
G0 X122.03 Y114.022
G0 X122.634 Y115.002
G0 X123.028 Y116.083
G0 X123.205 Y117.566
G0 X123.138 Y118.393
G0 X122.902 Y119.29
G0 X122.385 Y120.567
G0 X122.301 Y120.514
M204 S500
M205 X20 Y20
;TYPE:WALL-INNER
G1 F2400 E10.66435
G1 F1800 X122.808 Y119.487 E10.70244
G1 X123.099 Y118.387 E10.74029
G1 X123.166 Y117.565 E10.76772
G1 X123.161 Y117.223 E10.7791
G1 X123.072 Y116.463 E10.80455
G1 X122.99 Y116.093 E10.81715
G1 X122.765 Y115.398 E10.84145
G1 X122.599 Y115.019 E10.85521
G1 X122.257 Y114.412 E10.87838
G1 X121.999 Y114.046 E10.89328
G1 X121.568 Y113.545 E10.91526
G1 X121.217 Y113.211 E10.93137
G1 X120.722 Y112.827 E10.95221
G1 X120.283 Y112.552 E10.96944
G1 X119.755 Y112.289 E10.98906
G1 X119.236 Y112.092 E11.00752
G1 X118.701 Y111.948 E11.02595
G1 X118.118 Y111.851 E11.04561
G1 X117.6 Y111.818 E11.06287
G1 X116.976 Y111.839 E11.08364
G1 X116.495 Y111.904 E11.09978
G1 X115.854 Y112.058 E11.12171
G1 X115.429 Y112.203 E11.13664
G1 X114.797 Y112.496 E11.15981
G1 X114.44 Y112.705 E11.17357
G1 X113.851 Y113.136 E11.19785
G1 X113.568 Y113.389 E11.21047
G1 X113.052 Y113.953 E11.2359
G1 X112.841 Y114.234 E11.24758
G1 X112.304 Y115.177 E11.28368
G1 X111.952 Y116.226 E11.32048
G1 X111.811 Y117.324 E11.3573
G1 X111.887 Y118.426 E11.39404
G1 X112.173 Y119.495 E11.43084
G1 X112.661 Y120.488 E11.46764
G1 X113.334 Y121.367 E11.50446
G1 X113.711 Y121.7 E11.52119
G1 X113.414 Y122.111 E11.53806
G1 X113.287 Y122.288 E11.54531
G1 X113.122 Y122.146 E11.54987
G1 X112.912 Y121.965 E11.55909
G1 X112.218 Y121.12 E11.59546
G1 X111.674 Y120.162 E11.6321
G1 X111.307 Y119.14 E11.66822
G1 X111.116 Y118.057 E11.70479
G1 X111.114 Y116.959 E11.74131
G1 X111.298 Y115.883 E11.77762
G1 X111.663 Y114.851 E11.81403
G1 X112.203 Y113.89 E11.85069
G1 X112.888 Y113.049 E11.88677
G1 X113.721 Y112.324 E11.9235
G1 X114.659 Y111.756 E11.95997
G1 X115.673 Y111.36 E11.99618
G1 X116.749 Y111.14 E12.03271
G1 X117.847 Y111.107 E12.06924
G1 X118.927 Y111.261 E12.10553
G1 X119.974 Y111.599 E12.14212
G1 X120.938 Y112.107 E12.17836
G1 X121.814 Y112.78 E12.2151
G1 X122.553 Y113.583 E12.2514
G1 X123.144 Y114.501 E12.28771
G1 X123.571 Y115.506 E12.32403
G1 X123.821 Y116.582 E12.36077
G1 X123.884 Y117.674 E12.39715
G1 X123.761 Y118.758 E12.43344
G1 X123.452 Y119.814 E12.47003
G1 X122.97 Y120.794 E12.50636
G1 X122.324 Y121.684 E12.54293
G1 X121.542 Y122.445 E12.57923
G1 X120.637 Y123.064 E12.61569
G1 X119.639 Y123.52 E12.65219
G1 X118.582 Y123.798 E12.68854
G1 X118.305 Y123.822 E12.69779
G1 X118.089 Y123.84 E12.705
G1 X118.089 Y123.624 E12.70954
G1 X118.089 Y123.623 E12.70957
G1 X118.089 Y123.116 E12.72643
G1 X118.629 Y123.061 E12.74449
G1 X119.722 Y122.718 E12.78259
G1 X120.725 Y122.163 E12.82071
G1 X121.596 Y121.419 E12.85881
G1 X122.301 Y120.514 E12.89697
M204 S5000
M205 X30 Y30
G0 F3600 X122.385 Y120.567
G0 X121.624 Y121.446
G0 X120.747 Y122.195
G0 X119.929 Y122.647
G0 X118.696 Y123.145
G0 X118.548 Y122.667
M204 S500
M205 X20 Y20
;TYPE:WALL-OUTER
G1 F1800 X119.564 Y122.348 E12.93239
G1 X120.496 Y121.833 E12.9678
G1 X121.305 Y121.141 E13.00321
G1 X121.96 Y120.3 E13.03867
G1 X122.432 Y119.346 E13.07407
G1 X122.703 Y118.319 E13.1094
G1 X122.766 Y117.552 E13.13499
G1 X122.761 Y117.25 E13.14504
G1 X122.677 Y116.529 E13.16918
G1 X122.604 Y116.198 E13.18046
G1 X122.391 Y115.54 E13.20346
G1 X122.241 Y115.198 E13.21588
G1 X121.918 Y114.626 E13.23773
G1 X121.683 Y114.292 E13.25131
G1 X121.278 Y113.821 E13.27197
G1 X120.956 Y113.515 E13.28675
G1 X120.493 Y113.155 E13.30625
G1 X120.087 Y112.901 E13.32218
G1 X119.594 Y112.656 E13.34049
G1 X119.113 Y112.473 E13.35761
G1 X118.616 Y112.339 E13.37473
G1 X118.072 Y112.249 E13.39307
G1 X117.594 Y112.218 E13.409
G1 X117.01 Y112.238 E13.42844
G1 X116.569 Y112.298 E13.44324
G1 X115.965 Y112.443 E13.4639
G1 X115.578 Y112.575 E13.4775
G1 X114.983 Y112.851 E13.49931
G1 X114.66 Y113.04 E13.51176
G1 X114.103 Y113.447 E13.5347
G1 X113.85 Y113.674 E13.54601
G1 X113.36 Y114.209 E13.57014
G1 X113.176 Y114.454 E13.58033
G1 X112.671 Y115.341 E13.61428
G1 X112.344 Y116.316 E13.64848
G1 X112.213 Y117.336 E13.68269
G1 X112.283 Y118.36 E13.71682
G1 X112.549 Y119.354 E13.75105
G1 X113.003 Y120.276 E13.78523
G1 X113.628 Y121.093 E13.81944
G1 X114.248 Y121.64 E13.84694
G1 X113.483 Y122.7 E13.89042
G1 X113.356 Y122.875 E13.89761
G1 X113.192 Y122.734 E13.90216
G1 X112.625 Y122.245 E13.92706
G1 X111.886 Y121.346 E13.96577
G1 X111.311 Y120.334 E14.00448
G1 X110.918 Y119.24 E14.04314
G1 X110.716 Y118.092 E14.08191
G1 X110.714 Y116.927 E14.12066
G1 X110.91 Y115.779 E14.1594
G1 X111.298 Y114.684 E14.19804
G1 X111.869 Y113.668 E14.2368
G1 X112.603 Y112.766 E14.27548
G1 X113.481 Y112.002 E14.31419
G1 X114.481 Y111.397 E14.35306
G1 X115.562 Y110.974 E14.39167
G1 X116.703 Y110.741 E14.4304
G1 X117.868 Y110.706 E14.46917
G1 X119.02 Y110.87 E14.50787
G1 X120.127 Y111.228 E14.54657
G1 X121.155 Y111.769 E14.5852
G1 X122.084 Y112.483 E14.62417
G1 X122.869 Y113.336 E14.66273
