;FLAVOR:Marlin
;TIME:3034
;Filament used: 2.6357m
;Layer height: 0.2
;Generated with Cura_SteamEngine 3.6.0
M140 S60
M105
M190 S60
M104 S200
M105
M109 S200
M82 ;absolute extrusion mode
; Ender 3 Custom Start G-code
G28 ; Home all axes
G92 E0 ; Reset Extruder
G1 Z2.0 F3000 ; Move Z Axis up little to prevent scratching of Heat Bed
G1 X0.1 Y20 Z0.3 F5000.0 ; Move to start position
G1 X0.1 Y200.0 Z0.3 F1500.0 E15 ; Draw the first line
G1 X0.4 Y200.0 Z0.3 F5000.0 ; Move to side a little
G1 X0.4 Y20 Z0.3 F1500.0 E30 ; Draw the second line
G92 E0 ; Reset Extruder
G1 Z2.0 F3000 ; Move Z Axis up little to prevent scratching of Heat Bed
; End of custom start GCode
G92 E0
G1 F2400 E-5
;LAYER_COUNT:106
;LAYER:0
M107
M204 S5000
M205 X30 Y30
;MESH:CableCareerTableHeader.stl
G0 F3600 X111.001 Y108.441 Z0.2
M204 S500
M205 X20 Y20
;TYPE:WALL-INNER
G1 F2400 E0
G1 F1800 X110.577 Y109.057 E0.02487
G1 X110.311 Y109.758 E0.04981
G1 X110.221 Y110.5 E0.07467
G1 X110.311 Y111.242 E0.09953
G1 X110.577 Y111.943 E0.12447
G1 X111.001 Y112.559 E0.14934
G1 X111.562 Y113.055 E0.17425
G1 X112.224 Y113.403 E0.19912
G1 X112.951 Y113.582 E0.22402
G1 X113.7 Y113.582 E0.24894
G1 X114.427 Y113.403 E0.27384
G1 X115.088 Y113.055 E0.29868
G1 X115.649 Y112.559 E0.32359
G1 X116.074 Y111.943 E0.34848
G1 X116.34 Y111.242 E0.37342
G1 X116.429 Y110.5 E0.39827
G1 X116.34 Y109.758 E0.42313
G1 X116.074 Y109.057 E0.44807
G1 X115.649 Y108.441 E0.47296
G1 X115.088 Y107.945 E0.49786
G1 X114.427 Y107.597 E0.52271
G1 X113.7 Y107.418 E0.54761
G1 X112.951 Y107.418 E0.57252
G1 X112.224 Y107.597 E0.59743
G1 X111.562 Y107.945 E0.6223
G1 X111.001 Y108.441 E0.64721
M204 S5000
M205 X30 Y30
G0 F3600 X110.927 Y108.375
G0 X110.542 Y109.039
G0 X110.325 Y109.614
G0 X103.126 Y142.066
G0 X103.207 Y142.124
M204 S500
M205 X20 Y20
G1 F1800 X102.942 Y142.592 E0.6651
G1 X102.777 Y143.103 E0.68296
G1 X102.725 Y143.607 E0.69981
G1 X102.725 Y153.9 E1.04215
G1 X84.125 Y153.9 E1.66079
G1 X83.925 Y153.9 E1.66744
G1 X83.925 Y153.7 E1.67175
G1 X83.926 Y131.23 E2.41911
G1 X84.017 Y130.251 E2.45181
G1 X84.278 Y129.313 E2.48419
G1 X84.695 Y128.446 E2.51619
G1 X112.648 Y81.558 E4.3318
G1 X112.772 Y81.391 E4.33872
G1 X112.907 Y81.272 E4.3447
G1 X113.074 Y81.178 E4.35107
G1 X113.244 Y81.123 E4.35702
G1 X113.464 Y81.1 E4.36437
G1 X150.81 Y81.1 E5.60651
G1 X150.934 Y81.1 E5.61063
G1 X150.997 Y81.107 E5.61274
G1 X151.037 Y81.126 E5.61421
G1 X151.063 Y81.161 E5.61566
G1 X151.071 Y81.199 E5.61695
G1 X151.064 Y81.259 E5.61896
G1 X151.034 Y81.379 E5.62308
G1 X142.173 Y116.821 E6.83817
G1 X141.804 Y117.851 E6.87456
G1 X141.258 Y118.76 E6.90983
G1 X140.54 Y119.549 E6.94531
G1 X139.66 Y120.197 E6.98165
G1 X103.97 Y141.419 E8.36271
G1 X103.564 Y141.721 E8.37954
G1 X103.207 Y142.124 E8.39745
M204 S5000
M205 X30 Y30
G0 F3600 X103.534 Y142.358
M204 S500
M205 X20 Y20
;TYPE:WALL-OUTER
G1 F1800 X103.31 Y142.753 E8.41255
G1 X103.171 Y143.186 E8.42768
G1 X103.125 Y143.628 E8.44246
G1 X103.125 Y154.3 E8.79741
G1 X83.725 Y154.3 E9.44266
G1 X83.525 Y154.3 E9.44931
G1 X83.525 Y154.1 E9.45361
G1 X83.526 Y131.215 E10.21477
G1 X83.622 Y130.179 E10.24938
G1 X83.902 Y129.173 E10.28411
G1 X84.348 Y128.246 E10.31832
G1 X112.31 Y81.343 E12.13451
G1 X112.476 Y81.119 E12.14379
G1 X112.675 Y80.944 E12.1526
G1 X112.913 Y80.809 E12.1617
G1 X113.162 Y80.729 E12.1704
G1 X113.442 Y80.7 E12.17976
G1 X150.961 Y80.7 E13.42765
G1 X151.086 Y80.714 E13.43183
G1 X151.196 Y80.753 E13.43571
G1 X151.289 Y80.812 E13.43938
G1 X151.368 Y80.893 E13.44314
G1 X151.428 Y80.991 E13.44696
G1 X151.463 Y81.095 E13.45061
G1 X151.474 Y81.209 E13.45442
G1 X151.458 Y81.33 E13.45848
G1 X142.555 Y116.942 E14.67939
G1 X142.168 Y118.022 E14.71755
G1 X141.581 Y118.999 E14.75546
G1 X140.81 Y119.847 E14.79358
G1 X139.88 Y120.531 E14.83198
G1 X104.192 Y141.752 E16.21296
G1 X103.836 Y142.017 E16.22772
G1 X103.534 Y142.358 E16.24287
M204 S5000
M205 X30 Y30
G0 F3600 X103.436 Y142.532
G0 X103.001 Y142.285
G0 X115.758 Y112.576
G0 X115.348 Y112.292
M204 S500
M205 X20 Y20
G1 F1800 X115.717 Y111.756 E16.26451
G1 X115.949 Y111.146 E16.28622
G1 X116.026 Y110.5 E16.30786
G1 X115.949 Y109.854 E16.3295
G1 X115.717 Y109.244 E16.3512
G1 X115.348 Y108.708 E16.37285
G1 X114.859 Y108.277 E16.39453
G1 X114.284 Y107.974 E16.41614
G1 X113.651 Y107.818 E16.43783
G1 X113 Y107.818 E16.45948
G1 X112.367 Y107.974 E16.48116
G1 X111.791 Y108.277 E16.50281
G1 X111.303 Y108.708 E16.52447
G1 X110.934 Y109.244 E16.54611
G1 X110.702 Y109.854 E16.56782
G1 X110.624 Y110.5 E16.58946
G1 X110.702 Y111.146 E16.6111
G1 X110.934 Y111.756 E16.63281
G1 X111.303 Y112.292 E16.65445
G1 X111.791 Y112.723 E16.67611
G1 X112.367 Y113.026 E16.69775
G1 X113 Y113.182 E16.71944
G1 X113.651 Y113.182 E16.74109
G1 X114.284 Y113.026 E16.76277
G1 X114.859 Y112.723 E16.78439
G1 X115.348 Y112.292 E16.80607
M204 S5000
M205 X30 Y30
G0 F3600 X115.461 Y112.128
G0 X115.871 Y112.411
G0 X115.943 Y112.82
M204 S500
M205 X20 Y20
;TYPE:SKIN
G1 F1800 X116.421 Y112.126 E16.8341
G1 X116.722 Y111.336 E16.86221
G1 X116.821 Y110.5 E16.89021
G1 X116.722 Y109.664 E16.91821
G1 X116.421 Y108.874 E16.94633
G1 X115.943 Y108.18 E16.97436
G1 X115.311 Y107.621 E17.00242
G1 X114.567 Y107.23 E17.03038
G1 X113.747 Y107.028 E17.05847
G1 X112.904 Y107.028 E17.08651
G1 X112.085 Y107.23 E17.11456
G1 X111.339 Y107.621 E17.14258
G1 X110.707 Y108.18 E17.17064
G1 X110.23 Y108.874 E17.19865
G1 X109.929 Y109.664 E17.22677
G1 X109.829 Y110.5 E17.25477
G1 X109.929 Y111.336 E17.28277
G1 X110.23 Y112.126 E17.31089
G1 X110.707 Y112.82 E17.3389
G1 X111.339 Y113.379 E17.36696
G1 X112.085 Y113.77 E17.39498
G1 X112.904 Y113.972 E17.42303
G1 X113.747 Y113.972 E17.45107
G1 X114.567 Y113.77 E17.47916
G1 X115.311 Y113.379 E17.50711
G1 X115.943 Y112.82 E17.53518
M204 S5000
M205 X30 Y30
G0 F3600 X139.437 Y119.875
M204 S500
M205 X20 Y20
G1 F1800 X103.753 Y141.094 E18.91601
G1 X103.299 Y141.432 E18.93484
G1 X102.888 Y141.896 E18.95545
G1 X102.583 Y142.434 E18.97602
G1 X102.393 Y143.023 E18.99661
G1 X102.335 Y143.587 E19.01546
G1 X102.335 Y153.51 E19.3455
G1 X84.315 Y153.51 E19.94485
G1 X84.316 Y131.245 E20.68539
G1 X84.401 Y130.325 E20.71612
G1 X84.646 Y129.446 E20.74647
G1 X85.038 Y128.631 E20.77655
G1 X112.972 Y81.774 E22.59095
G1 X113.06 Y81.657 E22.59581
G1 X113.133 Y81.592 E22.59907
G1 X113.232 Y81.537 E22.60283
G1 X113.324 Y81.507 E22.60605
G1 X113.485 Y81.49 E22.61144
G1 X150.604 Y81.49 E23.84602
G1 X141.801 Y116.704 E25.05328
G1 X141.451 Y117.683 E25.08786
G1 X140.946 Y118.522 E25.12043
G1 X140.276 Y119.259 E25.15356
G1 X139.437 Y119.875 E25.18818
M204 S5000
M205 X30 Y30
G0 F3600 X150.322 Y81.874
M204 S500
M205 X20 Y20
G1 F1800 X150.118 Y81.67 E25.19778
M204 S5000
M205 X30 Y30
G0 F3600 X149.552 Y81.67
M204 S500
M205 X20 Y20
G1 F1800 X150.209 Y82.327 E25.22868
M204 S5000
M205 X30 Y30
G0 F3600 X150.096 Y82.779
M204 S500
M205 X20 Y20
G1 F1800 X148.986 Y81.67 E25.28087
M204 S5000
M205 X30 Y30
G0 F3600 X148.421 Y81.67
M204 S500
M205 X20 Y20
G1 F1800 X149.983 Y83.232 E25.35434
M204 S5000
M205 X30 Y30
G0 F3600 X149.869 Y83.684
M204 S500
M205 X20 Y20
G1 F1800 X147.855 Y81.67 E25.44907
M204 S5000
M205 X30 Y30
G0 F3600 X147.289 Y81.67
M204 S500
M205 X20 Y20
G1 F1800 X149.756 Y84.137 E25.56511
M204 S5000
M205 X30 Y30
G0 F3600 X149.643 Y84.589
M204 S500
M205 X20 Y20
G1 F1800 X146.723 Y81.67 E25.70243
M204 S5000
M205 X30 Y30
G0 F3600 X146.158 Y81.67
M204 S500
M205 X20 Y20
G1 F1800 X149.53 Y85.042 E25.86104
M204 S5000
M205 X30 Y30
G0 F3600 X149.417 Y85.494
M204 S500
M205 X20 Y20
G1 F1800 X145.592 Y81.67 E26.04094
M204 S5000
M205 X30 Y30
G0 F3600 X145.026 Y81.67
M204 S500
M205 X20 Y20
G1 F1800 X149.304 Y85.947 E26.24214
M204 S5000
M205 X30 Y30
G0 F3600 X149.191 Y86.399
M204 S500
M205 X20 Y20
G1 F1800 X144.461 Y81.67 E26.4646
M204 S5000
M205 X30 Y30
G0 F3600 X143.895 Y81.67
M204 S500
M205 X20 Y20
G1 F1800 X149.077 Y86.852 E26.70834
M204 S5000
M205 X30 Y30
G0 F3600 X148.964 Y87.305
M204 S500
M205 X20 Y20
G1 F1800 X143.329 Y81.67 E26.9734
M204 S5000
M205 X30 Y30
G0 F3600 X142.764 Y81.67
M204 S500
M205 X20 Y20
G1 F1800 X148.851 Y87.757 E27.25971
M204 S5000
M205 X30 Y30
G0 F3600 X148.738 Y88.21
M204 S500
M205 X20 Y20
G1 F1800 X142.198 Y81.67 E27.56733
M204 S5000
M205 X30 Y30
G0 F3600 X141.632 Y81.67
M204 S500
M205 X20 Y20
G1 F1800 X148.625 Y88.662 E27.89624
M204 S5000
M205 X30 Y30
G0 F3600 X148.512 Y89.115
M204 S500
M205 X20 Y20
G1 F1800 X141.067 Y81.67 E28.24643
M204 S5000
M205 X30 Y30
G0 F3600 X140.501 Y81.67
M204 S500
M205 X20 Y20
G1 F1800 X148.399 Y89.567 E28.6179
M204 S5000
M205 X30 Y30
G0 F3600 X148.285 Y90.02
M204 S500
M205 X20 Y20
G1 F1800 X139.935 Y81.67 E29.01066
M204 S5000
M205 X30 Y30
G0 F3600 X139.37 Y81.67
M204 S500
M205 X20 Y20
G1 F1800 X148.172 Y90.472 E29.42468
M204 S5000
M205 X30 Y30
G0 F3600 X148.059 Y90.925
M204 S500
M205 X20 Y20
G1 F1800 X138.804 Y81.67 E29.86001
M204 S5000
M205 X30 Y30
G0 F3600 X138.238 Y81.67
M204 S500
M205 X20 Y20
G1 F1800 X147.946 Y91.377 E30.31662
M204 S5000
M205 X30 Y30
G0 F3600 X147.833 Y91.83
M204 S500
M205 X20 Y20
G1 F1800 X137.672 Y81.67 E30.79454
M204 S5000
M205 X30 Y30
G0 F3600 X137.107 Y81.67
M204 S500
M205 X20 Y20
G1 F1800 X147.72 Y92.283 E31.29374
M204 S5000
M205 X30 Y30
G0 F3600 X147.607 Y92.735
M204 S500
M205 X20 Y20
G1 F1800 X136.541 Y81.67 E31.81423
M204 S5000
M205 X30 Y30
G0 F3600 X135.975 Y81.67
M204 S500
M205 X20 Y20
G1 F1800 X147.493 Y93.188 E32.356
M204 S5000
M205 X30 Y30
G0 F3600 X147.38 Y93.64
M204 S500
M205 X20 Y20
G1 F1800 X135.41 Y81.67 E32.91903
M204 S5000
M205 X30 Y30
G0 F3600 X134.844 Y81.67
M204 S500
M205 X20 Y20
G1 F1800 X147.267 Y94.093 E33.50337
M204 S5000
M205 X30 Y30
G0 F3600 X147.154 Y94.545
M204 S500
M205 X20 Y20
G1 F1800 X134.278 Y81.67 E34.10899
M204 S5000
M205 X30 Y30
G0 F3600 X133.713 Y81.67
M204 S500
M205 X20 Y20
G1 F1800 X147.041 Y94.998 E34.7359
M204 S5000
M205 X30 Y30
G0 F3600 X146.928 Y95.45
M204 S500
M205 X20 Y20
G1 F1800 X133.147 Y81.67 E35.38409
M204 S5000
M205 X30 Y30
G0 F3600 X132.581 Y81.67
M204 S500
M205 X20 Y20
G1 F1800 X146.815 Y95.903 E36.05359
M204 S5000
M205 X30 Y30
G0 F3600 X146.702 Y96.356
M204 S500
M205 X20 Y20
G1 F1800 X132.016 Y81.67 E36.74438
M204 S5000
M205 X30 Y30
G0 F3600 X131.45 Y81.67
M204 S500
M205 X20 Y20
G1 F1800 X146.588 Y96.808 E37.45642
M204 S5000
M205 X30 Y30
G0 F3600 X146.475 Y97.261
M204 S500
M205 X20 Y20
G1 F1800 X130.884 Y81.67 E38.18978
M204 S5000
M205 X30 Y30
G0 F3600 X130.319 Y81.67
M204 S500
M205 X20 Y20
G1 F1800 X146.362 Y97.713 E38.94439
M204 S5000
M205 X30 Y30
G0 F3600 X146.249 Y98.166
M204 S500
M205 X20 Y20
G1 F1800 X129.753 Y81.67 E39.72031
M204 S5000
M205 X30 Y30
G0 F3600 X129.187 Y81.67
M204 S500
M205 X20 Y20
G1 F1800 X146.136 Y98.618 E40.51752
M204 S5000
M205 X30 Y30
G0 F3600 X146.023 Y99.071
M204 S500
M205 X20 Y20
G1 F1800 X128.622 Y81.67 E41.33601
M204 S5000
M205 X30 Y30
G0 F3600 X128.056 Y81.67
M204 S500
M205 X20 Y20
G1 F1800 X145.91 Y99.523 E42.17578
M204 S5000
M205 X30 Y30
G0 F3600 X145.796 Y99.976
M204 S500
M205 X20 Y20
G1 F1800 X127.49 Y81.67 E43.03684
M204 S5000
M205 X30 Y30
G0 F3600 X126.924 Y81.67
M204 S500
M205 X20 Y20
G1 F1800 X145.683 Y100.428 E43.91918
M204 S5000
M205 X30 Y30
G0 F3600 X145.57 Y100.881
M204 S500
M205 X20 Y20
G1 F1800 X126.359 Y81.67 E44.82281
M204 S5000
M205 X30 Y30
G0 F3600 X125.793 Y81.67
M204 S500
M205 X20 Y20
G1 F1800 X145.457 Y101.334 E45.74774
M204 S5000
M205 X30 Y30
G0 F3600 X145.344 Y101.786
M204 S500
M205 X20 Y20
G1 F1800 X125.227 Y81.67 E46.69396
M204 S5000
M205 X30 Y30
G0 F3600 X124.662 Y81.67
M204 S500
M205 X20 Y20
G1 F1800 X145.231 Y102.239 E47.66146
M204 S5000
M205 X30 Y30
G0 F3600 X145.118 Y102.691
M204 S500
M205 X20 Y20
G1 F1800 X124.096 Y81.67 E48.65025
M204 S5000
M205 X30 Y30
G0 F3600 X123.53 Y81.67
M204 S500
M205 X20 Y20
G1 F1800 X145.004 Y103.144 E49.66032
M204 S5000
M205 X30 Y30
G0 F3600 X144.891 Y103.596
M204 S500
M205 X20 Y20
G1 F1800 X122.965 Y81.67 E50.69165
M204 S5000
M205 X30 Y30
G0 F3600 X122.399 Y81.67
M204 S500
M205 X20 Y20
G1 F1800 X144.778 Y104.049 E51.74429
M204 S5000
M205 X30 Y30
G0 F3600 X144.665 Y104.501
M204 S500
M205 X20 Y20
G1 F1800 X121.833 Y81.67 E52.81822
M204 S5000
M205 X30 Y30
G0 F3600 X121.268 Y81.67
M204 S500
M205 X20 Y20
G1 F1800 X144.552 Y104.954 E53.91342
M204 S5000
M205 X30 Y30
G0 F3600 X144.439 Y105.406
M204 S500
M205 X20 Y20
G1 F1800 X120.702 Y81.67 E55.02992
M204 S5000
M205 X30 Y30
G0 F3600 X120.136 Y81.67
M204 S500
M205 X20 Y20
G1 F1800 X144.326 Y105.859 E56.16772
M204 S5000
M205 X30 Y30
G0 F3600 X144.213 Y106.312
M204 S500
M205 X20 Y20
G1 F1800 X119.571 Y81.67 E57.3268
M204 S5000
M205 X30 Y30
G0 F3600 X119.005 Y81.67
M204 S500
M205 X20 Y20
G1 F1800 X144.099 Y106.764 E58.50714
M204 S5000
M205 X30 Y30
G0 F3600 X143.986 Y107.217
M204 S500
M205 X20 Y20
G1 F1800 X118.439 Y81.67 E59.7088
M204 S5000
M205 X30 Y30
G0 F3600 X117.873 Y81.67
M204 S500
M205 X20 Y20
G1 F1800 X143.873 Y107.669 E60.93173
M204 S5000
M205 X30 Y30
G0 F3600 X143.76 Y108.122
M204 S500
M205 X20 Y20
G1 F1800 X117.308 Y81.67 E62.17596
M204 S5000
M205 X30 Y30
G0 F3600 X116.742 Y81.67
M204 S500
M205 X20 Y20
G1 F1800 X143.647 Y108.574 E63.44146
M204 S5000
M205 X30 Y30
G0 F3600 X143.534 Y109.027
M204 S500
M205 X20 Y20
G1 F1800 X116.176 Y81.67 E64.72827
M204 S5000
M205 X30 Y30
G0 F3600 X115.611 Y81.67
M204 S500
M205 X20 Y20
G1 F1800 X143.421 Y109.479 E66.03635
M204 S5000
M205 X30 Y30
G0 F3600 X143.307 Y109.932
M204 S500
M205 X20 Y20
G1 F1800 X115.045 Y81.67 E67.3657
M204 S5000
M205 X30 Y30
G0 F3600 X114.479 Y81.67
M204 S500
M205 X20 Y20
G1 F1800 X143.194 Y110.385 E68.71637
M204 S5000
M205 X30 Y30
G0 F3600 X143.081 Y110.837
M204 S500
M205 X20 Y20
G1 F1800 X113.914 Y81.67 E70.0883
M204 S5000
M205 X30 Y30
G0 F3600 X113.361 Y81.683
M204 S500
M205 X20 Y20
G1 F1800 X142.968 Y111.29 E71.48092
M204 S5000
M205 X30 Y30
G0 F3600 X142.855 Y111.742
M204 S500
M205 X20 Y20
G1 F1800 X113.069 Y81.957 E72.88194
M204 S5000
M205 X30 Y30
G0 F3600 X112.858 Y82.311
M204 S500
M205 X20 Y20
G1 F1800 X142.742 Y112.195 E74.28759
M204 S5000
M205 X30 Y30
G0 F3600 X142.629 Y112.647
M204 S500
M205 X20 Y20
G1 F1800 X112.647 Y82.666 E75.69783
M204 S5000
M205 X30 Y30
G0 F3600 X112.436 Y83.02
M204 S500
M205 X20 Y20
G1 F1800 X142.515 Y113.1 E77.11267
M204 S5000
M205 X30 Y30
G0 F3600 X142.402 Y113.552
M204 S500
M205 X20 Y20
G1 F1800 X112.224 Y83.374 E78.53216
M204 S5000
M205 X30 Y30
G0 F3600 X112.013 Y83.729
M204 S500
M205 X20 Y20
G1 F1800 X142.289 Y114.005 E79.95625
M204 S5000
M205 X30 Y30
G0 F3600 X142.176 Y114.457
M204 S500
M205 X20 Y20
G1 F1800 X111.802 Y84.084 E81.38492
M204 S5000
M205 X30 Y30
G0 F3600 X111.591 Y84.438
M204 S500
M205 X20 Y20
G1 F1800 X142.063 Y114.91 E82.81823
M204 S5000
M205 X30 Y30
G0 F3600 X141.95 Y115.363
M204 S500
M205 X20 Y20
G1 F1800 X111.379 Y84.792 E84.2562
M204 S5000
M205 X30 Y30
G0 F3600 X111.168 Y85.146
M204 S500
M205 X20 Y20
G1 F1800 X141.837 Y115.815 E85.69877
M204 S5000
M205 X30 Y30
G0 F3600 X141.723 Y116.268
M204 S500
M205 X20 Y20
G1 F1800 X110.957 Y85.501 E87.14593
M204 S5000
M205 X30 Y30
G0 F3600 X110.746 Y85.856
M204 S500
M205 X20 Y20
G1 F1800 X141.605 Y116.715 E88.59745
M204 S5000
M205 X30 Y30
G0 F3600 X141.456 Y117.132
M204 S500
M205 X20 Y20
G1 F1800 X110.534 Y86.21 E90.05192
M204 S5000
M205 X30 Y30
G0 F3600 X110.323 Y86.564
M204 S500
M205 X20 Y20
G1 F1800 X141.307 Y117.548 E91.50932
M204 S5000
M205 X30 Y30
G0 F3600 X141.103 Y117.91
M204 S500
M205 X20 Y20
G1 F1800 X110.112 Y86.918 E92.96706
M204 S5000
M205 X30 Y30
G0 F3600 X109.9 Y87.273
M204 S500
M205 X20 Y20
G1 F1800 X140.891 Y118.263 E94.42476
M204 S5000
M205 X30 Y30
G0 F3600 X140.645 Y118.583
M204 S500
M205 X20 Y20
G1 F1800 X109.689 Y87.628 E95.88081
M204 S5000
M205 X30 Y30
G0 F3600 X109.478 Y87.982
M204 S500
M205 X20 Y20
G1 F1800 X140.376 Y118.88 E97.33416
M204 S5000
M205 X30 Y30
G0 F3600 X140.096 Y119.165
M204 S500
M205 X20 Y20
G1 F1800 X109.267 Y88.336 E98.78426
M204 S5000
M205 X30 Y30
G0 F3600 X109.055 Y88.69
M204 S500
M205 X20 Y20
G1 F1800 X139.77 Y119.405 E100.229
M204 S5000
M205 X30 Y30
G0 F3600 X139.444 Y119.645
M204 S500
M205 X20 Y20
G1 F1800 X108.844 Y89.045 E101.66833
M204 S5000
M205 X30 Y30
G0 F3600 X108.633 Y89.4
M204 S500
M205 X20 Y20
