;FLAVOR:Marlin
;TIME:144
;Filament used: 0.115384m
;Layer height: 0.2
;Generated with Cura_SteamEngine 3.6.0
M140 S60
M105
M190 S60
M104 S200
M105
M109 S200
M82 ;absolute extrusion mode
; Ender 3 Custom Start G-code
G28 ; Home all axes
G92 E0 ; Reset Extruder
G1 Z2.0 F3000 ; Move Z Axis up little to prevent scratching of Heat Bed
G1 X0.1 Y20 Z0.3 F5000.0 ; Move to start position
G1 X0.1 Y200.0 Z0.3 F1500.0 E15 ; Draw the first line
G1 X0.4 Y200.0 Z0.3 F5000.0 ; Move to side a little
G1 X0.4 Y20 Z0.3 F1500.0 E30 ; Draw the second line
G92 E0 ; Reset Extruder
G1 Z2.0 F3000 ; Move Z Axis up little to prevent scratching of Heat Bed
; End of custom start GCode
G92 E0
G1 F2400 E-5
;LAYER_COUNT:8
;LAYER:0
M107
M204 S5000
M205 X30 Y30
G0 F3600 X109.019 Y104.874 Z0.2
M204 S500
M205 X20 Y20
;TYPE:SKIRT
G1 F2400 E0
G1 F1800 X109.412 Y104.524 E0.0175
G1 X110.176 Y103.898 E0.05035
G1 X110.753 Y103.476 E0.07413
G1 X111.223 Y103.199 E0.09228
G1 X112.081 Y102.742 E0.12461
G1 X112.73 Y102.442 E0.14839
G1 X113.226 Y102.268 E0.16587
G1 X114.159 Y101.984 E0.19831
G1 X114.854 Y101.815 E0.2221
G1 X115.686 Y101.716 E0.24997
G1 X117.717 Y101.609 E0.31761
G1 X118.067 Y101.6 E0.32926
G1 X123.004 Y101.61 E0.49346
G1 X123.718 Y101.651 E0.51725
G1 X124.423 Y101.772 E0.54104
G1 X125.11 Y101.971 E0.56483
G1 X125.771 Y102.245 E0.58863
G1 X126.397 Y102.591 E0.61242
G1 X126.98 Y103.005 E0.6362
G1 X127.514 Y103.482 E0.66001
G1 X127.991 Y104.015 E0.68381
G1 X128.405 Y104.597 E0.70756
G1 X128.752 Y105.223 E0.73137
G1 X129.027 Y105.883 E0.75515
G1 X129.227 Y106.57 E0.77895
G1 X129.349 Y107.275 E0.80274
G1 X129.391 Y108.01 E0.82723
G1 X129.391 Y126.991 E1.45854
G1 X129.351 Y127.705 E1.48232
G1 X129.232 Y128.41 E1.5061
G1 X129.034 Y129.098 E1.52992
G1 X128.761 Y129.759 E1.5537
G1 X128.417 Y130.386 E1.57749
G1 X128.004 Y130.97 E1.60128
G1 X127.529 Y131.504 E1.62505
G1 X126.997 Y131.983 E1.64886
G1 X126.415 Y132.398 E1.67263
G1 X125.79 Y132.747 E1.69644
G1 X125.13 Y133.023 E1.72024
G1 X124.444 Y133.224 E1.74401
G1 X123.739 Y133.347 E1.76781
G1 X122.991 Y133.391 E1.79274
G1 X112.009 Y133.391 E2.158
G1 X111.295 Y133.351 E2.18178
G1 X110.59 Y133.232 E2.20556
G1 X109.902 Y133.034 E2.22938
G1 X109.241 Y132.761 E2.25316
G1 X108.614 Y132.417 E2.27695
G1 X108.03 Y132.004 E2.30074
G1 X107.496 Y131.529 E2.32451
G1 X107.017 Y130.997 E2.34832
G1 X106.602 Y130.415 E2.37209
G1 X106.253 Y129.79 E2.3959
G1 X105.977 Y129.13 E2.4197
G1 X105.776 Y128.444 E2.44347
G1 X105.653 Y127.739 E2.46728
G1 X105.609 Y126.915 E2.49472
G1 X105.688 Y120.222 E2.71735
G1 X105.608 Y113.251 E2.94922
G1 X105.633 Y112.616 E2.97035
G1 X105.736 Y111.446 E3.00942
G1 X105.838 Y110.738 E3.03321
G1 X105.988 Y110.143 E3.05362
G1 X106.265 Y109.233 E3.08526
G1 X106.512 Y108.562 E3.10904
G1 X106.773 Y108.025 E3.1289
G1 X107.284 Y107.091 E3.16431
G1 X107.662 Y106.484 E3.18809
G1 X107.964 Y106.088 E3.20466
G1 X108.533 Y105.399 E3.23438
G1 X109.019 Y104.874 E3.25817
M204 S5000
M205 X30 Y30
G0 F3600 X109.313 Y105.146
M204 S500
M205 X20 Y20
G1 F1800 X109.665 Y104.833 E3.27384
G1 X110.429 Y104.207 E3.30669
G1 X110.989 Y103.8 E3.32971
G1 X111.411 Y103.552 E3.34599
G1 X112.269 Y103.095 E3.37833
G1 X112.898 Y102.806 E3.40135
G1 X113.343 Y102.651 E3.41702
G1 X114.276 Y102.367 E3.44946
G1 X114.949 Y102.204 E3.47249
G1 X115.707 Y102.115 E3.49788
G1 X117.738 Y102.008 E3.56552
G1 X118.066 Y102 E3.57643
G1 X123.003 Y102.01 E3.74064
G1 X123.694 Y102.051 E3.76366
G1 X124.376 Y102.172 E3.7867
G1 X125.04 Y102.371 E3.80976
G1 X125.676 Y102.644 E3.83278
G1 X126.276 Y102.989 E3.8558
G1 X126.833 Y103.401 E3.87884
G1 X127.338 Y103.875 E3.90187
G1 X127.786 Y104.403 E3.92491
G1 X128.17 Y104.98 E3.94796
G1 X128.484 Y105.597 E3.97098
G1 X128.726 Y106.246 E3.99402
G1 X128.891 Y106.918 E4.01704
G1 X128.977 Y107.606 E4.0401
G1 X128.991 Y108.01 E4.05354
G1 X128.991 Y126.991 E4.68485
G1 X128.951 Y127.682 E4.70787
G1 X128.832 Y128.365 E4.73093
G1 X128.634 Y129.028 E4.75395
G1 X128.362 Y129.665 E4.77698
G1 X128.018 Y130.266 E4.80002
G1 X127.607 Y130.824 E4.82307
G1 X127.135 Y131.33 E4.84608
G1 X126.607 Y131.779 E4.86913
G1 X126.032 Y132.164 E4.89215
G1 X125.415 Y132.479 E4.91519
G1 X124.767 Y132.722 E4.93821
G1 X124.094 Y132.889 E4.96127
G1 X123.408 Y132.977 E4.98428
G1 X122.991 Y132.991 E4.99815
G1 X112.009 Y132.991 E5.36342
G1 X111.318 Y132.951 E5.38644
G1 X110.635 Y132.832 E5.4095
G1 X109.972 Y132.634 E5.43251
G1 X109.335 Y132.362 E5.45555
G1 X108.734 Y132.018 E5.47858
G1 X108.176 Y131.607 E5.50163
G1 X107.67 Y131.135 E5.52464
G1 X107.221 Y130.607 E5.5477
G1 X106.836 Y130.032 E5.57071
G1 X106.521 Y129.415 E5.59375
G1 X106.278 Y128.767 E5.61677
G1 X106.111 Y128.094 E5.63984
G1 X106.023 Y127.408 E5.66284
G1 X106.009 Y126.92 E5.67908
G1 X106.088 Y120.222 E5.90187
G1 X106.008 Y113.246 E6.13391
G1 X106.031 Y112.651 E6.15371
G1 X106.134 Y111.481 E6.19278
G1 X106.235 Y110.796 E6.21581
G1 X106.371 Y110.26 E6.2342
G1 X106.648 Y109.35 E6.26584
G1 X106.888 Y108.7 E6.28888
G1 X107.124 Y108.217 E6.30676
G1 X107.635 Y107.283 E6.34217
G1 X108.002 Y106.696 E6.3652
G1 X108.273 Y106.342 E6.38002
G1 X108.842 Y105.653 E6.40975
G1 X109.313 Y105.146 E6.43276
M204 S5000
M205 X30 Y30
G0 F3600 X109.606 Y105.419
M204 S500
M205 X20 Y20
G1 F1800 X109.919 Y105.142 E6.44666
G1 X110.683 Y104.516 E6.47951
G1 X111.225 Y104.124 E6.50176
G1 X111.599 Y103.905 E6.51618
G1 X112.457 Y103.448 E6.54851
G1 X113.066 Y103.17 E6.57078
G1 X113.459 Y103.034 E6.58461
G1 X114.392 Y102.75 E6.61705
G1 X115.043 Y102.593 E6.63932
G1 X115.728 Y102.515 E6.66225
G1 X117.759 Y102.408 E6.72989
G1 X118.065 Y102.4 E6.74008
G1 X123.002 Y102.41 E6.90428
G1 X123.67 Y102.451 E6.92654
G1 X124.328 Y102.572 E6.94879
G1 X124.967 Y102.77 E6.97104
G1 X125.578 Y103.043 E6.9933
G1 X126.152 Y103.387 E7.01556
G1 X126.68 Y103.797 E7.03779
G1 X127.157 Y104.267 E7.06007
G1 X127.573 Y104.791 E7.08232
G1 X127.924 Y105.36 E7.10455
G1 X128.205 Y105.967 E7.1268
G1 X128.412 Y106.604 E7.14908
G1 X128.541 Y107.26 E7.17132
G1 X128.591 Y108.01 E7.19632
G1 X128.591 Y126.991 E7.82763
G1 X128.551 Y127.659 E7.84988
G1 X128.432 Y128.317 E7.87212
G1 X128.235 Y128.957 E7.8944
G1 X127.963 Y129.568 E7.91664
G1 X127.62 Y130.142 E7.93888
G1 X127.211 Y130.672 E7.96115
G1 X126.742 Y131.149 E7.9834
G1 X126.22 Y131.567 E8.00564
G1 X125.651 Y131.919 E8.02789
G1 X125.044 Y132.201 E8.05015
G1 X124.408 Y132.409 E8.07241
G1 X123.752 Y132.539 E8.09465
G1 X122.991 Y132.591 E8.12002
G1 X112.009 Y132.591 E8.48529
G1 X111.341 Y132.551 E8.50754
G1 X110.683 Y132.432 E8.52978
G1 X110.043 Y132.235 E8.55206
G1 X109.432 Y131.963 E8.5743
G1 X108.858 Y131.62 E8.59654
G1 X108.328 Y131.211 E8.61881
G1 X107.851 Y130.742 E8.64106
G1 X107.433 Y130.22 E8.6633
G1 X107.081 Y129.651 E8.68555
G1 X106.799 Y129.044 E8.70781
G1 X106.591 Y128.408 E8.73007
G1 X106.461 Y127.752 E8.75231
G1 X106.409 Y126.925 E8.77987
G1 X106.488 Y120.222 E9.00283
G1 X106.408 Y113.241 E9.23503
G1 X106.43 Y112.686 E9.25351
G1 X106.533 Y111.516 E9.29257
G1 X106.631 Y110.854 E9.31483
G1 X106.754 Y110.376 E9.33125
G1 X107.031 Y109.466 E9.36289
G1 X107.263 Y108.839 E9.38512
G1 X107.475 Y108.409 E9.40107
G1 X107.986 Y107.475 E9.43648
G1 X108.342 Y106.908 E9.45875
G1 X108.581 Y106.597 E9.47179
G1 X109.15 Y105.908 E9.50151
G1 X109.606 Y105.419 E9.52375
M204 S5000
M205 X30 Y30
G0 F3600 X109.899 Y105.692
M204 S500
M205 X20 Y20
G1 F1800 X110.172 Y105.452 E9.53584
G1 X110.936 Y104.826 E9.56869
G1 X111.459 Y104.449 E9.59013
G1 X111.787 Y104.258 E9.60276
G1 X112.645 Y103.801 E9.63509
G1 X113.232 Y103.534 E9.65654
G1 X113.576 Y103.416 E9.66864
G1 X114.509 Y103.132 E9.70107
G1 X115.136 Y102.983 E9.72251
G1 X115.749 Y102.914 E9.74303
G1 X117.78 Y102.807 E9.81067
G1 X118.065 Y102.8 E9.82015
G1 X123.002 Y102.81 E9.98436
G1 X123.645 Y102.851 E10.00579
G1 X124.278 Y102.972 E10.02722
G1 X124.892 Y103.17 E10.04868
G1 X125.476 Y103.442 E10.07011
G1 X126.022 Y103.785 E10.09155
G1 X126.522 Y104.192 E10.113
G1 X126.967 Y104.659 E10.13445
G1 X127.351 Y105.176 E10.15587
G1 X127.668 Y105.738 E10.17733
G1 X127.913 Y106.334 E10.19876
G1 X128.083 Y106.956 E10.22021
G1 X128.174 Y107.594 E10.24165
G1 X128.191 Y108.01 E10.25549
G1 X128.191 Y126.991 E10.8868
G1 X128.151 Y127.634 E10.90823
G1 X128.032 Y128.268 E10.92969
G1 X127.835 Y128.882 E10.95113
G1 X127.564 Y129.467 E10.97258
G1 X127.222 Y130.014 E10.99403
G1 X126.816 Y130.514 E11.01546
G1 X126.351 Y130.96 E11.03689
G1 X125.834 Y131.345 E11.05833
G1 X125.273 Y131.664 E11.07979
G1 X124.677 Y131.91 E11.10124
G1 X124.056 Y132.081 E11.12266
G1 X123.418 Y132.173 E11.1441
G1 X122.991 Y132.191 E11.15831
G1 X112.009 Y132.191 E11.52358
G1 X111.366 Y132.151 E11.545
G1 X110.732 Y132.032 E11.56646
G1 X110.118 Y131.835 E11.58791
G1 X109.533 Y131.564 E11.60935
G1 X108.986 Y131.222 E11.63081
G1 X108.486 Y130.816 E11.65223
G1 X108.04 Y130.351 E11.67366
G1 X107.655 Y129.834 E11.6951
G1 X107.336 Y129.273 E11.71656
G1 X107.09 Y128.677 E11.73801
G1 X106.919 Y128.056 E11.75943
G1 X106.827 Y127.418 E11.78087
G1 X106.809 Y126.93 E11.79711
G1 X106.888 Y120.223 E12.0202
G1 X106.808 Y113.237 E12.25257
G1 X106.828 Y112.721 E12.26975
G1 X106.931 Y111.551 E12.30881
G1 X107.027 Y110.914 E12.33024
G1 X107.136 Y110.493 E12.3447
G1 X107.413 Y109.583 E12.37634
G1 X107.639 Y108.979 E12.39779
G1 X107.826 Y108.601 E12.41182
G1 X108.337 Y107.667 E12.44723
G1 X108.681 Y107.122 E12.46866
G1 X108.89 Y106.852 E12.48002
G1 X109.459 Y106.163 E12.50974
G1 X109.899 Y105.692 E12.53118
M204 S5000
M205 X30 Y30
G1 F2400 E7.53118
;MESH:CableCareerExtruder3.stl
G0 F3600 X113.09 Y108.912
G0 X113.904 Y109.904
G0 X117.163 Y111.373
G0 X117.237 Y111.439
M204 S500
M205 X20 Y20
;TYPE:WALL-INNER
G1 F2400 E12.53118
G1 F1800 X116.915 Y111.906 E12.55005
G1 X116.714 Y112.437 E12.56893
G1 X116.646 Y113 E12.58779
G1 X116.714 Y113.563 E12.60665
G1 X116.915 Y114.094 E12.62554
G1 X117.237 Y114.561 E12.6444
G1 X117.663 Y114.938 E12.66332
G1 X118.165 Y115.201 E12.68217
G1 X118.716 Y115.337 E12.70105
G1 X119.284 Y115.337 E12.71994
G1 X119.835 Y115.201 E12.73882
G1 X120.337 Y114.938 E12.75767
G1 X120.763 Y114.561 E12.77659
G1 X121.085 Y114.094 E12.79545
G1 X121.286 Y113.563 E12.81434
G1 X121.354 Y113 E12.8332
G1 X121.286 Y112.437 E12.85206
G1 X121.085 Y111.906 E12.87095
G1 X120.763 Y111.439 E12.88981
G1 X120.337 Y111.062 E12.90873
G1 X119.835 Y110.799 E12.92758
G1 X119.284 Y110.663 E12.94646
G1 X118.716 Y110.663 E12.96535
G1 X118.165 Y110.799 E12.98423
G1 X117.663 Y111.062 E13.00308
G1 X117.237 Y111.439 E13.022
M204 S5000
M205 X30 Y30
G0 F3600 X117.163 Y111.373
G0 X116.88 Y111.89
G0 X116.716 Y112.323
G0 X114.183 Y124.957
G0 X114.1 Y124.902
M204 S500
M205 X20 Y20
G1 F1800 X114.1 Y112.598 E13.43123
G1 X113.359 Y112.292 E13.45789
G1 X112.993 Y112.658 E13.47511
G1 X112.6 Y113.052 E13.49362
G1 X112.653 Y112.498 E13.50341
G1 X112.687 Y112.142 E13.51531
G1 X112.937 Y111.318 E13.54395
G1 X113.343 Y110.559 E13.57258
G1 X113.89 Y109.89 E13.60132
G1 X114.559 Y109.343 E13.63006
G1 X115.318 Y108.937 E13.65869
G1 X116.142 Y108.687 E13.68733
G1 X117.029 Y108.6 E13.71697
G1 X122.4 Y108.6 E13.89561
G1 X122.4 Y126.4 E14.48764
G1 X112.6 Y126.4 E14.81359
G1 X112.6 Y124.931 E14.86245
G1 X112.6 Y124.93 E14.86249
G1 X112.6 Y124.448 E14.87852
G1 X112.941 Y124.789 E14.88715
G1 X113.359 Y125.208 E14.90684
G1 X114.1 Y124.902 E14.9335
M204 S5000
M205 X30 Y30
G0 F3600 X113.7 Y124.634
M204 S500
M205 X20 Y20
;TYPE:WALL-OUTER
G1 F1800 X113.7 Y112.866 E15.32491
G1 X113.453 Y112.764 E15.3338
G1 X112.541 Y113.677 E15.37672
G1 X112.2 Y114.018 E15.39276
G1 X112.2 Y113.536 E15.40139
G1 X112.2 Y113.535 E15.40142
G1 X112.2 Y113.01 E15.41888
G1 X112.293 Y112.062 E15.45056
G1 X112.566 Y111.163 E15.48181
G1 X113.008 Y110.337 E15.51297
G1 X113.606 Y109.606 E15.54438
G1 X114.337 Y109.008 E15.5758
G1 X115.163 Y108.566 E15.60696
G1 X116.062 Y108.293 E15.63821
G1 X117.01 Y108.2 E15.66989
G1 X122.8 Y108.2 E15.86246
G1 X122.8 Y126.8 E16.4811
G1 X112.2 Y126.8 E16.83366
G1 X112.2 Y123.965 E16.92795
G1 X112.2 Y123.964 E16.92798
G1 X112.2 Y123.482 E16.94402
G1 X112.541 Y123.823 E16.95265
G1 X113.453 Y124.736 E16.99557
G1 X113.7 Y124.634 E17.00446
M204 S5000
M205 X30 Y30
G0 F3600 X113.7 Y124.434
G0 X114.2 Y124.434
G0 X116.639 Y112.355
G0 X117.105 Y112.533
M204 S500
M205 X20 Y20
G1 F1800 X117.049 Y113 E17.0201
G1 X117.105 Y113.467 E17.03575
G1 X117.272 Y113.907 E17.0514
G1 X117.539 Y114.294 E17.06704
G1 X117.892 Y114.606 E17.08271
G1 X118.308 Y114.824 E17.09833
G1 X118.765 Y114.937 E17.11399
G1 X119.235 Y114.937 E17.12962
G1 X119.692 Y114.824 E17.14528
G1 X120.108 Y114.606 E17.1609
G1 X120.461 Y114.294 E17.17657
G1 X120.728 Y113.907 E17.19221
G1 X120.895 Y113.467 E17.20786
G1 X120.951 Y113 E17.2235
G1 X120.895 Y112.533 E17.23915
G1 X120.728 Y112.093 E17.2548
G1 X120.461 Y111.706 E17.27044
G1 X120.108 Y111.394 E17.28611
G1 X119.692 Y111.176 E17.30173
G1 X119.235 Y111.063 E17.31739
G1 X118.765 Y111.063 E17.33302
G1 X118.308 Y111.176 E17.34868
G1 X117.892 Y111.394 E17.3643
G1 X117.539 Y111.706 E17.37997
G1 X117.272 Y112.093 E17.3956
G1 X117.105 Y112.533 E17.41126
M204 S5000
M205 X30 Y30
G0 F3600 X117.082 Y112.731
G0 X116.586 Y112.673
G0 X116.332 Y112.343
M204 S500
M205 X20 Y20
;TYPE:SKIN
G1 F1800 X116.254 Y113 E17.43326
G1 X116.332 Y113.657 E17.45527
G1 X116.567 Y114.277 E17.47732
G1 X116.943 Y114.822 E17.49934
G1 X117.441 Y115.262 E17.52144
G1 X118.026 Y115.568 E17.5434
G1 X118.669 Y115.727 E17.56543
G1 X119.331 Y115.727 E17.58745
G1 X119.974 Y115.568 E17.60948
G1 X120.559 Y115.262 E17.63144
G1 X121.057 Y114.822 E17.65354
G1 X121.433 Y114.277 E17.67557
G1 X121.668 Y113.657 E17.69762
G1 X121.746 Y113 E17.71962
G1 X121.668 Y112.343 E17.74163
G1 X121.433 Y111.723 E17.76368
G1 X121.057 Y111.178 E17.7857
G1 X120.559 Y110.738 E17.80781
G1 X119.974 Y110.432 E17.82976
G1 X119.331 Y110.273 E17.85179
G1 X118.669 Y110.273 E17.87381
G1 X118.026 Y110.432 E17.89584
G1 X117.441 Y110.738 E17.9178
G1 X116.943 Y111.178 E17.9399
G1 X116.567 Y111.723 E17.96193
G1 X116.332 Y112.343 E17.98398
M204 S5000
M205 X30 Y30
G0 F3600 X114.49 Y112.337
M204 S500
M205 X20 Y20
G1 F1800 X113.267 Y111.832 E18.02799
G1 X113.153 Y111.946 E18.03335
G1 X113.299 Y111.465 E18.05007
G1 X113.666 Y110.78 E18.07592
G1 X114.167 Y110.167 E18.10225
G1 X114.78 Y109.666 E18.12858
G1 X115.465 Y109.299 E18.15443
G1 X116.218 Y109.071 E18.18059
G1 X117.047 Y108.99 E18.2083
G1 X122.01 Y108.99 E18.37337
G1 X122.01 Y126.01 E18.93946
G1 X112.99 Y126.01 E19.23946
G1 X112.99 Y125.39 E19.26008
G1 X113.267 Y125.668 E19.27314
G1 X114.49 Y125.163 E19.31714
G1 X114.49 Y112.337 E19.74374
M204 S5000
M205 X30 Y30
G0 F3600 X117.455 Y111.062
G0 X121.828 Y109.383
M204 S500
M205 X20 Y20
G1 F1800 X121.615 Y109.17 E19.75376
M204 S5000
M205 X30 Y30
G0 F3600 X121.049 Y109.17
M204 S500
M205 X20 Y20
G1 F1800 X121.828 Y109.949 E19.7904
M204 S5000
M205 X30 Y30
G0 F3600 X121.828 Y110.515
M204 S500
M205 X20 Y20
G1 F1800 X120.483 Y109.17 E19.85366
M204 S5000
M205 X30 Y30
G0 F3600 X119.918 Y109.17
M204 S500
M205 X20 Y20
G1 F1800 X121.828 Y111.08 E19.9435
M204 S5000
M205 X30 Y30
G0 F3600 X121.828 Y111.646
M204 S500
M205 X20 Y20
G1 F1800 X119.352 Y109.17 E20.05997
M204 S5000
M205 X30 Y30
G0 F3600 X118.786 Y109.17
M204 S500
M205 X20 Y20
G1 F1800 X119.826 Y110.209 E20.10886
M204 S5000
M205 X30 Y30
G0 F3600 X119.143 Y110.092
M204 S500
M205 X20 Y20
G1 F1800 X118.221 Y109.17 E20.15223
M204 S5000
M205 X30 Y30
G0 F3600 X117.655 Y109.17
M204 S500
M205 X20 Y20
G1 F1800 X118.59 Y110.105 E20.19621
M204 S5000
M205 X30 Y30
G0 F3600 X118.137 Y110.218
M204 S500
M205 X20 Y20
G1 F1800 X117.089 Y109.17 E20.24551
M204 S5000
M205 X30 Y30
G0 F3600 X116.571 Y109.217
M204 S500
M205 X20 Y20
G1 F1800 X117.734 Y110.38 E20.30021
M204 S5000
M205 X30 Y30
G0 F3600 X117.363 Y110.575
M204 S500
M205 X20 Y20
G1 F1800 X116.086 Y109.298 E20.36028
M204 S5000
M205 X30 Y30
G0 F3600 X115.651 Y109.429
M204 S500
M205 X20 Y20
G1 F1800 X117.057 Y110.834 E20.42639
M204 S5000
M205 X30 Y30
G0 F3600 X116.768 Y111.111
M204 S500
M205 X20 Y20
G1 F1800 X115.265 Y109.608 E20.49708
M204 S5000
M205 X30 Y30
G0 F3600 X114.897 Y109.806
M204 S500
M205 X20 Y20
G1 F1800 X116.538 Y111.447 E20.57427
M204 S5000
M205 X30 Y30
