;FLAVOR:Marlin
;TIME:1415
;Filament used: 1.17542m
;Layer height: 0.2
;Generated with Cura_SteamEngine 3.6.0
M140 S60
M105
M190 S60
M104 S200
M105
M109 S200
M82 ;absolute extrusion mode
; Ender 3 Custom Start G-code
G28 ; Home all axes
G92 E0 ; Reset Extruder
G1 Z2.0 F3000 ; Move Z Axis up little to prevent scratching of Heat Bed
G1 X0.1 Y20 Z0.3 F5000.0 ; Move to start position
G1 X0.1 Y200.0 Z0.3 F1500.0 E15 ; Draw the first line
G1 X0.4 Y200.0 Z0.3 F5000.0 ; Move to side a little
G1 X0.4 Y20 Z0.3 F1500.0 E30 ; Draw the second line
G92 E0 ; Reset Extruder
G1 Z2.0 F3000 ; Move Z Axis up little to prevent scratching of Heat Bed
; End of custom start GCode
G92 E0
G1 F2400 E-5
;LAYER_COUNT:61
;LAYER:0
M107
M204 S5000
M205 X30 Y30
G0 F3600 X81.512 Y93.012 Z0.2
M204 S500
M205 X20 Y20
;TYPE:SKIRT
G1 F2400 E0
G1 F1800 X82.094 Y92.597 E0.02377
G1 X82.719 Y92.249 E0.04757
G1 X83.38 Y91.974 E0.07138
G1 X84.066 Y91.774 E0.09515
G1 X84.771 Y91.652 E0.11894
G1 X85.508 Y91.609 E0.1435
G1 X114.291 Y91.6 E1.10082
G1 X114.377 Y91.601 E1.10368
G1 X120.374 Y91.679 E1.30316
G1 X123.518 Y91.602 E1.40776
G1 X123.677 Y91.6 E1.41305
G1 X149.493 Y91.61 E2.2717
G1 X150.208 Y91.65 E2.29551
G1 X150.913 Y91.77 E2.3193
G1 X151.6 Y91.968 E2.34308
G1 X152.261 Y92.241 E2.36687
G1 X152.888 Y92.586 E2.39067
G1 X153.472 Y92.999 E2.41446
G1 X154.006 Y93.474 E2.43823
G1 X154.484 Y94.006 E2.46202
G1 X154.9 Y94.588 E2.48581
G1 X155.248 Y95.213 E2.5096
G1 X155.524 Y95.873 E2.5334
G1 X155.725 Y96.56 E2.5572
G1 X155.847 Y97.264 E2.58097
G1 X155.891 Y98.002 E2.60556
G1 X155.9 Y105.285 E2.84779
G1 X155.882 Y105.779 E2.86423
G1 X155.68 Y108.433 E2.95276
G1 X155.585 Y109.142 E2.97655
G1 X155.422 Y109.806 E2.99929
G1 X154.849 Y111.694 E3.06492
G1 X154.604 Y112.365 E3.08868
G1 X154.364 Y112.863 E3.10706
G1 X153.434 Y114.595 E3.17245
G1 X153.061 Y115.205 E3.19623
G1 X152.741 Y115.629 E3.2139
G1 X151.619 Y116.995 E3.27269
G1 X151.187 Y117.47 E3.29405
G1 X127.01 Y141.527 E4.42844
G1 X126.476 Y142.002 E4.45221
G1 X125.892 Y142.415 E4.476
G1 X125.265 Y142.76 E4.4998
G1 X124.604 Y143.033 E4.52359
G1 X123.917 Y143.23 E4.54736
G1 X123.211 Y143.35 E4.57118
G1 X122.496 Y143.39 E4.595
G1 X112.504 Y143.39 E4.92733
G1 X111.79 Y143.35 E4.95112
G1 X111.085 Y143.231 E4.9749
G1 X110.397 Y143.033 E4.99871
G1 X109.736 Y142.76 E5.0225
G1 X109.109 Y142.416 E5.04628
G1 X108.525 Y142.003 E5.07007
G1 X107.993 Y141.53 E5.09375
G1 X84.455 Y118.145 E6.19731
G1 X84.125 Y117.792 E6.21338
G1 X82.378 Y115.772 E6.30221
G1 X81.941 Y115.205 E6.32602
G1 X81.586 Y114.624 E6.34867
G1 X80.643 Y112.876 E6.41473
G1 X80.339 Y112.228 E6.43853
G1 X80.148 Y111.682 E6.45777
G1 X79.57 Y109.762 E6.52446
G1 X79.402 Y109.067 E6.54824
G1 X79.312 Y108.341 E6.57257
G1 X79.114 Y105.357 E6.67204
G1 X79.1 Y104.924 E6.68645
G1 X79.11 Y98 E6.91674
G1 X79.151 Y97.286 E6.94053
G1 X79.271 Y96.581 E6.96432
G1 X79.47 Y95.893 E6.98814
G1 X79.744 Y95.233 E7.01191
G1 X80.089 Y94.607 E7.03568
G1 X80.503 Y94.023 E7.05949
G1 X80.979 Y93.489 E7.08328
G1 X81.512 Y93.012 E7.10707
M204 S5000
M205 X30 Y30
G0 F3600 X81.901 Y93.216
M204 S500
M205 X20 Y20
G1 F1800 X82.477 Y92.832 E7.1301
G1 X83.094 Y92.517 E7.15314
G1 X83.743 Y92.275 E7.17618
G1 X84.415 Y92.11 E7.19919
G1 X85.102 Y92.023 E7.22222
G1 X85.508 Y92.009 E7.23573
G1 X114.291 Y92 E8.19306
G1 X114.371 Y92.001 E8.19572
G1 X120.379 Y92.079 E8.39556
G1 X123.528 Y92.002 E8.50033
G1 X123.677 Y92 E8.50529
G1 X149.493 Y92.01 E9.36393
G1 X150.185 Y92.05 E9.38699
G1 X150.867 Y92.17 E9.41002
G1 X151.531 Y92.367 E9.43305
G1 X152.167 Y92.64 E9.45607
G1 X152.768 Y92.984 E9.47911
G1 X153.325 Y93.395 E9.50213
G1 X153.832 Y93.868 E9.52519
G1 X154.28 Y94.396 E9.54822
G1 X154.665 Y94.971 E9.57124
G1 X154.98 Y95.588 E9.59428
G1 X155.223 Y96.237 E9.61733
G1 X155.389 Y96.909 E9.64035
G1 X155.477 Y97.596 E9.66339
G1 X155.491 Y98.003 E9.67693
G1 X155.5 Y105.286 E9.91917
G1 X155.483 Y105.748 E9.93454
G1 X155.281 Y108.402 E10.02307
G1 X155.188 Y109.089 E10.04613
G1 X155.039 Y109.689 E10.06669
G1 X154.466 Y111.577 E10.13232
G1 X154.227 Y112.227 E10.15535
G1 X154.011 Y112.673 E10.17183
G1 X153.081 Y114.405 E10.23722
G1 X152.719 Y114.996 E10.26027
G1 X152.431 Y115.375 E10.2761
G1 X151.309 Y116.741 E10.3349
G1 X150.905 Y117.186 E10.35489
G1 X126.728 Y141.243 E11.48928
G1 X126.21 Y141.703 E11.51232
G1 X125.642 Y142.099 E11.53535
G1 X125.032 Y142.428 E11.5584
G1 X124.389 Y142.684 E11.58142
G1 X123.72 Y142.864 E11.60446
G1 X123.035 Y142.966 E11.6275
G1 X122.496 Y142.99 E11.64544
G1 X112.504 Y142.99 E11.97778
G1 X111.813 Y142.95 E12.0008
G1 X111.13 Y142.831 E12.02386
G1 X110.467 Y142.633 E12.04687
G1 X109.83 Y142.361 E12.06991
G1 X109.229 Y142.017 E12.09294
G1 X108.671 Y141.606 E12.11599
G1 X108.275 Y141.246 E12.13379
G1 X84.737 Y117.861 E13.23735
G1 X84.428 Y117.53 E13.25241
G1 X82.681 Y115.51 E13.34124
G1 X82.259 Y114.961 E13.36427
G1 X81.938 Y114.434 E13.3848
G1 X80.995 Y112.686 E13.45086
G1 X80.702 Y112.058 E13.4739
G1 X80.531 Y111.567 E13.4912
G1 X79.953 Y109.647 E13.55789
G1 X79.792 Y108.973 E13.58094
G1 X79.711 Y108.314 E13.60302
G1 X79.513 Y105.33 E13.70249
G1 X79.5 Y104.924 E13.716
G1 X79.51 Y98 E13.94629
G1 X79.551 Y97.309 E13.96931
G1 X79.671 Y96.627 E13.99234
G1 X79.869 Y95.963 E14.01539
G1 X80.143 Y95.327 E14.03842
G1 X80.488 Y94.727 E14.06144
G1 X80.899 Y94.17 E14.08447
G1 X81.372 Y93.664 E14.1075
G1 X81.901 Y93.216 E14.13056
M204 S5000
M205 X30 Y30
G0 F3600 X81.765 Y93.846
M204 S500
M205 X20 Y20
G1 F1800 X82.288 Y93.429 E14.15281
G1 X82.857 Y93.077 E14.17506
G1 X83.464 Y92.796 E14.19731
G1 X84.101 Y92.589 E14.21959
G1 X84.757 Y92.46 E14.24182
G1 X85.508 Y92.409 E14.26686
G1 X114.291 Y92.4 E15.22418
G1 X114.366 Y92.4 E15.22668
G1 X120.409 Y92.479 E15.42769
G1 X123.537 Y92.402 E15.53176
G1 X123.677 Y92.4 E15.53641
G1 X149.493 Y92.41 E16.39506
G1 X150.161 Y92.45 E16.41731
G1 X150.819 Y92.57 E16.43956
G1 X151.459 Y92.767 E16.46183
G1 X152.07 Y93.039 E16.48408
G1 X152.644 Y93.382 E16.50632
G1 X153.174 Y93.791 E16.52858
G1 X153.65 Y94.26 E16.55081
G1 X154.068 Y94.783 E16.57308
G1 X154.42 Y95.352 E16.59533
G1 X154.702 Y95.959 E16.61759
G1 X154.909 Y96.595 E16.63984
G1 X155.039 Y97.251 E16.66208
G1 X155.091 Y98.003 E16.68715
G1 X155.1 Y105.286 E16.92939
G1 X155.084 Y105.718 E16.94377
G1 X154.882 Y108.372 E17.03229
G1 X154.791 Y109.035 E17.05455
G1 X154.657 Y109.573 E17.07299
G1 X154.084 Y111.461 E17.13862
G1 X153.851 Y112.089 E17.16089
G1 X153.659 Y112.484 E17.1755
G1 X152.729 Y114.216 E17.24089
G1 X152.378 Y114.786 E17.26315
G1 X152.122 Y115.121 E17.27717
G1 X151 Y116.487 E17.33597
G1 X150.623 Y116.903 E17.35464
G1 X126.446 Y140.96 E18.48904
G1 X125.944 Y141.402 E18.51128
G1 X125.394 Y141.782 E18.53352
G1 X124.801 Y142.093 E18.55579
G1 X124.176 Y142.332 E18.57804
G1 X123.527 Y142.494 E18.60029
G1 X122.863 Y142.578 E18.62255
G1 X122.496 Y142.59 E18.63476
G1 X112.504 Y142.59 E18.9671
G1 X111.836 Y142.55 E18.98936
G1 X111.178 Y142.431 E19.0116
G1 X110.538 Y142.234 E19.03387
G1 X109.927 Y141.962 E19.05611
G1 X109.353 Y141.619 E19.07835
G1 X108.823 Y141.21 E19.10062
G1 X108.557 Y140.963 E19.11269
G1 X85.019 Y117.578 E20.21626
G1 X84.73 Y117.268 E20.23035
G1 X82.983 Y115.248 E20.31918
G1 X82.577 Y114.717 E20.34141
G1 X82.29 Y114.244 E20.35981
G1 X81.347 Y112.496 E20.42587
G1 X81.066 Y111.889 E20.44812
G1 X80.914 Y111.451 E20.46354
G1 X80.336 Y109.531 E20.53023
G1 X80.181 Y108.88 E20.55249
G1 X80.11 Y108.288 E20.57232
G1 X79.912 Y105.304 E20.67179
G1 X79.9 Y104.925 E20.6844
G1 X79.91 Y98.001 E20.91469
G1 X79.951 Y97.333 E20.93695
G1 X80.071 Y96.675 E20.9592
G1 X80.269 Y96.036 E20.98145
G1 X80.542 Y95.425 E21.00371
G1 X80.885 Y94.851 E21.02595
G1 X81.295 Y94.322 E21.04821
G1 X81.765 Y93.846 E21.07045
M204 S5000
M205 X30 Y30
G0 F3600 X82.156 Y94.035
M204 S500
M205 X20 Y20
G1 F1800 X82.674 Y93.651 E21.0919
G1 X83.235 Y93.333 E21.11335
G1 X83.831 Y93.088 E21.13478
G1 X84.453 Y92.918 E21.15623
G1 X85.091 Y92.826 E21.17767
G1 X85.508 Y92.809 E21.19155
G1 X114.291 Y92.8 E22.14888
G1 X114.361 Y92.8 E22.1512
G1 X120.414 Y92.879 E22.35254
G1 X123.547 Y92.802 E22.45678
G1 X123.677 Y92.8 E22.4611
G1 X149.493 Y92.81 E23.31975
G1 X150.136 Y92.85 E23.34118
G1 X150.77 Y92.97 E23.36264
G1 X151.384 Y93.167 E23.38408
G1 X151.969 Y93.438 E23.40553
G1 X152.515 Y93.78 E23.42696
G1 X153.015 Y94.187 E23.4484
G1 X153.461 Y94.652 E23.46983
G1 X153.846 Y95.169 E23.49127
G1 X154.164 Y95.73 E23.51272
G1 X154.411 Y96.326 E23.53417
G1 X154.581 Y96.947 E23.55559
G1 X154.674 Y97.585 E23.57703
G1 X154.691 Y98.004 E23.59098
G1 X154.7 Y105.287 E23.83321
G1 X154.685 Y105.688 E23.84656
G1 X154.483 Y108.342 E23.93509
G1 X154.394 Y108.98 E23.95651
G1 X154.274 Y109.457 E23.97287
G1 X153.701 Y111.345 E24.0385
G1 X153.476 Y111.949 E24.05993
G1 X153.306 Y112.295 E24.07276
G1 X152.376 Y114.027 E24.13814
G1 X152.037 Y114.575 E24.15957
G1 X151.813 Y114.868 E24.17184
G1 X150.691 Y116.234 E24.23064
G1 X150.341 Y116.619 E24.24794
G1 X126.164 Y140.676 E25.38234
G1 X125.68 Y141.102 E25.40378
G1 X125.146 Y141.464 E25.42524
G1 X124.572 Y141.757 E25.44667
G1 X123.966 Y141.978 E25.46813
G1 X123.338 Y142.121 E25.48955
G1 X122.496 Y142.19 E25.51765
G1 X112.504 Y142.19 E25.84998
G1 X111.861 Y142.15 E25.87141
G1 X111.227 Y142.031 E25.89287
G1 X110.613 Y141.834 E25.91431
G1 X110.028 Y141.563 E25.93576
G1 X109.481 Y141.221 E25.95721
G1 X108.839 Y140.679 E25.98516
G1 X85.301 Y117.294 E27.08872
G1 X85.033 Y117.007 E27.10178
G1 X83.286 Y114.987 E27.19061
G1 X82.895 Y114.474 E27.21206
G1 X82.642 Y114.054 E27.22837
G1 X81.699 Y112.306 E27.29443
G1 X81.429 Y111.721 E27.31586
G1 X81.297 Y111.336 E27.32939
G1 X80.719 Y109.416 E27.39609
G1 X80.572 Y108.788 E27.41754
G1 X80.509 Y108.261 E27.43519
G1 X80.311 Y105.277 E27.53466
G1 X80.3 Y104.925 E27.54637
G1 X80.31 Y98.001 E27.77666
G1 X80.351 Y97.358 E27.79809
G1 X80.471 Y96.725 E27.81952
G1 X80.669 Y96.111 E27.84098
G1 X80.941 Y95.527 E27.86241
G1 X81.283 Y94.98 E27.88386
G1 X81.69 Y94.481 E27.90528
G1 X82.156 Y94.035 E27.92673
M204 S5000
M205 X30 Y30
G1 F2400 E22.92673
;MESH:CableCareerNozzleHeader1.stl
G0 F3600 X86.114 Y97.335
G0 X86.114 Y98.614
G0 X94.829 Y100.128
G0 X94.885 Y100.21
M204 S500
M205 X20 Y20
;TYPE:WALL-INNER
G1 F2400 E27.92673
G1 F1800 X94.053 Y100.947 E27.9637
G1 X93.423 Y101.86 E28.0006
G1 X93.029 Y102.899 E28.03756
G1 X92.896 Y104 E28.07444
G1 X93.029 Y105.101 E28.11133
G1 X93.423 Y106.14 E28.14828
G1 X94.053 Y107.053 E28.18518
G1 X94.885 Y107.79 E28.22215
G1 X95.868 Y108.305 E28.25906
G1 X96.945 Y108.571 E28.29595
G1 X98.055 Y108.571 E28.33287
G1 X99.132 Y108.305 E28.36977
G1 X100.115 Y107.79 E28.40668
G1 X100.947 Y107.053 E28.44365
G1 X101.577 Y106.14 E28.48054
G1 X101.971 Y105.101 E28.5175
G1 X102.104 Y104 E28.55439
G1 X101.971 Y102.899 E28.59127
G1 X101.577 Y101.86 E28.62823
G1 X100.947 Y100.947 E28.66513
G1 X100.115 Y100.21 E28.70209
G1 X99.132 Y99.695 E28.739
G1 X98.055 Y99.429 E28.7759
G1 X96.945 Y99.429 E28.81282
G1 X95.868 Y99.695 E28.84972
G1 X94.885 Y100.21 E28.88663
M204 S5000
M205 X30 Y30
G0 F3600 X94.829 Y100.128
G0 X95.854 Y99.658
G0 X96.941 Y99.39
G0 X97.947 Y99.39
G0 X116.227 Y103.956
G0 X116.301 Y103.89
M204 S500
M205 X20 Y20
G1 F1800 X116.953 Y104.467 E28.91559
G1 X117.722 Y104.87 E28.94446
G1 X118.565 Y105.078 E28.97334
G1 X119.435 Y105.078 E29.00228
G1 X120.278 Y104.87 E29.03116
G1 X121.047 Y104.467 E29.06003
G1 X121.699 Y103.89 E29.08899
G1 X122.191 Y103.175 E29.11786
G1 X122.5 Y102.363 E29.14676
G1 X122.6 Y101.536 E29.17446
G1 X122.6 Y99.039 E29.25751
G1 X122.614 Y98.911 E29.26179
G1 X122.643 Y98.829 E29.26469
G1 X122.692 Y98.751 E29.26775
G1 X122.751 Y98.692 E29.27053
G1 X122.829 Y98.643 E29.27359
G1 X122.911 Y98.614 E29.27648
G1 X123.039 Y98.6 E29.28077
G1 X148.9 Y98.6 E30.14091
G1 X148.9 Y105.971 E30.38607
G1 X148.715 Y107.839 E30.4485
G1 X148.175 Y109.612 E30.51015
G1 X147.303 Y111.235 E30.57142
G1 X146.107 Y112.686 E30.63397
G1 X122.252 Y136.4 E31.75272
G1 X112.748 Y136.4 E32.06883
G1 X88.893 Y112.686 E33.18758
G1 X87.697 Y111.235 E33.25012
G1 X86.825 Y109.612 E33.3114
G1 X86.285 Y107.839 E33.37305
G1 X86.1 Y105.971 E33.43548
G1 X86.1 Y98.6 E33.68064
G1 X114.961 Y98.6 E34.64056
G1 X115.089 Y98.614 E34.64484
G1 X115.171 Y98.643 E34.64774
G1 X115.249 Y98.692 E34.6508
G1 X115.308 Y98.751 E34.65357
G1 X115.357 Y98.829 E34.65664
G1 X115.386 Y98.911 E34.65953
G1 X115.4 Y99.039 E34.66381
G1 X115.4 Y101.536 E34.74686
G1 X115.5 Y102.363 E34.77457
G1 X115.809 Y103.175 E34.80347
G1 X116.301 Y103.89 E34.83234
M204 S5000
M205 X30 Y30
G0 F3600 X116.227 Y103.956
G0 X116.931 Y104.499
G0 X117.708 Y104.907
G0 X118.561 Y105.117
G0 X119.439 Y105.117
G0 X119.922 Y104.998
G0 X134.829 Y100.128
G0 X134.885 Y100.21
M204 S500
M205 X20 Y20
G1 F1800 X134.053 Y100.947 E34.8693
G1 X133.423 Y101.86 E34.9062
G1 X133.029 Y102.899 E34.94316
G1 X132.896 Y104 E34.98004
G1 X133.029 Y105.101 E35.01693
G1 X133.423 Y106.14 E35.05389
G1 X134.053 Y107.053 E35.09078
G1 X134.885 Y107.79 E35.12775
G1 X135.868 Y108.305 E35.16466
G1 X136.945 Y108.571 E35.20156
G1 X138.055 Y108.571 E35.23847
G1 X139.132 Y108.305 E35.27537
G1 X140.115 Y107.79 E35.31228
G1 X140.947 Y107.053 E35.34925
G1 X141.577 Y106.14 E35.38614
G1 X141.971 Y105.101 E35.4231
G1 X142.104 Y104 E35.45999
G1 X141.971 Y102.899 E35.49687
G1 X141.577 Y101.86 E35.53383
G1 X140.947 Y100.947 E35.57073
G1 X140.115 Y100.21 E35.60769
G1 X139.132 Y99.695 E35.6446
G1 X138.055 Y99.429 E35.6815
G1 X136.945 Y99.429 E35.71842
G1 X135.868 Y99.695 E35.75532
G1 X134.885 Y100.21 E35.79223
M204 S5000
M205 X30 Y30
G0 F3600 X134.829 Y100.128
G0 X134.024 Y100.921
G0 X133.452 Y101.749
G0 X123.114 Y125.618
G0 X123.017 Y125.641
M204 S500
M205 X20 Y20
G1 F1800 X122.53 Y124.36 E35.83781
G1 X121.753 Y123.232 E35.88337
G1 X120.727 Y122.323 E35.92896
G1 X119.514 Y121.688 E35.9745
G1 X118.184 Y121.359 E36.02007
G1 X116.816 Y121.359 E36.06557
G1 X115.486 Y121.688 E36.11114
G1 X114.273 Y122.323 E36.15667
G1 X113.247 Y123.232 E36.20226
G1 X112.47 Y124.36 E36.24782
G1 X111.984 Y125.642 E36.29342
G1 X111.819 Y127 E36.33892
G1 X111.984 Y128.358 E36.38442
G1 X112.47 Y129.64 E36.43002
G1 X113.247 Y130.768 E36.47558
G1 X114.273 Y131.677 E36.52117
G1 X115.486 Y132.312 E36.56671
G1 X116.816 Y132.641 E36.61228
G1 X118.184 Y132.641 E36.65778
G1 X119.514 Y132.312 E36.70335
G1 X120.727 Y131.677 E36.74889
G1 X121.753 Y130.768 E36.79448
G1 X122.53 Y129.64 E36.84003
G1 X123.016 Y128.358 E36.88563
G1 X123.181 Y127 E36.93113
G1 X123.017 Y125.641 E36.97666
M204 S5000
M205 X30 Y30
G0 F3600 X122.626 Y125.737
M204 S500
M205 X20 Y20
;TYPE:WALL-OUTER
G1 F1800 X122.173 Y124.547 E37.01901
G1 X121.451 Y123.499 E37.06134
G1 X120.498 Y122.655 E37.10368
G1 X119.371 Y122.065 E37.14599
G1 X118.135 Y121.759 E37.18834
G1 X116.865 Y121.759 E37.23058
G1 X115.629 Y122.065 E37.27293
G1 X114.502 Y122.655 E37.31524
G1 X113.549 Y123.499 E37.35758
G1 X112.827 Y124.547 E37.39991
G1 X112.375 Y125.738 E37.44228
G1 X112.222 Y127 E37.48456
G1 X112.375 Y128.262 E37.52684
G1 X112.827 Y129.453 E37.56921
G1 X113.549 Y130.501 E37.61154
G1 X114.502 Y131.345 E37.65388
G1 X115.629 Y131.935 E37.69619
G1 X116.865 Y132.241 E37.73854
G1 X118.135 Y132.241 E37.78078
G1 X119.371 Y131.935 E37.82313
G1 X120.498 Y131.345 E37.86544
G1 X121.451 Y130.501 E37.90778
G1 X122.173 Y129.453 E37.95011
G1 X122.625 Y128.262 E37.99248
G1 X122.778 Y127 E38.03476
G1 X122.626 Y125.737 E38.07707
M204 S5000
M205 X30 Y30
G0 F3600 X122.555 Y125.551
G0 X123.022 Y125.375
G0 X116.271 Y103.996
G0 X116.603 Y103.623
M204 S500
M205 X20 Y20
G1 F1800 X117.182 Y104.135 E38.10278
G1 X117.865 Y104.493 E38.12843
G1 X118.614 Y104.678 E38.15409
G1 X119.386 Y104.678 E38.17977
G1 X120.135 Y104.493 E38.20543
G1 X120.818 Y104.135 E38.23107
G1 X121.397 Y103.623 E38.25678
G1 X121.834 Y102.988 E38.28242
G1 X122.109 Y102.266 E38.30812
G1 X122.2 Y101.512 E38.33338
G1 X122.2 Y99.013 E38.41649
G1 X122.221 Y98.822 E38.42288
G1 X122.281 Y98.653 E38.42885
G1 X122.377 Y98.5 E38.43486
G1 X122.5 Y98.377 E38.44064
G1 X122.653 Y98.281 E38.44665
G1 X122.822 Y98.221 E38.45261
G1 X123.013 Y98.2 E38.45901
G1 X149.3 Y98.2 E39.33331
G1 X149.3 Y105.99 E39.59241
G1 X149.109 Y107.921 E39.65695
