;FLAVOR:Marlin
;TIME:890
;Filament used: 0.500035m
;Layer height: 0.2
;Generated with Cura_SteamEngine 3.6.0
M140 S60
M105
M190 S60
M104 S200
M105
M109 S200
M82 ;absolute extrusion mode
; Ender 3 Custom Start G-code
G28 ; Home all axes
G92 E0 ; Reset Extruder
G1 Z2.0 F3000 ; Move Z Axis up little to prevent scratching of Heat Bed
G1 X0.1 Y20 Z0.3 F5000.0 ; Move to start position
G1 X0.1 Y200.0 Z0.3 F1500.0 E15 ; Draw the first line
G1 X0.4 Y200.0 Z0.3 F5000.0 ; Move to side a little
G1 X0.4 Y20 Z0.3 F1500.0 E30 ; Draw the second line
G92 E0 ; Reset Extruder
G1 Z2.0 F3000 ; Move Z Axis up little to prevent scratching of Heat Bed
; End of custom start GCode
G92 E0
G1 F2400 E-5
;LAYER_COUNT:77
;LAYER:0
M107
M204 S5000
M205 X30 Y30
G0 F3600 X106.996 Y90.03 Z0.2
M204 S500
M205 X20 Y20
;TYPE:SKIRT
G1 F2400 E0
G1 F1800 X107.471 Y89.496 E0.02377
G1 X108.003 Y89.017 E0.04758
G1 X108.585 Y88.602 E0.07136
G1 X109.21 Y88.253 E0.09516
G1 X109.87 Y87.977 E0.11896
G1 X110.556 Y87.776 E0.14273
G1 X111.261 Y87.653 E0.16654
G1 X112.01 Y87.609 E0.19149
G1 X122.992 Y87.61 E0.55675
G1 X123.706 Y87.65 E0.58054
G1 X124.411 Y87.77 E0.60432
G1 X125.098 Y87.967 E0.62809
G1 X125.76 Y88.24 E0.65191
G1 X126.386 Y88.585 E0.67569
G1 X126.97 Y88.998 E0.69948
G1 X127.505 Y89.473 E0.72327
G1 X127.983 Y90.005 E0.74706
G1 X128.399 Y90.587 E0.77085
G1 X128.747 Y91.212 E0.79465
G1 X129.023 Y91.871 E0.81841
G1 X129.224 Y92.558 E0.84222
G1 X129.347 Y93.262 E0.86599
G1 X129.391 Y94.01 E0.89091
G1 X129.391 Y140.991 E2.4535
G1 X129.351 Y141.705 E2.47729
G1 X129.232 Y142.41 E2.50107
G1 X129.034 Y143.098 E2.52488
G1 X128.761 Y143.759 E2.54866
G1 X128.417 Y144.386 E2.57245
G1 X128.004 Y144.97 E2.59624
G1 X127.529 Y145.504 E2.62001
G1 X126.997 Y145.983 E2.64382
G1 X126.415 Y146.398 E2.6676
G1 X125.79 Y146.747 E2.69141
G1 X125.13 Y147.023 E2.7152
G1 X124.444 Y147.224 E2.73898
G1 X123.739 Y147.347 E2.76278
G1 X122.991 Y147.391 E2.7877
G1 X112.009 Y147.391 E3.15296
G1 X111.295 Y147.351 E3.17675
G1 X110.59 Y147.232 E3.20053
G1 X109.902 Y147.034 E3.22434
G1 X109.241 Y146.761 E3.24813
G1 X108.614 Y146.417 E3.27191
G1 X108.03 Y146.004 E3.2957
G1 X107.496 Y145.529 E3.31947
G1 X107.017 Y144.997 E3.34328
G1 X106.602 Y144.415 E3.36706
G1 X106.253 Y143.79 E3.39087
G1 X105.977 Y143.13 E3.41466
G1 X105.776 Y142.444 E3.43844
G1 X105.653 Y141.739 E3.46224
G1 X105.609 Y140.991 E3.48716
G1 X105.609 Y94.009 E5.04979
G1 X105.649 Y93.295 E5.07357
G1 X105.768 Y92.59 E5.09735
G1 X105.966 Y91.902 E5.12116
G1 X106.239 Y91.241 E5.14495
G1 X106.583 Y90.614 E5.16874
G1 X106.996 Y90.03 E5.19253
M204 S5000
M205 X30 Y30
G0 F3600 X107.393 Y90.176
M204 S500
M205 X20 Y20
G1 F1800 X107.865 Y89.67 E5.21554
G1 X108.393 Y89.221 E5.23859
G1 X108.968 Y88.836 E5.26161
G1 X109.585 Y88.521 E5.28465
G1 X110.233 Y88.278 E5.30767
G1 X110.906 Y88.111 E5.33073
G1 X111.592 Y88.023 E5.35374
G1 X112.01 Y88.009 E5.36765
G1 X122.992 Y88.01 E5.73291
G1 X123.683 Y88.05 E5.75593
G1 X124.365 Y88.169 E5.77896
G1 X125.029 Y88.367 E5.802
G1 X125.666 Y88.639 E5.82504
G1 X126.267 Y88.983 E5.84807
G1 X126.824 Y89.394 E5.8711
G1 X127.33 Y89.866 E5.89411
G1 X127.779 Y90.394 E5.91716
G1 X128.164 Y90.97 E5.94021
G1 X128.48 Y91.586 E5.96323
G1 X128.722 Y92.235 E5.98627
G1 X128.889 Y92.907 E6.0093
G1 X128.977 Y93.594 E6.03234
G1 X128.991 Y94.01 E6.04618
G1 X128.991 Y140.991 E7.60878
G1 X128.951 Y141.682 E7.6318
G1 X128.832 Y142.365 E7.65486
G1 X128.634 Y143.028 E7.67787
G1 X128.362 Y143.665 E7.70091
G1 X128.018 Y144.266 E7.72394
G1 X127.607 Y144.824 E7.74699
G1 X127.135 Y145.33 E7.77
G1 X126.607 Y145.779 E7.79306
G1 X126.032 Y146.164 E7.81607
G1 X125.415 Y146.479 E7.83911
G1 X124.767 Y146.722 E7.86213
G1 X124.094 Y146.889 E7.8852
G1 X123.408 Y146.977 E7.9082
G1 X122.991 Y146.991 E7.92208
G1 X112.009 Y146.991 E8.28734
G1 X111.318 Y146.951 E8.31036
G1 X110.635 Y146.832 E8.33342
G1 X109.972 Y146.634 E8.35643
G1 X109.335 Y146.362 E8.37947
G1 X108.734 Y146.018 E8.4025
G1 X108.176 Y145.607 E8.42555
G1 X107.67 Y145.135 E8.44857
G1 X107.221 Y144.607 E8.47162
G1 X106.836 Y144.032 E8.49464
G1 X106.521 Y143.415 E8.51768
G1 X106.278 Y142.767 E8.5407
G1 X106.111 Y142.094 E8.56376
G1 X106.023 Y141.408 E8.58676
G1 X106.009 Y140.991 E8.60064
G1 X106.009 Y94.009 E10.16327
G1 X106.049 Y93.318 E10.18629
G1 X106.168 Y92.635 E10.20935
G1 X106.366 Y91.972 E10.23236
G1 X106.638 Y91.335 E10.2554
G1 X106.982 Y90.734 E10.27843
G1 X107.393 Y90.176 E10.30148
M204 S5000
M205 X30 Y30
G0 F3600 X107.789 Y90.328
M204 S500
M205 X20 Y20
G1 F1800 X108.258 Y89.851 E10.32373
G1 X108.78 Y89.433 E10.34597
G1 X109.349 Y89.081 E10.36823
G1 X109.956 Y88.799 E10.39049
G1 X110.592 Y88.591 E10.41274
G1 X111.248 Y88.461 E10.43499
G1 X112.01 Y88.409 E10.46039
G1 X122.992 Y88.41 E10.82565
G1 X123.659 Y88.45 E10.84788
G1 X124.318 Y88.569 E10.87015
G1 X124.957 Y88.766 E10.89239
G1 X125.568 Y89.038 E10.91463
G1 X126.143 Y89.381 E10.9369
G1 X126.672 Y89.79 E10.95914
G1 X127.149 Y90.259 E10.98139
G1 X127.567 Y90.782 E11.00366
G1 X127.919 Y91.351 E11.02591
G1 X128.201 Y91.957 E11.04814
G1 X128.409 Y92.593 E11.0704
G1 X128.539 Y93.25 E11.09268
G1 X128.591 Y94.01 E11.11801
G1 X128.591 Y140.991 E12.68061
G1 X128.551 Y141.659 E12.70287
G1 X128.432 Y142.317 E12.72511
G1 X128.235 Y142.957 E12.74738
G1 X127.963 Y143.568 E12.76962
G1 X127.62 Y144.142 E12.79186
G1 X127.211 Y144.672 E12.81413
G1 X126.742 Y145.149 E12.83638
G1 X126.22 Y145.567 E12.85862
G1 X125.651 Y145.919 E12.88087
G1 X125.044 Y146.201 E12.90314
G1 X124.408 Y146.409 E12.92539
G1 X123.752 Y146.539 E12.94763
G1 X122.991 Y146.591 E12.973
G1 X112.009 Y146.591 E13.33827
G1 X111.341 Y146.551 E13.36052
G1 X110.683 Y146.432 E13.38276
G1 X110.043 Y146.235 E13.40504
G1 X109.432 Y145.963 E13.42728
G1 X108.858 Y145.62 E13.44952
G1 X108.328 Y145.211 E13.47179
G1 X107.851 Y144.742 E13.49404
G1 X107.433 Y144.22 E13.51628
G1 X107.081 Y143.651 E13.53853
G1 X106.799 Y143.044 E13.56079
G1 X106.591 Y142.408 E13.58305
G1 X106.461 Y141.752 E13.60529
G1 X106.409 Y140.991 E13.63066
G1 X106.409 Y94.009 E15.19329
G1 X106.449 Y93.341 E15.21555
G1 X106.568 Y92.683 E15.23779
G1 X106.765 Y92.043 E15.26006
G1 X107.037 Y91.432 E15.28231
G1 X107.38 Y90.858 E15.30455
G1 X107.789 Y90.328 E15.32681
M204 S5000
M205 X30 Y30
G0 F3600 X107.778 Y90.986
M204 S500
M205 X20 Y20
G1 F1800 X108.184 Y90.486 E15.34823
G1 X108.649 Y90.04 E15.36966
G1 X109.166 Y89.655 E15.3911
G1 X109.727 Y89.336 E15.41257
G1 X110.323 Y89.09 E15.43401
G1 X110.944 Y88.919 E15.45544
G1 X111.582 Y88.827 E15.47688
G1 X112.009 Y88.809 E15.49109
G1 X122.991 Y88.81 E15.85635
G1 X123.635 Y88.85 E15.87781
G1 X124.268 Y88.969 E15.89924
G1 X124.882 Y89.166 E15.92068
G1 X125.467 Y89.437 E15.94213
G1 X126.014 Y89.779 E15.96358
G1 X126.514 Y90.185 E15.98501
G1 X126.96 Y90.651 E16.00646
G1 X127.346 Y91.168 E16.02792
G1 X127.664 Y91.728 E16.04934
G1 X127.91 Y92.324 E16.07078
G1 X128.081 Y92.946 E16.09224
G1 X128.174 Y93.584 E16.11368
G1 X128.191 Y94.01 E16.12786
G1 X128.191 Y140.991 E17.69046
G1 X128.151 Y141.634 E17.71189
G1 X128.032 Y142.268 E17.73334
G1 X127.835 Y142.882 E17.75479
G1 X127.564 Y143.467 E17.77623
G1 X127.222 Y144.014 E17.79769
G1 X126.816 Y144.514 E17.81911
G1 X126.351 Y144.96 E17.84054
G1 X125.834 Y145.345 E17.86198
G1 X125.273 Y145.664 E17.88344
G1 X124.677 Y145.91 E17.90489
G1 X124.056 Y146.081 E17.92631
G1 X123.418 Y146.173 E17.94775
G1 X122.991 Y146.191 E17.96197
G1 X112.009 Y146.191 E18.32723
G1 X111.366 Y146.151 E18.34866
G1 X110.732 Y146.032 E18.37011
G1 X110.118 Y145.835 E18.39156
G1 X109.533 Y145.564 E18.413
G1 X108.986 Y145.222 E18.43446
G1 X108.486 Y144.816 E18.45588
G1 X108.04 Y144.351 E18.47731
G1 X107.655 Y143.834 E18.49875
G1 X107.336 Y143.273 E18.52022
G1 X107.09 Y142.677 E18.54166
G1 X106.919 Y142.056 E18.56309
G1 X106.827 Y141.418 E18.58452
G1 X106.809 Y140.991 E18.59874
G1 X106.809 Y94.009 E20.16137
G1 X106.849 Y93.366 E20.18279
G1 X106.968 Y92.732 E20.20425
G1 X107.165 Y92.118 E20.2257
G1 X107.436 Y91.533 E20.24714
G1 X107.778 Y90.986 E20.2686
M204 S5000
M205 X30 Y30
G1 F2400 E15.2686
;MESH:CableCareerExtruder2.stl
G0 F3600 X111.335 Y94.614
G0 X112.614 Y94.614
G0 X122.33 Y140.33
G0 X122.4 Y140.4
M204 S500
M205 X20 Y20
;TYPE:WALL-INNER
G1 F2400 E20.2686
G1 F1800 X112.6 Y140.4 E20.59455
G1 X112.6 Y94.6 E22.11786
G1 X122.4 Y94.6 E22.44381
G1 X122.4 Y140.4 E23.96712
M204 S5000
M205 X30 Y30
G0 F3600 X122.8 Y140.8
M204 S500
M205 X20 Y20
;TYPE:WALL-OUTER
G1 F1800 X112.2 Y140.8 E24.31968
G1 X112.2 Y94.2 E25.8696
G1 X122.8 Y94.2 E26.22216
G1 X122.8 Y140.8 E27.77208
M204 S5000
M205 X30 Y30
G0 F3600 X122.6 Y140.8
G0 X122.33 Y140.33
G0 X122.01 Y140.01
M204 S500
M205 X20 Y20
;TYPE:SKIN
G1 F1800 X112.99 Y140.01 E28.07209
G1 X112.99 Y94.99 E29.56946
G1 X122.01 Y94.99 E29.86947
G1 X122.01 Y140.01 E31.36684
M204 S5000
M205 X30 Y30
G0 F3600 X113.241 Y139.828
M204 S500
M205 X20 Y20
G1 F1800 X113.169 Y139.756 E31.37023
M204 S5000
M205 X30 Y30
G0 F3600 X113.169 Y139.191
M204 S500
M205 X20 Y20
G1 F1800 X113.807 Y139.828 E31.40021
M204 S5000
M205 X30 Y30
G0 F3600 X114.373 Y139.828
M204 S500
M205 X20 Y20
G1 F1800 X113.169 Y138.625 E31.45682
M204 S5000
M205 X30 Y30
G0 F3600 X113.169 Y138.059
M204 S500
M205 X20 Y20
G1 F1800 X114.938 Y139.828 E31.54003
M204 S5000
M205 X30 Y30
G0 F3600 X115.504 Y139.828
M204 S500
M205 X20 Y20
G1 F1800 X113.169 Y137.494 E31.64984
M204 S5000
M205 X30 Y30
G0 F3600 X113.169 Y136.928
M204 S500
M205 X20 Y20
G1 F1800 X116.07 Y139.828 E31.78627
M204 S5000
M205 X30 Y30
G0 F3600 X116.635 Y139.828
M204 S500
M205 X20 Y20
G1 F1800 X113.169 Y136.362 E31.9493
M204 S5000
M205 X30 Y30
G0 F3600 X113.169 Y135.797
M204 S500
M205 X20 Y20
G1 F1800 X117.201 Y139.828 E32.13893
M204 S5000
M205 X30 Y30
G0 F3600 X117.767 Y139.828
M204 S500
M205 X20 Y20
G1 F1800 X113.169 Y135.231 E32.35518
M204 S5000
M205 X30 Y30
G0 F3600 X113.169 Y134.665
M204 S500
M205 X20 Y20
G1 F1800 X118.332 Y139.828 E32.59803
M204 S5000
M205 X30 Y30
G0 F3600 X118.898 Y139.828
M204 S500
M205 X20 Y20
G1 F1800 X113.169 Y134.099 E32.86751
M204 S5000
M205 X30 Y30
G0 F3600 X113.169 Y133.534
M204 S500
M205 X20 Y20
G1 F1800 X119.464 Y139.828 E33.16358
M204 S5000
M205 X30 Y30
G0 F3600 X120.029 Y139.828
M204 S500
M205 X20 Y20
G1 F1800 X113.169 Y132.968 E33.48625
M204 S5000
M205 X30 Y30
G0 F3600 X113.169 Y132.402
M204 S500
M205 X20 Y20
G1 F1800 X120.595 Y139.828 E33.83555
M204 S5000
M205 X30 Y30
G0 F3600 X121.161 Y139.828
M204 S500
M205 X20 Y20
G1 F1800 X113.169 Y131.837 E34.21144
M204 S5000
M205 X30 Y30
G0 F3600 X113.169 Y131.271
M204 S500
M205 X20 Y20
G1 F1800 X121.727 Y139.828 E34.61396
M204 S5000
M205 X30 Y30
G0 F3600 X121.83 Y139.366
M204 S500
M205 X20 Y20
G1 F1800 X113.169 Y130.705 E35.02135
M204 S5000
M205 X30 Y30
G0 F3600 X113.169 Y130.14
M204 S500
M205 X20 Y20
G1 F1800 X121.83 Y138.8 E35.42871
M204 S5000
M205 X30 Y30
G0 F3600 X121.83 Y138.235
M204 S500
M205 X20 Y20
G1 F1800 X113.169 Y129.574 E35.8361
M204 S5000
M205 X30 Y30
G0 F3600 X113.169 Y129.008
M204 S500
M205 X20 Y20
G1 F1800 X121.83 Y137.669 E36.24349
M204 S5000
M205 X30 Y30
G0 F3600 X121.83 Y137.103
M204 S500
M205 X20 Y20
G1 F1800 X113.169 Y128.443 E36.65085
M204 S5000
M205 X30 Y30
G0 F3600 X113.169 Y127.877
M204 S500
M205 X20 Y20
G1 F1800 X121.83 Y136.538 E37.05824
M204 S5000
M205 X30 Y30
G0 F3600 X121.83 Y135.972
M204 S500
M205 X20 Y20
G1 F1800 X113.169 Y127.311 E37.46562
M204 S5000
M205 X30 Y30
G0 F3600 X113.169 Y126.746
M204 S500
M205 X20 Y20
G1 F1800 X121.83 Y135.406 E37.87299
M204 S5000
M205 X30 Y30
G0 F3600 X121.83 Y134.841
M204 S500
M205 X20 Y20
G1 F1800 X113.169 Y126.18 E38.28037
M204 S5000
M205 X30 Y30
G0 F3600 X113.169 Y125.614
M204 S500
M205 X20 Y20
G1 F1800 X121.83 Y134.275 E38.68776
M204 S5000
M205 X30 Y30
G0 F3600 X121.83 Y133.709
M204 S500
M205 X20 Y20
G1 F1800 X113.169 Y125.049 E39.09512
M204 S5000
M205 X30 Y30
G0 F3600 X113.169 Y124.483
M204 S500
M205 X20 Y20
G1 F1800 X121.83 Y133.143 E39.50249
M204 S5000
M205 X30 Y30
G0 F3600 X121.83 Y132.578
M204 S500
M205 X20 Y20
G1 F1800 X113.169 Y123.917 E39.90987
M204 S5000
M205 X30 Y30
G0 F3600 X113.169 Y123.351
M204 S500
M205 X20 Y20
G1 F1800 X121.83 Y132.012 E40.31726
M204 S5000
M205 X30 Y30
G0 F3600 X121.83 Y131.446
M204 S500
M205 X20 Y20
G1 F1800 X113.169 Y122.786 E40.72463
M204 S5000
M205 X30 Y30
G0 F3600 X113.169 Y122.22
M204 S500
M205 X20 Y20
G1 F1800 X121.83 Y130.881 E41.13201
M204 S5000
M205 X30 Y30
G0 F3600 X121.83 Y130.315
M204 S500
M205 X20 Y20
G1 F1800 X113.169 Y121.654 E41.5394
M204 S5000
M205 X30 Y30
G0 F3600 X113.169 Y121.089
M204 S500
M205 X20 Y20
G1 F1800 X121.83 Y129.749 E41.94676
M204 S5000
M205 X30 Y30
G0 F3600 X121.83 Y129.184
M204 S500
M205 X20 Y20
G1 F1800 X113.169 Y120.523 E42.35415
M204 S5000
M205 X30 Y30
G0 F3600 X113.169 Y119.957
M204 S500
M205 X20 Y20
G1 F1800 X121.83 Y128.618 E42.76154
M204 S5000
M205 X30 Y30
G0 F3600 X121.83 Y128.052
M204 S500
M205 X20 Y20
G1 F1800 X113.169 Y119.392 E43.1689
M204 S5000
M205 X30 Y30
G0 F3600 X113.169 Y118.826
M204 S500
M205 X20 Y20
G1 F1800 X121.83 Y127.487 E43.57629
M204 S5000
M205 X30 Y30
G0 F3600 X121.83 Y126.921
M204 S500
M205 X20 Y20
G1 F1800 X113.169 Y118.26 E43.98367
M204 S5000
M205 X30 Y30
G0 F3600 X113.169 Y117.695
M204 S500
M205 X20 Y20
G1 F1800 X121.83 Y126.355 E44.39104
M204 S5000
M205 X30 Y30
G0 F3600 X121.83 Y125.79
M204 S500
M205 X20 Y20
G1 F1800 X113.168 Y117.128 E44.79847
M204 S5000
M205 X30 Y30
G0 F3600 X113.168 Y116.563
M204 S500
M205 X20 Y20
G1 F1800 X121.83 Y125.224 E45.20588
M204 S5000
M205 X30 Y30
G0 F3600 X121.83 Y124.658
M204 S500
M205 X20 Y20
G1 F1800 X113.168 Y115.997 E45.61329
M204 S5000
M205 X30 Y30
G0 F3600 X113.168 Y115.431
M204 S500
M205 X20 Y20
G1 F1800 X121.83 Y124.092 E46.0207
M204 S5000
M205 X30 Y30
G0 F3600 X121.83 Y123.527
M204 S500
M205 X20 Y20
G1 F1800 X113.168 Y114.865 E46.42814
M204 S5000
M205 X30 Y30
G0 F3600 X113.168 Y114.3
M204 S500
M205 X20 Y20
G1 F1800 X121.83 Y122.961 E46.83555
M204 S5000
M205 X30 Y30
G0 F3600 X121.83 Y122.395
M204 S500
M205 X20 Y20
G1 F1800 X113.168 Y113.734 E47.24296
M204 S5000
M205 X30 Y30
G0 F3600 X113.168 Y113.168
M204 S500
M205 X20 Y20
G1 F1800 X121.83 Y121.83 E47.65039
M204 S5000
M205 X30 Y30
G0 F3600 X121.83 Y121.264
M204 S500
M205 X20 Y20
G1 F1800 X113.168 Y112.603 E48.0578
M204 S5000
M205 X30 Y30
G0 F3600 X113.168 Y112.037
M204 S500
M205 X20 Y20
G1 F1800 X121.83 Y120.698 E48.46521
M204 S5000
M205 X30 Y30
G0 F3600 X121.83 Y120.133
M204 S500
M205 X20 Y20
G1 F1800 X113.168 Y111.471 E48.87265
M204 S5000
M205 X30 Y30
G0 F3600 X113.168 Y110.906
M204 S500
M205 X20 Y20
G1 F1800 X121.83 Y119.567 E49.28006
M204 S5000
M205 X30 Y30
G0 F3600 X121.83 Y119.001
M204 S500
M205 X20 Y20
G1 F1800 X113.168 Y110.34 E49.68747
M204 S5000
M205 X30 Y30
G0 F3600 X113.168 Y109.774
M204 S500
M205 X20 Y20
G1 F1800 X121.83 Y118.436 E50.0949
M204 S5000
M205 X30 Y30
G0 F3600 X121.83 Y117.87
M204 S500
M205 X20 Y20
G1 F1800 X113.168 Y109.209 E50.50231
M204 S5000
M205 X30 Y30
G0 F3600 X113.168 Y108.643
M204 S500
M205 X20 Y20
G1 F1800 X121.83 Y117.304 E50.90972
M204 S5000
M205 X30 Y30
G0 F3600 X121.83 Y116.739
M204 S500
M205 X20 Y20
G1 F1800 X113.168 Y108.077 E51.31715
M204 S5000
M205 X30 Y30
G0 F3600 X113.168 Y107.512
M204 S500
M205 X20 Y20
G1 F1800 X121.83 Y116.173 E51.72456
M204 S5000
M205 X30 Y30
G0 F3600 X121.83 Y115.607
M204 S500
M205 X20 Y20
G1 F1800 X113.168 Y106.946 E52.13198
M204 S5000
M205 X30 Y30
G0 F3600 X113.168 Y106.38
M204 S500
M205 X20 Y20
G1 F1800 X121.83 Y115.042 E52.53941
M204 S5000
M205 X30 Y30
G0 F3600 X121.83 Y114.476
M204 S500
M205 X20 Y20
G1 F1800 X113.168 Y105.814 E52.94684
M204 S5000
M205 X30 Y30
G0 F3600 X113.168 Y105.249
M204 S500
M205 X20 Y20
G1 F1800 X121.83 Y113.91 E53.35425
M204 S5000
M205 X30 Y30
G0 F3600 X121.83 Y113.344
M204 S500
M205 X20 Y20
G1 F1800 X113.168 Y104.683 E53.76166
M204 S5000
M205 X30 Y30
G0 F3600 X113.168 Y104.117
M204 S500
M205 X20 Y20
G1 F1800 X121.83 Y112.779 E54.1691
M204 S5000
M205 X30 Y30
G0 F3600 X121.83 Y112.213
M204 S500
M205 X20 Y20
G1 F1800 X113.168 Y103.552 E54.57651
M204 S5000
M205 X30 Y30
G0 F3600 X113.168 Y102.986
M204 S500
M205 X20 Y20
G1 F1800 X121.83 Y111.647 E54.98392
M204 S5000
M205 X30 Y30
