;FLAVOR:Marlin
;TIME:3736
;Filament used: 3.03377m
;Layer height: 0.2
;Generated with Cura_SteamEngine 3.6.0
M140 S60
M105
M190 S60
M104 S200
M105
M109 S200
M82 ;absolute extrusion mode
; Ender 3 Custom Start G-code
G28 ; Home all axes
G92 E0 ; Reset Extruder
G1 Z2.0 F3000 ; Move Z Axis up little to prevent scratching of Heat Bed
G1 X0.1 Y20 Z0.3 F5000.0 ; Move to start position
G1 X0.1 Y200.0 Z0.3 F1500.0 E15 ; Draw the first line
G1 X0.4 Y200.0 Z0.3 F5000.0 ; Move to side a little
G1 X0.4 Y20 Z0.3 F1500.0 E30 ; Draw the second line
G92 E0 ; Reset Extruder
G1 Z2.0 F3000 ; Move Z Axis up little to prevent scratching of Heat Bed
; End of custom start GCode
G92 E0
G1 F2400 E-5
;LAYER_COUNT:56
;LAYER:0
M107
M204 S5000
M205 X30 Y30
G0 F3600 X86.992 Y78.994 Z0.2
M204 S500
M205 X20 Y20
;TYPE:SKIRT
G1 F2400 E0
G1 F1800 X87.524 Y78.516 E0.02379
G1 X88.106 Y78.101 E0.04756
G1 X88.731 Y77.753 E0.07135
G1 X89.391 Y77.476 E0.09516
G1 X90.077 Y77.276 E0.11893
G1 X90.782 Y77.153 E0.14273
G1 X91.525 Y77.109 E0.16749
G1 X110.808 Y77.1 E0.80884
G1 X110.948 Y77.101 E0.8135
G1 X119.008 Y77.273 E1.08164
G1 X123.263 Y77.114 E1.22326
G1 X123.502 Y77.11 E1.23121
G1 X143.509 Y77.11 E1.89664
G1 X144.223 Y77.15 E1.92043
G1 X144.928 Y77.269 E1.94421
G1 X145.616 Y77.467 E1.96802
G1 X146.277 Y77.74 E1.99181
G1 X146.904 Y78.084 E2.01559
G1 X147.488 Y78.497 E2.03938
G1 X148.022 Y78.972 E2.06315
G1 X148.501 Y79.504 E2.08696
G1 X148.916 Y80.086 E2.11074
G1 X149.265 Y80.711 E2.13455
G1 X149.541 Y81.371 E2.15834
G1 X149.742 Y82.057 E2.18212
G1 X149.865 Y82.762 E2.20592
G1 X149.909 Y83.537 E2.23174
G1 X149.894 Y87.052 E2.34865
G1 X149.889 Y87.284 E2.35636
G1 X149.692 Y92.155 E2.51851
G1 X149.768 Y97.493 E2.69607
G1 X149.899 Y99.961 E2.77827
G1 X149.908 Y100.3 E2.78955
G1 X149.908 Y110.698 E3.13539
G1 X149.898 Y111.048 E3.14703
G1 X149.766 Y113.453 E3.22714
G1 X149.692 Y118.801 E3.40504
G1 X149.913 Y124.376 E3.59061
G1 X149.918 Y124.645 E3.59956
G1 X149.894 Y135.04 E3.9453
G1 X149.889 Y135.284 E3.95341
G1 X149.692 Y140.155 E4.11556
G1 X149.768 Y145.493 E4.29312
G1 X149.899 Y147.961 E4.37532
G1 X149.908 Y148.298 E4.38653
G1 X149.909 Y151.489 E4.49266
G1 X149.869 Y152.203 E4.51645
G1 X149.75 Y152.908 E4.54023
G1 X149.553 Y153.596 E4.56403
G1 X149.28 Y154.257 E4.58782
G1 X148.936 Y154.884 E4.6116
G1 X148.523 Y155.468 E4.63539
G1 X148.048 Y156.003 E4.65919
G1 X147.516 Y156.481 E4.68298
G1 X146.934 Y156.897 E4.70677
G1 X146.31 Y157.246 E4.73055
G1 X145.65 Y157.522 E4.75435
G1 X144.964 Y157.723 E4.77812
G1 X144.259 Y157.847 E4.80193
G1 X143.512 Y157.891 E4.82682
G1 X124.228 Y157.9 E5.46821
G1 X124.015 Y157.897 E5.47529
G1 X118.689 Y157.722 E5.65253
G1 X116.111 Y157.724 E5.73827
G1 X111.773 Y157.886 E5.88266
G1 X111.53 Y157.89 E5.89074
G1 X91.523 Y157.878 E6.55618
G1 X90.809 Y157.838 E6.57996
G1 X90.104 Y157.718 E6.60375
G1 X89.417 Y157.52 E6.62753
G1 X88.755 Y157.247 E6.65134
G1 X88.129 Y156.901 E6.67513
G1 X87.545 Y156.488 E6.69892
G1 X87.011 Y156.013 E6.72269
G1 X86.533 Y155.481 E6.74648
G1 X86.118 Y154.898 E6.77028
G1 X85.77 Y154.273 E6.79408
G1 X85.494 Y153.614 E6.81784
G1 X85.293 Y152.927 E6.84165
G1 X85.17 Y152.222 E6.86545
G1 X85.127 Y151.451 E6.89113
G1 X85.142 Y147.948 E7.00764
G1 X85.147 Y147.716 E7.01536
G1 X85.344 Y142.845 E7.17751
G1 X85.268 Y137.507 E7.35507
G1 X85.136 Y135.024 E7.43777
G1 X85.127 Y134.684 E7.44908
G1 X85.128 Y124.299 E7.79449
G1 X85.138 Y123.949 E7.80613
G1 X85.27 Y121.546 E7.88618
G1 X85.344 Y116.2 E8.064
G1 X85.123 Y110.625 E8.24957
G1 X85.118 Y110.356 E8.25852
G1 X85.142 Y99.96 E8.6043
G1 X85.147 Y99.716 E8.61241
G1 X85.344 Y94.845 E8.77456
G1 X85.268 Y89.507 E8.95212
G1 X85.136 Y87.024 E9.03482
G1 X85.127 Y86.683 E9.04616
G1 X85.128 Y83.507 E9.1518
G1 X85.168 Y82.793 E9.17558
G1 X85.288 Y82.088 E9.19937
G1 X85.485 Y81.4 E9.22317
G1 X85.758 Y80.739 E9.24696
G1 X86.104 Y80.113 E9.27075
G1 X86.516 Y79.529 E9.29452
G1 X86.992 Y78.994 E9.31833
M204 S5000
M205 X30 Y30
G0 F3600 X87.385 Y79.169
M204 S500
M205 X20 Y20
G1 F1800 X87.913 Y78.72 E9.34139
G1 X88.489 Y78.336 E9.36441
G1 X89.105 Y78.02 E9.38744
G1 X89.754 Y77.777 E9.41049
G1 X90.426 Y77.611 E9.43351
G1 X91.113 Y77.523 E9.45655
G1 X91.525 Y77.509 E9.47026
G1 X110.808 Y77.5 E10.11161
G1 X110.939 Y77.501 E10.11597
G1 X119.014 Y77.673 E10.38461
G1 X123.278 Y77.514 E10.52653
G1 X123.502 Y77.51 E10.53398
G1 X143.509 Y77.51 E11.19941
G1 X144.2 Y77.55 E11.22244
G1 X144.883 Y77.669 E11.24549
G1 X145.546 Y77.867 E11.26851
G1 X146.183 Y78.139 E11.29155
G1 X146.784 Y78.483 E11.31458
G1 X147.342 Y78.894 E11.33763
G1 X147.848 Y79.366 E11.36064
G1 X148.297 Y79.894 E11.3837
G1 X148.682 Y80.469 E11.40671
G1 X148.997 Y81.086 E11.42975
G1 X149.24 Y81.734 E11.45277
G1 X149.407 Y82.407 E11.47583
G1 X149.495 Y83.093 E11.49884
G1 X149.509 Y83.536 E11.51358
G1 X149.494 Y87.051 E11.63049
G1 X149.489 Y87.268 E11.63771
G1 X149.291 Y92.145 E11.80005
G1 X149.368 Y97.494 E11.97798
G1 X149.5 Y99.982 E12.06085
G1 X149.508 Y100.3 E12.07143
G1 X149.508 Y110.698 E12.41726
G1 X149.499 Y111.026 E12.42818
G1 X149.366 Y113.45 E12.50892
G1 X149.291 Y118.811 E12.68725
G1 X149.513 Y124.392 E12.87302
G1 X149.518 Y124.644 E12.8814
G1 X149.494 Y135.039 E13.22714
G1 X149.489 Y135.268 E13.23476
G1 X149.291 Y140.145 E13.3971
G1 X149.368 Y145.494 E13.57503
G1 X149.5 Y147.982 E13.6579
G1 X149.508 Y148.298 E13.66841
G1 X149.509 Y151.489 E13.77454
G1 X149.469 Y152.181 E13.7976
G1 X149.35 Y152.863 E13.82063
G1 X149.153 Y153.527 E13.84366
G1 X148.881 Y154.163 E13.86667
G1 X148.537 Y154.765 E13.88973
G1 X148.127 Y155.322 E13.91273
G1 X147.654 Y155.829 E13.93579
G1 X147.127 Y156.278 E13.95882
G1 X146.551 Y156.663 E13.98187
G1 X145.935 Y156.979 E14.00489
G1 X145.286 Y157.222 E14.02794
G1 X144.614 Y157.388 E14.05096
G1 X143.927 Y157.476 E14.074
G1 X143.512 Y157.491 E14.08781
G1 X124.228 Y157.5 E14.7292
G1 X124.028 Y157.497 E14.73585
G1 X118.702 Y157.322 E14.91309
G1 X116.096 Y157.324 E14.99977
G1 X111.758 Y157.486 E15.14415
G1 X111.53 Y157.49 E15.15174
G1 X91.523 Y157.478 E15.81717
G1 X90.832 Y157.438 E15.84019
G1 X90.15 Y157.318 E15.86323
G1 X89.486 Y157.12 E15.88627
G1 X88.85 Y156.848 E15.90928
G1 X88.249 Y156.503 E15.93233
G1 X87.692 Y156.092 E15.95535
G1 X87.185 Y155.619 E15.97841
G1 X86.737 Y155.091 E16.00144
G1 X86.353 Y154.515 E16.02447
G1 X86.037 Y153.899 E16.04749
G1 X85.795 Y153.25 E16.07053
G1 X85.629 Y152.578 E16.09355
G1 X85.541 Y151.891 E16.11659
G1 X85.527 Y151.452 E16.1312
G1 X85.542 Y147.949 E16.24771
G1 X85.547 Y147.732 E16.25493
G1 X85.745 Y142.855 E16.41727
G1 X85.668 Y137.506 E16.5952
G1 X85.535 Y135.003 E16.67857
G1 X85.527 Y134.684 E16.68918
G1 X85.528 Y124.299 E17.03459
G1 X85.537 Y123.971 E17.0455
G1 X85.67 Y121.549 E17.12618
G1 X85.745 Y116.19 E17.30444
G1 X85.523 Y110.609 E17.49021
G1 X85.518 Y110.357 E17.49859
G1 X85.542 Y99.961 E17.84437
G1 X85.547 Y99.732 E17.85198
G1 X85.745 Y94.855 E18.01433
G1 X85.668 Y89.506 E18.19225
G1 X85.535 Y87.003 E18.27562
G1 X85.527 Y86.683 E18.28627
G1 X85.528 Y83.507 E18.3919
G1 X85.568 Y82.816 E18.41492
G1 X85.688 Y82.134 E18.43796
G1 X85.885 Y81.47 E18.46099
G1 X86.158 Y80.833 E18.48404
G1 X86.502 Y80.232 E18.50707
G1 X86.913 Y79.675 E18.5301
G1 X87.385 Y79.169 E18.55311
M204 S5000
M205 X30 Y30
G0 F3600 X87.778 Y79.35
M204 S500
M205 X20 Y20
G1 F1800 X88.301 Y78.932 E18.57538
G1 X88.87 Y78.58 E18.59763
G1 X89.476 Y78.298 E18.61987
G1 X90.113 Y78.091 E18.64214
G1 X90.769 Y77.961 E18.66439
G1 X91.525 Y77.909 E18.68959
G1 X110.808 Y77.9 E19.33094
G1 X110.93 Y77.901 E19.335
G1 X119.02 Y78.074 E19.60414
G1 X123.293 Y77.914 E19.74636
G1 X123.502 Y77.91 E19.75331
G1 X143.509 Y77.91 E20.41875
G1 X144.177 Y77.95 E20.441
G1 X144.835 Y78.069 E20.46324
G1 X145.475 Y78.266 E20.48552
G1 X146.086 Y78.538 E20.50776
G1 X146.66 Y78.881 E20.53
G1 X147.19 Y79.29 E20.55227
G1 X147.667 Y79.759 E20.57452
G1 X148.085 Y80.281 E20.59676
G1 X148.437 Y80.85 E20.61901
G1 X148.719 Y81.457 E20.64127
G1 X148.927 Y82.093 E20.66353
G1 X149.057 Y82.749 E20.68577
G1 X149.109 Y83.534 E20.71194
G1 X149.094 Y87.049 E20.82885
G1 X149.089 Y87.252 E20.8356
G1 X148.891 Y92.135 E20.99815
G1 X148.968 Y97.521 E21.1773
G1 X149.1 Y100.003 E21.25997
G1 X149.108 Y100.3 E21.26985
G1 X149.108 Y110.698 E21.61569
G1 X149.1 Y111.004 E21.62587
G1 X148.966 Y113.447 E21.70725
G1 X148.891 Y118.803 E21.88541
G1 X149.114 Y124.408 E22.07198
G1 X149.118 Y124.643 E22.0798
G1 X149.094 Y135.038 E22.42554
G1 X149.089 Y135.252 E22.43266
G1 X148.891 Y140.135 E22.5952
G1 X148.968 Y145.521 E22.77436
G1 X149.1 Y148.003 E22.85703
G1 X149.108 Y148.298 E22.86684
G1 X149.109 Y151.489 E22.97297
G1 X149.069 Y152.157 E22.99523
G1 X148.95 Y152.815 E23.01747
G1 X148.753 Y153.455 E23.03974
G1 X148.482 Y154.066 E23.06198
G1 X148.139 Y154.641 E23.08424
G1 X147.73 Y155.171 E23.10651
G1 X147.261 Y155.648 E23.12876
G1 X146.739 Y156.066 E23.151
G1 X146.17 Y156.418 E23.17326
G1 X145.564 Y156.7 E23.19549
G1 X144.928 Y156.908 E23.21774
G1 X144.272 Y157.039 E23.23999
G1 X143.512 Y157.091 E23.26533
G1 X124.228 Y157.1 E23.90672
G1 X124.041 Y157.097 E23.91294
G1 X118.714 Y156.922 E24.09021
G1 X116.081 Y156.924 E24.17778
G1 X111.743 Y157.086 E24.32217
G1 X111.531 Y157.09 E24.32922
G1 X91.524 Y157.078 E24.99466
G1 X90.856 Y157.038 E25.01691
G1 X90.198 Y156.918 E25.03916
G1 X89.558 Y156.721 E25.06143
G1 X88.947 Y156.448 E25.08369
G1 X88.373 Y156.105 E25.10593
G1 X87.844 Y155.696 E25.12817
G1 X87.367 Y155.227 E25.15042
G1 X86.949 Y154.704 E25.17269
G1 X86.597 Y154.135 E25.19494
G1 X86.316 Y153.528 E25.21719
G1 X86.108 Y152.892 E25.23944
G1 X85.978 Y152.236 E25.26169
G1 X85.927 Y151.454 E25.28775
G1 X85.942 Y147.951 E25.40426
G1 X85.947 Y147.748 E25.41102
G1 X86.145 Y142.865 E25.57356
G1 X86.068 Y137.48 E25.75268
G1 X85.935 Y134.982 E25.83589
G1 X85.927 Y134.684 E25.8458
G1 X85.928 Y124.299 E26.19121
G1 X85.936 Y123.993 E26.20139
G1 X86.07 Y121.552 E26.2827
G1 X86.145 Y116.198 E26.46079
G1 X85.922 Y110.593 E26.64736
G1 X85.918 Y110.358 E26.65518
G1 X85.942 Y99.962 E27.00095
G1 X85.947 Y99.748 E27.00807
G1 X86.145 Y94.865 E27.17061
G1 X86.068 Y89.48 E27.34974
G1 X85.935 Y86.982 E27.43294
G1 X85.927 Y86.683 E27.44289
G1 X85.928 Y83.507 E27.54852
G1 X85.968 Y82.839 E27.57078
G1 X86.088 Y82.181 E27.59303
G1 X86.285 Y81.542 E27.61527
G1 X86.557 Y80.931 E27.63751
G1 X86.9 Y80.356 E27.65978
G1 X87.309 Y79.827 E27.68202
G1 X87.778 Y79.35 E27.70427
M204 S5000
M205 X30 Y30
G0 F3600 X87.704 Y79.985
M204 S500
M205 X20 Y20
G1 F1800 X88.17 Y79.539 E27.72572
G1 X88.687 Y79.154 E27.74716
G1 X89.248 Y78.836 E27.76861
G1 X89.843 Y78.589 E27.79004
G1 X90.465 Y78.419 E27.81148
G1 X91.103 Y78.326 E27.83293
G1 X91.526 Y78.309 E27.84701
G1 X110.809 Y78.3 E28.48836
G1 X110.922 Y78.301 E28.49212
G1 X119.027 Y78.474 E28.76176
G1 X123.308 Y78.314 E28.90424
G1 X123.502 Y78.31 E28.9107
G1 X143.509 Y78.31 E29.57613
G1 X144.152 Y78.35 E29.59756
G1 X144.786 Y78.469 E29.61902
G1 X145.4 Y78.666 E29.64046
G1 X145.985 Y78.937 E29.66191
G1 X146.532 Y79.279 E29.68336
G1 X147.032 Y79.685 E29.70478
G1 X147.478 Y80.15 E29.72621
G1 X147.863 Y80.667 E29.74765
G1 X148.182 Y81.228 E29.76912
G1 X148.428 Y81.824 E29.79056
G1 X148.599 Y82.445 E29.81199
G1 X148.691 Y83.083 E29.83343
G1 X148.709 Y83.532 E29.84837
G1 X148.694 Y87.047 E29.96528
G1 X148.69 Y87.235 E29.97154
G1 X148.491 Y92.142 E30.13488
G1 X148.568 Y97.523 E30.31387
G1 X148.701 Y100.025 E30.3972
G1 X148.708 Y100.3 E30.40635
G1 X148.708 Y110.698 E30.75219
G1 X148.7 Y110.983 E30.76168
G1 X148.566 Y113.42 E30.84285
G1 X148.491 Y118.813 E31.02224
G1 X148.714 Y124.424 E31.20901
G1 X148.718 Y124.642 E31.21626
G1 X148.694 Y135.037 E31.562
G1 X148.69 Y135.235 E31.56859
G1 X148.491 Y140.142 E31.73193
G1 X148.568 Y145.523 E31.91092
G1 X148.701 Y148.025 E31.99426
G1 X148.708 Y148.298 E32.00334
G1 X148.709 Y151.489 E32.10947
G1 X148.669 Y152.133 E32.13094
G1 X148.55 Y152.766 E32.15236
G1 X148.354 Y153.38 E32.17379
G1 X148.083 Y153.965 E32.19524
G1 X147.741 Y154.512 E32.21669
G1 X147.335 Y155.013 E32.23814
G1 X146.87 Y155.459 E32.25957
G1 X146.353 Y155.844 E32.28101
G1 X145.792 Y156.163 E32.30248
G1 X145.197 Y156.409 E32.32389
G1 X144.575 Y156.581 E32.34536
G1 X143.937 Y156.673 E32.3668
G1 X143.511 Y156.691 E32.38098
G1 X124.227 Y156.7 E33.02237
G1 X124.054 Y156.697 E33.02812
G1 X118.727 Y156.522 E33.20539
G1 X116.066 Y156.524 E33.2939
G1 X111.728 Y156.686 E33.43828
G1 X111.531 Y156.69 E33.44483
G1 X91.524 Y156.678 E34.11027
G1 X90.88 Y156.638 E34.13173
G1 X90.247 Y156.518 E34.15316
G1 X89.633 Y156.321 E34.17461
G1 X89.049 Y156.049 E34.19603
G1 X88.502 Y155.708 E34.21747
G1 X88.002 Y155.301 E34.23892
G1 X87.556 Y154.835 E34.26037
G1 X87.171 Y154.318 E34.28181
G1 X86.853 Y153.757 E34.30326
G1 X86.607 Y153.161 E34.3247
G1 X86.437 Y152.54 E34.34612
G1 X86.344 Y151.902 E34.36756
G1 X86.327 Y151.456 E34.38241
G1 X86.342 Y147.953 E34.49892
G1 X86.346 Y147.765 E34.50517
G1 X86.545 Y142.858 E34.66851
G1 X86.468 Y137.479 E34.84744
G1 X86.334 Y134.961 E34.93131
G1 X86.327 Y134.684 E34.94052
G1 X86.328 Y124.299 E35.28593
G1 X86.336 Y124.015 E35.29538
G1 X86.47 Y121.58 E35.37649
G1 X86.545 Y116.188 E35.55584
G1 X86.322 Y110.577 E35.74261
G1 X86.318 Y110.359 E35.74987
G1 X86.342 Y99.963 E36.09564
G1 X86.346 Y99.765 E36.10223
G1 X86.545 Y94.858 E36.26557
G1 X86.468 Y89.479 E36.44449
G1 X86.334 Y86.961 E36.52836
G1 X86.327 Y86.683 E36.53761
G1 X86.328 Y83.507 E36.64324
G1 X86.368 Y82.864 E36.66467
G1 X86.488 Y82.23 E36.68613
G1 X86.685 Y81.617 E36.70755
G1 X86.956 Y81.032 E36.72899
G1 X87.298 Y80.485 E36.75045
G1 X87.704 Y79.985 E36.77187
M204 S5000
M205 X30 Y30
G1 F2400 E31.77187
;MESH:CableCareer.stl(1)(1)
G0 F3600 X90.853 Y84.114
G0 X92.132 Y84.114
G0 X106.348 Y86.03
G0 X106.418 Y86.1
M204 S500
M205 X20 Y20
;TYPE:WALL-INNER
G1 F2400 E36.77187
G1 F1800 X106.418 Y100.9 E37.26412
G1 X110.918 Y100.9 E37.41379
G1 X110.918 Y102.9 E37.48031
G1 X92.118 Y102.9 E38.1056
G1 X92.118 Y100.9 E38.17212
G1 X96.618 Y100.9 E38.32179
G1 X96.618 Y86.1 E38.81404
G1 X92.118 Y86.1 E38.96371
G1 X92.118 Y84.1 E39.03023
G1 X110.918 Y84.1 E39.65552
G1 X110.918 Y86.1 E39.72204
G1 X106.418 Y86.1 E39.87172
M204 S5000
M205 X30 Y30
G0 F3600 X106.818 Y86.5
M204 S500
M205 X20 Y20
;TYPE:WALL-OUTER
G1 F1800 X106.818 Y100.5 E40.33736
G1 X111.318 Y100.5 E40.48703
G1 X111.318 Y103.3 E40.58016
G1 X91.718 Y103.3 E41.23205
G1 X91.718 Y100.5 E41.32518
G1 X96.218 Y100.5 E41.47485
G1 X96.218 Y86.5 E41.9405
G1 X91.718 Y86.5 E42.09017
G1 X91.718 Y83.7 E42.18329
G1 X111.318 Y83.7 E42.83519
G1 X111.318 Y86.5 E42.92832
G1 X106.818 Y86.5 E43.07799
M204 S5000
M205 X30 Y30
G0 F3600 X106.818 Y86.7
G0 X106.318 Y86.7
G0 X106.028 Y85.71
M204 S500
M205 X20 Y20
;TYPE:SKIN
G1 F1800 X106.028 Y101.29 E43.59619
G1 X110.528 Y101.29 E43.74586
G1 X110.528 Y102.51 E43.78643
G1 X92.508 Y102.51 E44.38578
G1 X92.508 Y101.29 E44.42636
G1 X97.008 Y101.29 E44.57603
G1 X97.008 Y85.71 E45.09422
G1 X92.508 Y85.71 E45.24389
G1 X92.508 Y84.49 E45.28447
G1 X110.528 Y84.49 E45.88382
G1 X110.528 Y85.71 E45.92439
G1 X106.028 Y85.71 E46.07407
M204 S5000
M205 X30 Y30
G0 F3600 X110.347 Y84.891
M204 S500
M205 X20 Y20
G1 F1800 X110.126 Y84.67 E46.08446
M204 S5000
M205 X30 Y30
G0 F3600 X109.56 Y84.67
M204 S500
M205 X20 Y20
G1 F1800 X110.347 Y85.457 E46.12148
M204 S5000
M205 X30 Y30
G0 F3600 X109.854 Y85.53
M204 S500
M205 X20 Y20
G1 F1800 X108.994 Y84.67 E46.16193
M204 S5000
M205 X30 Y30
G0 F3600 X108.429 Y84.67
M204 S500
M205 X20 Y20
G1 F1800 X109.289 Y85.53 E46.20238
M204 S5000
M205 X30 Y30
G0 F3600 X108.723 Y85.53
M204 S500
M205 X20 Y20
G1 F1800 X107.863 Y84.67 E46.24283
M204 S5000
M205 X30 Y30
G0 F3600 X107.297 Y84.67
M204 S500
M205 X20 Y20
G1 F1800 X108.157 Y85.53 E46.28329
M204 S5000
M205 X30 Y30
G0 F3600 X107.591 Y85.53
M204 S500
M205 X20 Y20
G1 F1800 X106.732 Y84.67 E46.32371
M204 S5000
M205 X30 Y30
G0 F3600 X106.166 Y84.67
M204 S500
M205 X20 Y20
G1 F1800 X107.026 Y85.53 E46.36417
M204 S5000
M205 X30 Y30
G0 F3600 X106.46 Y85.53
M204 S500
M205 X20 Y20
G1 F1800 X105.6 Y84.67 E46.40462
M204 S5000
M205 X30 Y30
G0 F3600 X105.035 Y84.67
M204 S500
M205 X20 Y20
G1 F1800 X105.894 Y85.53 E46.44505
M204 S5000
M205 X30 Y30
