;FLAVOR:Marlin
;TIME:3705
;Filament used: 2.02953m
;Layer height: 0.2
;Generated with Cura_SteamEngine 3.6.0
M140 S60
M105
M190 S60
M104 S200
M105
M109 S200
M82 ;absolute extrusion mode
; Ender 3 Custom Start G-code
G28 ; Home all axes
G92 E0 ; Reset Extruder
G1 Z2.0 F3000 ; Move Z Axis up little to prevent scratching of Heat Bed
G1 X0.1 Y20 Z0.3 F5000.0 ; Move to start position
G1 X0.1 Y200.0 Z0.3 F1500.0 E15 ; Draw the first line
G1 X0.4 Y200.0 Z0.3 F5000.0 ; Move to side a little
G1 X0.4 Y20 Z0.3 F1500.0 E30 ; Draw the second line
G92 E0 ; Reset Extruder
G1 Z2.0 F3000 ; Move Z Axis up little to prevent scratching of Heat Bed
; End of custom start GCode
G92 E0
G1 F2400 E-5
;LAYER_COUNT:28
;LAYER:0
M107
M204 S5000
M205 X30 Y30
;MESH:CableCareerCover.stl(1)(1)(1)(1)(1)(1)(1)(1)(1)(1)(1)(1)(1)(1)(1)(1)(1)(1)
G0 F3600 X86.4 Y94.95 Z0.2
M204 S500
M205 X20 Y20
;TYPE:WALL-INNER
G1 F2400 E0
G1 F900 X104.6 Y94.95 E0.60533
G1 X104.6 Y92.052 E0.70172
G1 X104.247 Y92.051 E0.71346
G1 X103.949 Y92.049 E0.72337
G1 X104.248 Y91.75 E0.73052
G1 X104.6 Y91.75 E0.73934
G1 X104.9 Y91.75 E0.74932
G1 X104.9 Y92.052 E0.75936
G1 X104.9 Y94.95 E0.83165
G1 X104.9 Y95.25 E0.84163
G1 X104.6 Y95.25 E0.85161
G1 X86.4 Y95.25 E1.30561
G1 X86.1 Y95.25 E1.31559
G1 X86.1 Y94.95 E1.32556
G1 X86.1 Y92.052 E1.42195
G1 X86.1 Y91.75 E1.432
G1 X86.4 Y91.75 E1.44197
G1 X86.751 Y91.75 E1.45365
G1 X87.049 Y92.049 E1.46769
G1 X86.753 Y92.05 E1.47063
G1 X86.4 Y92.052 E1.47948
G1 X86.4 Y94.95 E1.55177
M204 S5000
M205 X30 Y30
G0 F3600 X86.8 Y94.55
M204 S500
M205 X20 Y20
;TYPE:WALL-OUTER
G1 F900 X104.2 Y94.55 E2.13049
G1 X104.2 Y92.45 E2.20034
G1 X103.443 Y92.446 E2.22552
G1 X103.2 Y92.446 E2.2336
G1 X103.158 Y92.423 E2.23519
G1 X103.134 Y92.388 E2.2366
G1 X103.126 Y92.339 E2.23826
G1 X103.141 Y92.298 E2.23971
G1 X103.183 Y92.249 E2.24185
G1 X103.354 Y92.078 E2.248
G1 X104.082 Y91.35 E2.28225
G1 X105.3 Y91.35 E2.32276
G1 X105.3 Y95.65 E2.46578
G1 X85.7 Y95.65 E3.11768
G1 X85.7 Y91.35 E3.26069
G1 X86.918 Y91.35 E3.3012
G1 X87.658 Y92.095 E3.33613
G1 X87.86 Y92.298 E3.34566
G1 X87.874 Y92.339 E3.3471
G1 X87.866 Y92.389 E3.34878
G1 X87.841 Y92.424 E3.35021
G1 X87.8 Y92.446 E3.35176
G1 X87.513 Y92.447 E3.35865
G1 X86.8 Y92.45 E3.38237
G1 X86.8 Y94.55 E3.45221
M204 S5000
M205 X30 Y30
G0 F3600 X87 Y94.55
G1 F2400 E-1.54779
;MESH:CableCareerCover.stl(1)(1)(1)(1)(1)(1)(1)(1)(1)(1)(1)
G0 F3600 X87 Y95.05
G0 X86.33 Y95.23
G0 X86.33 Y97.77
G0 X86.33 Y101.02
G0 X86.4 Y100.95
M204 S500
M205 X20 Y20
;TYPE:WALL-INNER
G1 F2400 E3.45221
G1 F900 X104.6 Y100.95 E4.05755
G1 X104.6 Y98.052 E4.15394
G1 X104.247 Y98.051 E4.16568
G1 X103.949 Y98.049 E4.17559
G1 X104.248 Y97.75 E4.18273
G1 X104.6 Y97.75 E4.19155
G1 X104.9 Y97.75 E4.20153
G1 X104.9 Y98.052 E4.21157
G1 X104.9 Y100.95 E4.28387
G1 X104.9 Y101.25 E4.29384
G1 X104.6 Y101.25 E4.30382
G1 X86.4 Y101.25 E4.75782
G1 X86.1 Y101.25 E4.7678
G1 X86.1 Y100.95 E4.77778
G1 X86.1 Y98.052 E4.87417
G1 X86.1 Y97.75 E4.88421
G1 X86.4 Y97.75 E4.89419
G1 X86.751 Y97.75 E4.90586
G1 X87.049 Y98.049 E4.9199
G1 X86.753 Y98.05 E4.92285
G1 X86.4 Y98.052 E4.93169
G1 X86.4 Y100.95 E5.00398
M204 S5000
M205 X30 Y30
G0 F3600 X86.8 Y100.55
M204 S500
M205 X20 Y20
;TYPE:WALL-OUTER
G1 F900 X104.2 Y100.55 E5.58271
G1 X104.2 Y98.45 E5.65255
G1 X103.443 Y98.446 E5.67773
G1 X103.2 Y98.446 E5.68581
G1 X103.158 Y98.423 E5.68741
G1 X103.134 Y98.388 E5.68882
G1 X103.126 Y98.339 E5.69047
G1 X103.141 Y98.298 E5.69192
G1 X103.183 Y98.249 E5.69407
G1 X103.354 Y98.078 E5.70022
G1 X104.082 Y97.35 E5.73446
G1 X105.3 Y97.35 E5.77497
G1 X105.3 Y101.65 E5.91799
G1 X85.7 Y101.65 E6.56989
G1 X85.7 Y97.35 E6.71291
G1 X86.918 Y97.35 E6.75342
G1 X87.658 Y98.095 E6.78834
G1 X87.86 Y98.298 E6.79787
G1 X87.874 Y98.339 E6.79931
G1 X87.866 Y98.389 E6.801
G1 X87.841 Y98.424 E6.80243
G1 X87.8 Y98.446 E6.80397
G1 X87.513 Y98.447 E6.81087
G1 X86.8 Y98.45 E6.83458
G1 X86.8 Y100.55 E6.90443
M204 S5000
M205 X30 Y30
G0 F3600 X87 Y100.55
G1 F2400 E1.90443
;MESH:CableCareerCover.stl(1)(1)(1)(1)
G0 F3600 X87 Y101.05
G0 X86.33 Y101.23
G0 X86.33 Y103.77
G0 X86.33 Y107.02
G0 X86.4 Y106.95
M204 S500
M205 X20 Y20
;TYPE:WALL-INNER
G1 F2400 E6.90443
G1 F900 X104.6 Y106.95 E7.50976
G1 X104.6 Y104.052 E7.60615
G1 X104.247 Y104.051 E7.61789
G1 X103.949 Y104.049 E7.6278
G1 X104.248 Y103.75 E7.63495
G1 X104.6 Y103.75 E7.64377
G1 X104.9 Y103.75 E7.65374
G1 X104.9 Y104.052 E7.66379
G1 X104.9 Y106.95 E7.73608
G1 X104.9 Y107.25 E7.74606
G1 X104.6 Y107.25 E7.75604
G1 X86.4 Y107.25 E8.21004
G1 X86.1 Y107.25 E8.22002
G1 X86.1 Y106.95 E8.22999
G1 X86.1 Y104.052 E8.32638
G1 X86.1 Y103.75 E8.33643
G1 X86.4 Y103.75 E8.3464
G1 X86.751 Y103.75 E8.35808
G1 X87.049 Y104.049 E8.37212
G1 X86.753 Y104.05 E8.37506
G1 X86.4 Y104.052 E8.38391
G1 X86.4 Y106.95 E8.4562
M204 S5000
M205 X30 Y30
G0 F3600 X86.8 Y106.55
M204 S500
M205 X20 Y20
;TYPE:WALL-OUTER
G1 F900 X104.2 Y106.55 E9.03492
G1 X104.2 Y104.45 E9.10477
G1 X103.443 Y104.446 E9.12995
G1 X103.2 Y104.446 E9.13803
G1 X103.158 Y104.423 E9.13962
G1 X103.134 Y104.388 E9.14103
G1 X103.126 Y104.339 E9.14269
G1 X103.141 Y104.298 E9.14414
G1 X103.183 Y104.249 E9.14628
G1 X103.354 Y104.078 E9.15243
G1 X104.082 Y103.35 E9.18668
G1 X105.3 Y103.35 E9.22719
G1 X105.3 Y107.65 E9.37021
G1 X85.7 Y107.65 E10.02211
G1 X85.7 Y103.35 E10.16512
G1 X86.918 Y103.35 E10.20563
G1 X87.658 Y104.095 E10.24056
G1 X87.86 Y104.298 E10.25008
G1 X87.874 Y104.339 E10.25153
G1 X87.866 Y104.389 E10.25321
G1 X87.841 Y104.424 E10.25464
G1 X87.8 Y104.446 E10.25619
G1 X87.513 Y104.447 E10.26308
G1 X86.8 Y104.45 E10.2868
G1 X86.8 Y106.55 E10.35664
M204 S5000
M205 X30 Y30
G0 F3600 X87 Y106.55
G1 F2400 E5.35664
;MESH:CableCareerCover.stl(1)(1)(1)(1)(1)(1)(1)(1)(1)(1)(1)(1)(1)(1)(1)
G0 F3600 X87 Y107.05
G0 X86.33 Y107.23
G0 X86.33 Y109.77
G0 X86.33 Y113.02
G0 X86.4 Y112.95
M204 S500
M205 X20 Y20
;TYPE:WALL-INNER
G1 F2400 E10.35664
G1 F900 X104.6 Y112.95 E10.96198
G1 X104.6 Y110.052 E11.05837
G1 X104.247 Y110.051 E11.07011
G1 X103.949 Y110.049 E11.08002
G1 X104.248 Y109.75 E11.08716
G1 X104.6 Y109.75 E11.09598
G1 X104.9 Y109.75 E11.10596
G1 X104.9 Y110.052 E11.116
G1 X104.9 Y112.95 E11.1883
G1 X104.9 Y113.25 E11.19827
G1 X104.6 Y113.25 E11.20825
G1 X86.4 Y113.25 E11.66225
G1 X86.1 Y113.25 E11.67223
G1 X86.1 Y112.95 E11.68221
G1 X86.1 Y110.052 E11.7786
G1 X86.1 Y109.75 E11.78864
G1 X86.4 Y109.75 E11.79862
G1 X86.751 Y109.75 E11.81029
G1 X87.049 Y110.049 E11.82433
G1 X86.753 Y110.05 E11.82728
G1 X86.4 Y110.052 E11.83612
G1 X86.4 Y112.95 E11.90841
M204 S5000
M205 X30 Y30
G0 F3600 X86.8 Y112.55
M204 S500
M205 X20 Y20
;TYPE:WALL-OUTER
G1 F900 X104.2 Y112.55 E12.48714
G1 X104.2 Y110.45 E12.55698
G1 X103.443 Y110.446 E12.58216
G1 X103.2 Y110.446 E12.59024
G1 X103.158 Y110.423 E12.59184
G1 X103.134 Y110.388 E12.59325
G1 X103.126 Y110.339 E12.5949
G1 X103.141 Y110.298 E12.59635
G1 X103.183 Y110.249 E12.5985
G1 X103.354 Y110.078 E12.60465
G1 X104.082 Y109.35 E12.63889
G1 X105.3 Y109.35 E12.6794
G1 X105.3 Y113.65 E12.82242
G1 X85.7 Y113.65 E13.47432
G1 X85.7 Y109.35 E13.61734
G1 X86.918 Y109.35 E13.65785
G1 X87.658 Y110.095 E13.69277
G1 X87.86 Y110.298 E13.7023
G1 X87.874 Y110.339 E13.70374
G1 X87.866 Y110.389 E13.70542
G1 X87.841 Y110.424 E13.70686
G1 X87.8 Y110.446 E13.7084
G1 X87.513 Y110.447 E13.7153
G1 X86.8 Y110.45 E13.73901
G1 X86.8 Y112.55 E13.80886
M204 S5000
M205 X30 Y30
G0 F3600 X87 Y112.55
G1 F2400 E8.80886
;MESH:CableCareerCover.stl(1)(1)(1)(1)(1)(1)(1)(1)
G0 F3600 X87 Y113.05
G0 X86.33 Y113.23
G0 X86.33 Y115.77
G0 X86.33 Y119.02
G0 X86.4 Y118.95
M204 S500
M205 X20 Y20
;TYPE:WALL-INNER
G1 F2400 E13.80886
G1 F900 X104.6 Y118.95 E14.41419
G1 X104.6 Y116.052 E14.51058
G1 X104.247 Y116.051 E14.52232
G1 X103.949 Y116.049 E14.53223
G1 X104.248 Y115.75 E14.53938
G1 X104.6 Y115.75 E14.5482
G1 X104.9 Y115.75 E14.55817
G1 X104.9 Y116.052 E14.56822
G1 X104.9 Y118.95 E14.64051
G1 X104.9 Y119.25 E14.65049
G1 X104.6 Y119.25 E14.66047
G1 X86.4 Y119.25 E15.11447
G1 X86.1 Y119.25 E15.12445
G1 X86.1 Y118.95 E15.13442
G1 X86.1 Y116.052 E15.23081
G1 X86.1 Y115.75 E15.24086
G1 X86.4 Y115.75 E15.25083
G1 X86.751 Y115.75 E15.26251
G1 X87.049 Y116.049 E15.27655
G1 X86.753 Y116.05 E15.27949
G1 X86.4 Y116.052 E15.28834
G1 X86.4 Y118.95 E15.36063
M204 S5000
M205 X30 Y30
G0 F3600 X86.8 Y118.55
M204 S500
M205 X20 Y20
;TYPE:WALL-OUTER
G1 F900 X104.2 Y118.55 E15.93935
G1 X104.2 Y116.45 E16.0092
G1 X103.443 Y116.446 E16.03438
G1 X103.2 Y116.446 E16.04246
G1 X103.158 Y116.423 E16.04405
G1 X103.134 Y116.388 E16.04546
G1 X103.126 Y116.339 E16.04711
G1 X103.141 Y116.298 E16.04857
G1 X103.183 Y116.249 E16.05071
G1 X103.354 Y116.078 E16.05686
G1 X104.082 Y115.35 E16.09111
G1 X105.3 Y115.35 E16.13162
G1 X105.3 Y119.65 E16.27464
G1 X85.7 Y119.65 E16.92653
G1 X85.7 Y115.35 E17.06955
G1 X86.918 Y115.35 E17.11006
G1 X87.658 Y116.095 E17.14499
G1 X87.86 Y116.298 E17.15451
G1 X87.874 Y116.339 E17.15596
G1 X87.866 Y116.389 E17.15764
G1 X87.841 Y116.424 E17.15907
G1 X87.8 Y116.446 E17.16062
G1 X87.513 Y116.447 E17.16751
G1 X86.8 Y116.45 E17.19123
G1 X86.8 Y118.55 E17.26107
M204 S5000
M205 X30 Y30
G0 F3600 X87 Y118.55
G1 F2400 E12.26107
;MESH:CableCareerCover.stl(1)
G0 F3600 X87 Y119.05
G0 X86.33 Y119.23
G0 X86.33 Y121.77
G0 X86.33 Y125.02
G0 X86.4 Y124.95
M204 S500
M205 X20 Y20
;TYPE:WALL-INNER
G1 F2400 E17.26107
G1 F900 X104.6 Y124.95 E17.86641
G1 X104.6 Y122.052 E17.9628
G1 X104.247 Y122.051 E17.97454
G1 X103.949 Y122.049 E17.98445
G1 X104.248 Y121.75 E17.99159
G1 X104.6 Y121.75 E18.00041
G1 X104.9 Y121.75 E18.01039
G1 X104.9 Y122.052 E18.02043
G1 X104.9 Y124.95 E18.09273
G1 X104.9 Y125.25 E18.1027
G1 X104.6 Y125.25 E18.11268
G1 X86.4 Y125.25 E18.56668
G1 X86.1 Y125.25 E18.57666
G1 X86.1 Y124.95 E18.58664
G1 X86.1 Y122.052 E18.68303
G1 X86.1 Y121.75 E18.69307
G1 X86.4 Y121.75 E18.70305
G1 X86.751 Y121.75 E18.71472
G1 X87.049 Y122.049 E18.72876
G1 X86.753 Y122.05 E18.73171
G1 X86.4 Y122.052 E18.74055
G1 X86.4 Y124.95 E18.81284
M204 S5000
M205 X30 Y30
G0 F3600 X86.8 Y124.55
M204 S500
M205 X20 Y20
;TYPE:WALL-OUTER
G1 F900 X104.2 Y124.55 E19.39157
G1 X104.2 Y122.45 E19.46141
G1 X103.443 Y122.446 E19.48659
G1 X103.2 Y122.446 E19.49467
G1 X103.158 Y122.423 E19.49627
G1 X103.134 Y122.388 E19.49768
G1 X103.126 Y122.339 E19.49933
G1 X103.141 Y122.298 E19.50078
G1 X103.183 Y122.249 E19.50293
G1 X103.354 Y122.078 E19.50908
G1 X104.082 Y121.35 E19.54332
G1 X105.3 Y121.35 E19.58383
G1 X105.3 Y125.65 E19.72685
G1 X85.7 Y125.65 E20.37875
G1 X85.7 Y121.35 E20.52177
G1 X86.918 Y121.35 E20.56228
G1 X87.658 Y122.095 E20.5972
G1 X87.86 Y122.298 E20.60673
G1 X87.874 Y122.339 E20.60817
G1 X87.866 Y122.389 E20.60985
G1 X87.841 Y122.424 E20.61129
G1 X87.8 Y122.446 E20.61283
G1 X87.513 Y122.447 E20.61973
G1 X86.8 Y122.45 E20.64344
G1 X86.8 Y124.55 E20.71329
M204 S5000
M205 X30 Y30
G0 F3600 X87 Y124.55
G1 F2400 E15.71329
;MESH:CableCareerCover.stl(1)(1)(1)(1)(1)(1)(1)(1)
G0 F3600 X87 Y125.05
G0 X86.33 Y125.23
G0 X86.33 Y127.77
G0 X86.33 Y131.02
G0 X86.4 Y130.95
M204 S500
M205 X20 Y20
;TYPE:WALL-INNER
G1 F2400 E20.71329
G1 F900 X104.6 Y130.95 E21.31862
G1 X104.6 Y128.052 E21.41501
G1 X104.247 Y128.051 E21.42675
G1 X103.949 Y128.049 E21.43666
G1 X104.248 Y127.75 E21.44381
G1 X104.6 Y127.75 E21.45263
G1 X104.9 Y127.75 E21.4626
G1 X104.9 Y128.052 E21.47265
G1 X104.9 Y130.95 E21.54494
G1 X104.9 Y131.25 E21.55492
G1 X104.6 Y131.25 E21.5649
G1 X86.4 Y131.25 E22.0189
G1 X86.1 Y131.25 E22.02887
G1 X86.1 Y130.95 E22.03885
G1 X86.1 Y128.052 E22.13524
G1 X86.1 Y127.75 E22.14529
G1 X86.4 Y127.75 E22.15526
G1 X86.751 Y127.75 E22.16694
G1 X87.049 Y128.049 E22.18098
G1 X86.753 Y128.05 E22.18392
G1 X86.4 Y128.052 E22.19277
G1 X86.4 Y130.95 E22.26506
M204 S5000
M205 X30 Y30
G0 F3600 X86.8 Y130.55
M204 S500
M205 X20 Y20
;TYPE:WALL-OUTER
G1 F900 X104.2 Y130.55 E22.84378
G1 X104.2 Y128.45 E22.91363
G1 X103.443 Y128.446 E22.93881
G1 X103.2 Y128.446 E22.94689
G1 X103.158 Y128.423 E22.94848
G1 X103.134 Y128.388 E22.94989
G1 X103.126 Y128.339 E22.95154
G1 X103.141 Y128.298 E22.953
G1 X103.183 Y128.249 E22.95514
G1 X103.354 Y128.078 E22.96129
G1 X104.082 Y127.35 E22.99554
G1 X105.3 Y127.35 E23.03605
G1 X105.3 Y131.65 E23.17907
G1 X85.7 Y131.65 E23.83096
G1 X85.7 Y127.35 E23.97398
G1 X86.918 Y127.35 E24.01449
G1 X87.658 Y128.095 E24.04942
G1 X87.86 Y128.298 E24.05894
G1 X87.874 Y128.339 E24.06039
G1 X87.866 Y128.389 E24.06207
G1 X87.841 Y128.424 E24.0635
G1 X87.8 Y128.446 E24.06505
G1 X87.513 Y128.447 E24.07194
G1 X86.8 Y128.45 E24.09566
G1 X86.8 Y130.55 E24.1655
M204 S5000
M205 X30 Y30
G0 F3600 X87 Y130.55
G1 F2400 E19.1655
;MESH:CableCareerCover.stl(1)(1)(1)(1)(1)(1)(1)(1)(1)(1)(1)(1)(1)(1)(1)(1)(1)
G0 F3600 X87 Y131.05
G0 X104.62 Y130.97
G0 X106.165 Y130.97
G0 X106.835 Y130.97
G0 X108.12 Y130.97
G0 X108.33 Y131.02
G0 X108.4 Y130.95
M204 S500
M205 X20 Y20
;TYPE:WALL-INNER
G1 F2400 E24.1655
G1 F900 X126.6 Y130.95 E24.77084
G1 X126.6 Y128.052 E24.86723
G1 X126.247 Y128.051 E24.87897
G1 X125.949 Y128.049 E24.88888
G1 X126.248 Y127.75 E24.89602
G1 X126.6 Y127.75 E24.90484
G1 X126.9 Y127.75 E24.91482
G1 X126.9 Y128.052 E24.92486
G1 X126.9 Y130.95 E24.99715
G1 X126.9 Y131.25 E25.00713
G1 X126.6 Y131.25 E25.01711
G1 X108.4 Y131.25 E25.47111
G1 X108.1 Y131.25 E25.48109
G1 X108.1 Y130.95 E25.49107
G1 X108.1 Y128.052 E25.58746
G1 X108.1 Y127.75 E25.5975
G1 X108.4 Y127.75 E25.60748
G1 X108.751 Y127.75 E25.61915
G1 X109.049 Y128.049 E25.63319
G1 X108.753 Y128.05 E25.63614
G1 X108.4 Y128.052 E25.64498
G1 X108.4 Y130.95 E25.71727
M204 S5000
M205 X30 Y30
G0 F3600 X108.8 Y130.55
M204 S500
M205 X20 Y20
;TYPE:WALL-OUTER
G1 F900 X126.2 Y130.55 E26.296
G1 X126.2 Y128.45 E26.36584
G1 X125.443 Y128.446 E26.39102
G1 X125.2 Y128.446 E26.3991
G1 X125.158 Y128.423 E26.4007
G1 X125.134 Y128.388 E26.40211
G1 X125.126 Y128.339 E26.40376
G1 X125.141 Y128.298 E26.40521
G1 X125.183 Y128.249 E26.40736
G1 X125.354 Y128.078 E26.41351
G1 X126.082 Y127.35 E26.44775
G1 X127.3 Y127.35 E26.48826
G1 X127.3 Y131.65 E26.63128
G1 X107.7 Y131.65 E27.28318
G1 X107.7 Y127.35 E27.4262
G1 X108.918 Y127.35 E27.46671
G1 X109.658 Y128.095 E27.50163
G1 X109.86 Y128.298 E27.51116
G1 X109.874 Y128.339 E27.5126
G1 X109.866 Y128.389 E27.51428
G1 X109.841 Y128.424 E27.51571
G1 X109.8 Y128.446 E27.51726
G1 X109.513 Y128.447 E27.52416
G1 X108.8 Y128.45 E27.54787
G1 X108.8 Y130.55 E27.61772
M204 S5000
M205 X30 Y30
G0 F3600 X109 Y130.55
G1 F2400 E22.61772
;MESH:CableCareerCover.stl(1)(1)(1)(1)(1)(1)(1)(1)(1)(1)(1)(1)(1)(1)(1)(1)
G0 F3600 X109 Y131.05
G0 X108.372 Y130.978
G0 X108.33 Y127.77
G0 X108.33 Y125.23
G0 X108.33 Y125.02
G0 X108.4 Y124.95
M204 S500
M205 X20 Y20
;TYPE:WALL-INNER
G1 F2400 E27.61772
G1 F900 X126.6 Y124.95 E28.22305
G1 X126.6 Y122.052 E28.31944
G1 X126.247 Y122.051 E28.33118
G1 X125.949 Y122.049 E28.34109
G1 X126.248 Y121.75 E28.34824
G1 X126.6 Y121.75 E28.35706
G1 X126.9 Y121.75 E28.36703
G1 X126.9 Y122.052 E28.37708
G1 X126.9 Y124.95 E28.44937
G1 X126.9 Y125.25 E28.45935
G1 X126.6 Y125.25 E28.46933
G1 X108.4 Y125.25 E28.92333
G1 X108.1 Y125.25 E28.9333
G1 X108.1 Y124.95 E28.94328
G1 X108.1 Y122.052 E29.03967
G1 X108.1 Y121.75 E29.04972
G1 X108.4 Y121.75 E29.05969
G1 X108.751 Y121.75 E29.07137
G1 X109.049 Y122.049 E29.08541
G1 X108.753 Y122.05 E29.08835
G1 X108.4 Y122.052 E29.09719
G1 X108.4 Y124.95 E29.16949
M204 S5000
M205 X30 Y30
G0 F3600 X108.8 Y124.55
M204 S500
M205 X20 Y20
;TYPE:WALL-OUTER
G1 F900 X126.2 Y124.55 E29.74821
G1 X126.2 Y122.45 E29.81806
G1 X125.443 Y122.446 E29.84324
G1 X125.2 Y122.446 E29.85132
G1 X125.158 Y122.423 E29.85291
G1 X125.134 Y122.388 E29.85432
G1 X125.126 Y122.339 E29.85597
G1 X125.141 Y122.298 E29.85743
G1 X125.183 Y122.249 E29.85957
G1 X125.354 Y122.078 E29.86572
G1 X126.082 Y121.35 E29.89997
G1 X127.3 Y121.35 E29.94048
G1 X127.3 Y125.65 E30.0835
G1 X107.7 Y125.65 E30.73539
G1 X107.7 Y121.35 E30.87841
G1 X108.918 Y121.35 E30.91892
G1 X109.658 Y122.095 E30.95385
G1 X109.86 Y122.298 E30.96337
G1 X109.874 Y122.339 E30.96481
G1 X109.866 Y122.389 E30.9665
G1 X109.841 Y122.424 E30.96793
G1 X109.8 Y122.446 E30.96948
G1 X109.513 Y122.447 E30.97637
G1 X108.8 Y122.45 E31.00009
G1 X108.8 Y124.55 E31.06993
