;FLAVOR:Marlin
;TIME:2055
;Filament used: 1.84081m
;Layer height: 0.2
;Generated with Cura_SteamEngine 3.6.0
M140 S60
M105
M190 S60
M104 S200
M105
M109 S200
M82 ;absolute extrusion mode
; Ender 3 Custom Start G-code
G28 ; Home all axes
G92 E0 ; Reset Extruder
G1 Z2.0 F3000 ; Move Z Axis up little to prevent scratching of Heat Bed
G1 X0.1 Y20 Z0.3 F5000.0 ; Move to start position
G1 X0.1 Y200.0 Z0.3 F1500.0 E15 ; Draw the first line
G1 X0.4 Y200.0 Z0.3 F5000.0 ; Move to side a little
G1 X0.4 Y20 Z0.3 F1500.0 E30 ; Draw the second line
G92 E0 ; Reset Extruder
G1 Z2.0 F3000 ; Move Z Axis up little to prevent scratching of Heat Bed
; End of custom start GCode
G92 E0
G1 F2400 E-5
;LAYER_COUNT:63
;LAYER:0
M107
M204 S5000
M205 X30 Y30
G0 F3600 X84.444 Y85.885 Z0.2
M204 S500
M205 X20 Y20
;TYPE:SKIRT
G1 F2400 E0
G1 F1800 X84.93 Y85.414 E0.02251
G1 X85.471 Y84.946 E0.0463
G1 X86.06 Y84.541 E0.07008
G1 X86.691 Y84.204 E0.09387
G1 X87.356 Y83.94 E0.11767
G1 X88.046 Y83.751 E0.14146
G1 X88.753 Y83.641 E0.16526
G1 X89.385 Y83.61 E0.1863
G1 X125.62 Y83.613 E1.39149
G1 X126.334 Y83.653 E1.41527
G1 X127.039 Y83.772 E1.43905
G1 X127.726 Y83.97 E1.46283
G1 X128.388 Y84.243 E1.48665
G1 X129.014 Y84.588 E1.51042
G1 X129.795 Y85.163 E1.54268
G1 X132.595 Y87.574 E1.66557
G1 X137.425 Y91.336 E1.8692
G1 X137.964 Y91.806 E1.89299
G1 X138.447 Y92.334 E1.91679
G1 X138.868 Y92.912 E1.94057
G1 X139.222 Y93.534 E1.96437
G1 X139.504 Y94.191 E1.98815
G1 X139.685 Y94.769 E2.0083
G1 X141.058 Y100.032 E2.1892
G1 X142.684 Y105.079 E2.36556
G1 X144.589 Y110.014 E2.54151
G1 X146.769 Y114.833 E2.71743
G1 X149.25 Y119.583 E2.89566
G1 X150.532 Y121.804 E2.98096
G1 X150.855 Y122.442 E3.00474
G1 X151.104 Y123.113 E3.02855
G1 X151.277 Y123.807 E3.05234
G1 X151.371 Y124.516 E3.07612
G1 X151.386 Y125.225 E3.09971
G1 X151.286 Y128.124 E3.19619
G1 X151.278 Y128.288 E3.20165
G1 X151.139 Y130.598 E3.27862
G1 X151.039 Y135.961 E3.45702
G1 X151.245 Y141.398 E3.63799
G1 X151.384 Y144.724 E3.74871
G1 X151.374 Y145.439 E3.77249
G1 X151.284 Y146.149 E3.7963
G1 X151.116 Y146.844 E3.82008
G1 X150.871 Y147.516 E3.84387
G1 X150.553 Y148.156 E3.86764
G1 X150.165 Y148.757 E3.89143
G1 X149.712 Y149.311 E3.91523
G1 X149.201 Y149.811 E3.93901
G1 X148.636 Y150.251 E3.96283
G1 X148.027 Y150.625 E3.9866
G1 X147.379 Y150.928 E4.01039
G1 X146.702 Y151.158 E4.03417
G1 X146.003 Y151.31 E4.05797
G1 X144.989 Y151.391 E4.0918
G1 X129.997 Y151.388 E4.59043
G1 X129.283 Y151.348 E4.61422
G1 X128.577 Y151.228 E4.63804
G1 X127.89 Y151.031 E4.66181
G1 X127.336 Y150.808 E4.68167
G1 X123.641 Y149.117 E4.81683
G1 X121.258 Y148.12 E4.90274
G1 X116.225 Y146.262 E5.08118
G1 X111.166 Y144.714 E5.25715
G1 X105.957 Y143.435 E5.43554
G1 X103.467 Y142.937 E5.52
G1 X98.202 Y142.112 E5.69725
G1 X92.882 Y141.582 E5.87507
G1 X89.048 Y141.381 E6.00277
G1 X88.337 Y141.304 E6.02655
G1 X87.639 Y141.148 E6.05034
G1 X86.963 Y140.914 E6.07414
G1 X86.317 Y140.607 E6.09792
G1 X85.709 Y140.23 E6.12172
G1 X85.148 Y139.787 E6.14549
G1 X84.867 Y139.524 E6.15829
G1 X80.964 Y135.636 E6.34153
G1 X80.89 Y135.561 E6.34503
G1 X80.419 Y135.076 E6.36752
G1 X79.95 Y134.536 E6.39131
G1 X79.544 Y133.946 E6.41513
G1 X79.207 Y133.316 E6.43889
G1 X78.942 Y132.651 E6.4627
G1 X78.753 Y131.962 E6.48646
G1 X78.642 Y131.255 E6.51027
G1 X78.61 Y130.622 E6.53135
G1 X78.6 Y117.712 E6.96074
G1 X78.603 Y117.497 E6.96789
G1 X78.778 Y112.171 E7.14513
G1 X78.776 Y109.592 E7.2309
G1 X78.614 Y105.255 E7.37525
G1 X78.61 Y105.016 E7.3832
G1 X78.61 Y94.384 E7.73683
G1 X78.65 Y93.67 E7.76061
G1 X78.769 Y92.965 E7.78439
G1 X78.967 Y92.277 E7.8082
G1 X79.24 Y91.616 E7.83199
G1 X79.584 Y90.989 E7.85578
G1 X79.997 Y90.405 E7.87957
G1 X80.476 Y89.867 E7.90352
G1 X84.364 Y85.964 E8.08676
G1 X84.444 Y85.885 E8.0905
M204 S5000
M205 X30 Y30
G0 F3600 X84.722 Y86.172
M204 S500
M205 X20 Y20
G1 F1800 X85.208 Y85.701 E8.11301
G1 X85.733 Y85.249 E8.13605
G1 X86.306 Y84.86 E8.15908
G1 X86.92 Y84.539 E8.18213
G1 X87.566 Y84.292 E8.20513
G1 X88.237 Y84.121 E8.22816
G1 X88.924 Y84.028 E8.25122
G1 X89.384 Y84.01 E8.26653
G1 X125.619 Y84.013 E9.47171
G1 X126.311 Y84.053 E9.49477
G1 X126.993 Y84.172 E9.51779
G1 X127.657 Y84.37 E9.54084
G1 X128.294 Y84.642 E9.56387
G1 X128.895 Y84.986 E9.58691
G1 X129.534 Y85.466 E9.61349
G1 X132.351 Y87.891 E9.73712
G1 X137.179 Y91.652 E9.94067
G1 X137.7 Y92.108 E9.9637
G1 X138.165 Y92.621 E9.98673
G1 X138.567 Y93.185 E10.00976
G1 X138.902 Y93.791 E10.03279
G1 X139.165 Y94.432 E10.05584
G1 X139.298 Y94.87 E10.07106
G1 X140.676 Y100.15 E10.25256
G1 X142.304 Y105.203 E10.42913
G1 X144.224 Y110.181 E10.60659
G1 X146.41 Y115.012 E10.78295
G1 X148.886 Y119.752 E10.96082
G1 X150.186 Y122.004 E11.0473
G1 X150.497 Y122.623 E11.07034
G1 X150.735 Y123.273 E11.09337
G1 X150.896 Y123.947 E11.11641
G1 X150.979 Y124.634 E11.13943
G1 X150.986 Y125.211 E11.15862
G1 X150.886 Y128.11 E11.2551
G1 X150.879 Y128.264 E11.26023
G1 X150.739 Y130.591 E11.33776
G1 X150.639 Y135.95 E11.51604
G1 X150.846 Y141.414 E11.6979
G1 X150.985 Y144.74 E11.80862
G1 X150.974 Y145.433 E11.83167
G1 X150.883 Y146.119 E11.85469
G1 X150.714 Y146.791 E11.87773
G1 X150.468 Y147.439 E11.90079
G1 X150.15 Y148.053 E11.92379
G1 X149.762 Y148.628 E11.94686
G1 X149.311 Y149.153 E11.96988
G1 X148.803 Y149.624 E11.99292
G1 X148.244 Y150.032 E12.01594
G1 X147.641 Y150.373 E12.03898
G1 X147.003 Y150.643 E12.06202
G1 X146.339 Y150.837 E12.08503
G1 X145.656 Y150.954 E12.10807
G1 X144.989 Y150.991 E12.13029
G1 X129.997 Y150.988 E12.62893
G1 X129.305 Y150.948 E12.65198
G1 X128.623 Y150.828 E12.67502
G1 X127.959 Y150.631 E12.69805
G1 X127.502 Y150.444 E12.71447
G1 X123.797 Y148.749 E12.84999
G1 X121.411 Y147.75 E12.93602
G1 X116.344 Y145.879 E13.11567
G1 X111.273 Y144.327 E13.29206
G1 X106.035 Y143.042 E13.47144
G1 X103.561 Y142.547 E13.55536
G1 X98.25 Y141.714 E13.73416
G1 X92.922 Y141.184 E13.91224
G1 X89.069 Y140.982 E14.04057
G1 X88.381 Y140.906 E14.06359
G1 X87.706 Y140.751 E14.08663
G1 X87.053 Y140.519 E14.10968
G1 X86.432 Y140.213 E14.1327
G1 X85.85 Y139.838 E14.15573
G1 X85.15 Y139.241 E14.18633
G1 X81.247 Y135.353 E14.36956
G1 X81.177 Y135.282 E14.37288
G1 X80.706 Y134.797 E14.39537
G1 X80.253 Y134.273 E14.4184
G1 X79.863 Y133.701 E14.44143
G1 X79.542 Y133.087 E14.46447
G1 X79.294 Y132.441 E14.48749
G1 X79.122 Y131.77 E14.51053
G1 X79.028 Y131.084 E14.53356
G1 X79.01 Y130.622 E14.54894
G1 X79 Y117.712 E14.97832
G1 X79.003 Y117.51 E14.98504
G1 X79.178 Y112.184 E15.16228
G1 X79.176 Y109.577 E15.24899
G1 X79.014 Y105.24 E15.39334
G1 X79.01 Y105.016 E15.40079
G1 X79.01 Y94.384 E15.75441
G1 X79.05 Y93.693 E15.77744
G1 X79.169 Y93.01 E15.8005
G1 X79.367 Y92.347 E15.82351
G1 X79.639 Y91.71 E15.84655
G1 X79.983 Y91.109 E15.86958
G1 X80.394 Y90.551 E15.89263
G1 X80.759 Y90.15 E15.91066
G1 X84.647 Y86.247 E16.0939
G1 X84.722 Y86.172 E16.09742
M204 S5000
M205 X30 Y30
G0 F3600 X85.001 Y86.46
M204 S500
M205 X20 Y20
G1 F1800 X85.487 Y85.989 E16.11993
G1 X85.994 Y85.553 E16.14217
G1 X86.55 Y85.18 E16.16444
G1 X87.146 Y84.877 E16.18668
G1 X87.774 Y84.646 E16.20894
G1 X88.425 Y84.493 E16.23118
G1 X89.384 Y84.41 E16.26319
G1 X125.619 Y84.413 E17.46838
G1 X126.287 Y84.453 E17.49063
G1 X126.946 Y84.572 E17.51291
G1 X127.585 Y84.769 E17.53515
G1 X128.196 Y85.041 E17.55739
G1 X128.771 Y85.384 E17.57966
G1 X129.273 Y85.769 E17.6007
G1 X132.093 Y88.197 E17.72447
G1 X136.933 Y91.967 E17.92852
G1 X137.436 Y92.409 E17.95079
G1 X137.882 Y92.908 E17.97305
G1 X138.265 Y93.456 E17.99529
G1 X138.58 Y94.046 E18.01753
G1 X138.911 Y94.971 E18.05021
G1 X140.292 Y100.264 E18.23215
G1 X141.925 Y105.333 E18.40928
G1 X143.854 Y110.332 E18.5875
G1 X146.049 Y115.183 E18.76459
G1 X148.538 Y119.949 E18.94342
G1 X149.84 Y122.204 E19.03003
G1 X150.139 Y122.802 E19.05226
G1 X150.365 Y123.432 E19.07453
G1 X150.514 Y124.084 E19.09677
G1 X150.584 Y124.75 E19.11904
G1 X150.587 Y125.197 E19.13391
G1 X150.487 Y128.096 E19.23039
G1 X150.48 Y128.24 E19.23519
G1 X150.339 Y130.583 E19.31325
G1 X150.239 Y135.958 E19.49206
G1 X150.446 Y141.431 E19.67422
G1 X150.585 Y144.757 E19.78494
G1 X150.573 Y145.426 E19.8072
G1 X150.481 Y146.089 E19.82946
G1 X150.311 Y146.736 E19.85171
G1 X150.065 Y147.358 E19.87396
G1 X149.747 Y147.946 E19.89619
G1 X149.36 Y148.493 E19.91848
G1 X148.912 Y148.989 E19.94071
G1 X148.407 Y149.428 E19.96296
G1 X147.853 Y149.804 E19.98523
G1 X147.259 Y150.111 E20.00747
G1 X146.632 Y150.345 E20.02973
G1 X145.982 Y150.502 E20.05197
G1 X144.989 Y150.591 E20.08513
G1 X129.997 Y150.588 E20.58377
G1 X129.329 Y150.548 E20.60602
G1 X128.671 Y150.428 E20.62827
G1 X128.031 Y150.231 E20.65054
G1 X127.668 Y150.08 E20.66362
G1 X123.963 Y148.385 E20.79913
G1 X121.543 Y147.372 E20.88639
G1 X116.488 Y145.506 E21.06561
G1 X111.38 Y143.942 E21.24328
G1 X106.117 Y142.651 E21.42352
G1 X103.605 Y142.148 E21.50873
G1 X98.298 Y141.316 E21.6874
G1 X92.962 Y140.785 E21.86575
G1 X89.09 Y140.582 E21.99471
G1 X88.425 Y140.507 E22.01697
G1 X87.774 Y140.354 E22.03921
G1 X87.146 Y140.123 E22.06147
G1 X86.55 Y139.82 E22.0837
G1 X85.994 Y139.447 E22.10597
G1 X85.432 Y138.957 E22.13077
G1 X81.529 Y135.069 E22.314
G1 X81.464 Y135.003 E22.31709
G1 X80.993 Y134.518 E22.33957
G1 X80.556 Y134.011 E22.36183
G1 X80.183 Y133.456 E22.38407
G1 X79.879 Y132.86 E22.40633
G1 X79.648 Y132.232 E22.42858
G1 X79.494 Y131.581 E22.45083
G1 X79.41 Y130.621 E22.48288
G1 X79.4 Y117.711 E22.91227
G1 X79.403 Y117.523 E22.91853
G1 X79.578 Y112.196 E23.0958
G1 X79.576 Y109.562 E23.18341
G1 X79.414 Y105.225 E23.32776
G1 X79.41 Y105.016 E23.33471
G1 X79.41 Y94.384 E23.68833
G1 X79.45 Y93.716 E23.71059
G1 X79.569 Y93.058 E23.73283
G1 X79.766 Y92.418 E23.7551
G1 X80.038 Y91.807 E23.77734
G1 X80.381 Y91.233 E23.79959
G1 X80.79 Y90.703 E23.82185
G1 X81.043 Y90.432 E23.83418
G1 X84.931 Y86.529 E24.01742
G1 X85.001 Y86.46 E24.02068
M204 S5000
M205 X30 Y30
G0 F3600 X85.279 Y86.747
M204 S500
M205 X20 Y20
G1 F1800 X85.765 Y86.276 E24.04319
G1 X86.255 Y85.857 E24.06464
G1 X86.793 Y85.502 E24.08608
G1 X87.371 Y85.216 E24.10753
G1 X87.979 Y85.003 E24.12895
G1 X88.61 Y84.868 E24.15041
G1 X89.384 Y84.81 E24.17623
G1 X125.619 Y84.813 E25.38141
G1 X126.263 Y84.853 E25.40287
G1 X126.896 Y84.972 E25.42429
G1 X127.51 Y85.169 E25.44574
G1 X128.095 Y85.44 E25.46718
G1 X128.642 Y85.782 E25.48864
G1 X129.012 Y86.072 E25.50428
G1 X131.839 Y88.506 E25.62835
G1 X136.688 Y92.283 E25.83278
G1 X137.171 Y92.71 E25.85423
G1 X137.597 Y93.193 E25.87565
G1 X137.96 Y93.726 E25.89709
G1 X138.255 Y94.299 E25.91853
G1 X138.524 Y95.072 E25.94575
G1 X139.91 Y100.383 E26.12831
G1 X141.55 Y105.473 E26.30618
G1 X143.475 Y110.462 E26.48404
G1 X145.698 Y115.375 E26.66339
G1 X148.19 Y120.146 E26.84242
G1 X149.493 Y122.404 E26.92913
G1 X149.78 Y122.981 E26.95056
G1 X149.994 Y123.589 E26.972
G1 X150.13 Y124.219 E26.99344
G1 X150.187 Y125.183 E27.02555
G1 X150.087 Y128.082 E27.12203
G1 X150.081 Y128.216 E27.12649
G1 X149.939 Y130.575 E27.2051
G1 X149.839 Y135.966 E27.38443
G1 X150.046 Y141.448 E27.5669
G1 X150.185 Y144.774 E27.67762
G1 X150.172 Y145.418 E27.69904
G1 X150.08 Y146.056 E27.72048
G1 X149.909 Y146.678 E27.74193
G1 X149.662 Y147.274 E27.76339
G1 X149.344 Y147.834 E27.78481
G1 X148.959 Y148.351 E27.80625
G1 X148.512 Y148.816 E27.8277
G1 X148.012 Y149.223 E27.84915
G1 X147.465 Y149.564 E27.87059
G1 X146.88 Y149.835 E27.89203
G1 X146.266 Y150.032 E27.91348
G1 X145.633 Y150.151 E27.9349
G1 X144.989 Y150.191 E27.95636
G1 X129.997 Y150.188 E28.455
G1 X129.354 Y150.148 E28.47642
G1 X128.72 Y150.029 E28.49788
G1 X127.835 Y149.717 E28.52909
G1 X124.105 Y148.011 E28.66551
G1 X121.696 Y147.002 E28.75238
G1 X116.607 Y145.123 E28.93281
G1 X111.483 Y143.555 E29.11103
G1 X106.221 Y142.264 E29.29124
G1 X103.676 Y141.755 E29.37756
G1 X98.347 Y140.919 E29.55697
G1 X93 Y140.387 E29.73569
G1 X89.111 Y140.183 E29.86522
G1 X88.471 Y140.109 E29.88665
G1 X87.844 Y139.957 E29.90811
G1 X87.242 Y139.728 E29.92953
G1 X86.672 Y139.427 E29.95097
G1 X86.144 Y139.057 E29.97241
G1 X85.714 Y138.674 E29.99156
G1 X81.811 Y134.786 E30.1748
G1 X81.751 Y134.725 E30.17764
G1 X81.28 Y134.24 E30.20013
G1 X80.86 Y133.75 E30.22159
G1 X80.504 Y133.213 E30.24302
G1 X80.218 Y132.635 E30.26447
G1 X80.005 Y132.027 E30.2859
G1 X79.869 Y131.397 E30.30734
G1 X79.81 Y130.621 E30.33322
G1 X79.8 Y117.711 E30.76261
G1 X79.803 Y117.536 E30.76843
G1 X79.978 Y112.209 E30.9457
G1 X79.976 Y109.547 E31.03424
G1 X79.814 Y105.21 E31.17859
G1 X79.81 Y105.016 E31.18504
G1 X79.81 Y94.384 E31.53867
G1 X79.85 Y93.741 E31.56009
G1 X79.969 Y93.107 E31.58155
G1 X80.166 Y92.493 E31.603
G1 X80.437 Y91.908 E31.62444
G1 X80.779 Y91.361 E31.6459
G1 X81.326 Y90.714 E31.67408
G1 X85.214 Y86.811 E31.85731
G1 X85.279 Y86.747 E31.86034
M204 S5000
M205 X30 Y30
G1 F2400 E26.86034
;MESH:CableCareerExtruder.stl
G0 F3600 X88.727 Y89.712
G0 X89.634 Y90.618
G0 X108.33 Y93.83
G0 X108.4 Y93.9
M204 S500
M205 X20 Y20
;TYPE:WALL-INNER
G1 F2400 E31.86034
G1 F1800 X108.4 Y111.6 E32.44905
G1 X126.1 Y111.6 E33.03775
G1 X126.1 Y95.994 E33.55681
G1 X124.006 Y93.9 E33.6553
G1 X108.4 Y93.9 E34.17436
M204 S5000
M205 X30 Y30
G0 F3600 X108.33 Y93.83
G0 X108.33 Y113.33
G0 X108.4 Y113.4
M204 S500
M205 X20 Y20
G1 F1800 X108.4 Y131.1 E34.76307
G1 X124.006 Y131.1 E35.28212
G1 X126.1 Y129.006 E35.38062
G1 X126.1 Y113.4 E35.89968
G1 X108.4 Y113.4 E36.48838
M204 S5000
M205 X30 Y30
G0 F3600 X108.33 Y113.33
G0 X88.83 Y113.33
G0 X88.9 Y113.4
M204 S500
M205 X20 Y20
G1 F1800 X88.9 Y129.006 E37.00744
G1 X90.994 Y131.1 E37.10593
G1 X106.6 Y131.1 E37.62499
G1 X106.6 Y113.4 E38.2137
G1 X88.9 Y113.4 E38.8024
M204 S5000
M205 X30 Y30
G0 F3600 X88.83 Y113.33
G0 X88.83 Y111.67
G0 X88.9 Y111.6
M204 S500
M205 X20 Y20
G1 F1800 X106.6 Y111.6 E39.39111
G1 X106.6 Y93.9 E39.97981
G1 X90.994 Y93.9 E40.49887
G1 X88.9 Y95.994 E40.59736
G1 X88.9 Y111.6 E41.11642
M204 S5000
M205 X30 Y30
G0 F3600 X88.83 Y111.67
G0 X106.628 Y111.628
G0 X108.372 Y93.872
G0 X124.021 Y93.864
G0 X129.33 Y98.549
G0 X129.4 Y98.479
M204 S500
M205 X20 Y20
G1 F1800 X132.6 Y98.479 E41.22285
G1 X132.6 Y96.979 E41.27274
G1 X132.9 Y96.979 E41.28272
G1 X132.9 Y98.479 E41.32014
G1 X132.9 Y98.779 E41.33012
G1 X132.9 Y100.279 E41.38001
G1 X132.6 Y100.279 E41.38999
G1 X132.6 Y98.779 E41.4274
G1 X129.4 Y98.779 E41.50723
G1 X129.4 Y125.6 E42.3993
G1 X138.9 Y125.6 E42.71527
G1 X144.4 Y125.6 E42.8982
G1 X144.4 Y125.9 E42.90818
G1 X138.9 Y125.9 E43.04538
G1 X138.9 Y144.1 E43.65071
G1 X144.4 Y144.1 E43.83364
G1 X144.4 Y144.4 E43.84362
G1 X138.9 Y144.4 E43.98082
G1 X130.391 Y144.4 E44.26383
G1 X126.014 Y134.4 E44.62689
G1 X89.627 Y134.4 E45.83713
G1 X85.6 Y130.373 E46.02655
G1 X85.6 Y117.6 E46.45138
G1 X87.1 Y117.6 E46.50127
G1 X87.1 Y104.4 E46.9403
G1 X85.6 Y104.4 E46.99019
G1 X85.6 Y94.627 E47.31524
G1 X89.627 Y90.6 E47.50466
G1 X125.373 Y90.6 E48.69358
G1 X129.4 Y94.627 E48.883
G1 X129.4 Y98.479 E49.01111
M204 S5000
M205 X30 Y30
G0 F3600 X129.8 Y98.079
M204 S500
M205 X20 Y20
;TYPE:WALL-OUTER
G1 F1800 X132.2 Y98.079 E49.09094
G1 X132.2 Y96.579 E49.14083
G1 X133.3 Y96.579 E49.17742
G1 X133.3 Y100.679 E49.31378
G1 X132.2 Y100.679 E49.35037
G1 X132.2 Y99.179 E49.40026
G1 X129.8 Y99.179 E49.48008
G1 X129.8 Y125.2 E50.34554
G1 X144.8 Y125.2 E50.84445
G1 X144.8 Y126.3 E50.88103
G1 X139.3 Y126.3 E51.06396
G1 X139.3 Y143.7 E51.64269
G1 X144.8 Y143.7 E51.82562
G1 X144.8 Y144.8 E51.86221
G1 X130.13 Y144.8 E52.35013
G1 X125.752 Y134.8 E52.71321
G1 X89.461 Y134.8 E53.92026
G1 X85.2 Y130.539 E54.12068
G1 X85.2 Y117.2 E54.56434
G1 X86.7 Y117.2 E54.61423
G1 X86.7 Y104.8 E55.02665
G1 X85.2 Y104.8 E55.07654
G1 X85.2 Y94.461 E55.42042
G1 X89.461 Y90.2 E55.62084
G1 X125.539 Y90.2 E56.8208
G1 X129.8 Y94.461 E57.02123
G1 X129.8 Y98.079 E57.14156
M204 S5000
M205 X30 Y30
G0 F3600 X130 Y98.079
G0 X130 Y98.579
G0 X129.372 Y98.507
G0 X124.021 Y93.864
G0 X108.8 Y93.8
G0 X108.8 Y94.3
M204 S500
M205 X20 Y20
G1 F1800 X108.8 Y111.2 E57.70366
G1 X125.7 Y111.2 E58.26576
G1 X125.7 Y96.16 E58.76599
G1 X123.84 Y94.3 E58.85348
G1 X108.8 Y94.3 E59.35371
M204 S5000
M205 X30 Y30
G0 F3600 X108.8 Y94.5
G0 X108.3 Y94.5
G0 X108.372 Y111.628
G0 X108.8 Y113.3
G0 X108.8 Y113.8
M204 S500
M205 X20 Y20
G1 F1800 X108.8 Y130.7 E59.91581
