;FLAVOR:Marlin
;TIME:709
;Filament used: 0.322811m
;Layer height: 0.2
;Generated with Cura_SteamEngine 3.6.0
M140 S60
M105
M190 S60
M104 S200
M105
M109 S200
M82 ;absolute extrusion mode
; Ender 3 Custom Start G-code
G28 ; Home all axes
G92 E0 ; Reset Extruder
G1 Z2.0 F3000 ; Move Z Axis up little to prevent scratching of Heat Bed
G1 X0.1 Y20 Z0.3 F5000.0 ; Move to start position
G1 X0.1 Y200.0 Z0.3 F1500.0 E15 ; Draw the first line
G1 X0.4 Y200.0 Z0.3 F5000.0 ; Move to side a little
G1 X0.4 Y20 Z0.3 F1500.0 E30 ; Draw the second line
G92 E0 ; Reset Extruder
G1 Z2.0 F3000 ; Move Z Axis up little to prevent scratching of Heat Bed
; End of custom start GCode
G92 E0
G1 F2400 E-5
;LAYER_COUNT:77
;LAYER:0
M107
M204 S5000
M205 X30 Y30
G0 F3600 X107.471 Y102.996 Z0.2
M204 S500
M205 X20 Y20
;TYPE:SKIRT
G1 F2400 E0
G1 F1800 X108.003 Y102.517 E0.02381
G1 X108.585 Y102.102 E0.04758
G1 X109.21 Y101.753 E0.07139
G1 X109.87 Y101.477 E0.09519
G1 X110.556 Y101.276 E0.11896
G1 X111.261 Y101.153 E0.14277
G1 X112.01 Y101.109 E0.16772
G1 X122.992 Y101.11 E0.53298
G1 X123.706 Y101.15 E0.55677
G1 X124.411 Y101.27 E0.58055
G1 X125.098 Y101.467 E0.60432
G1 X125.76 Y101.74 E0.62814
G1 X126.386 Y102.085 E0.65191
G1 X126.97 Y102.498 E0.6757
G1 X127.505 Y102.973 E0.6995
G1 X127.983 Y103.505 E0.72329
G1 X128.399 Y104.087 E0.74708
G1 X128.747 Y104.712 E0.77087
G1 X129.023 Y105.371 E0.79464
G1 X129.224 Y106.058 E0.81845
G1 X129.347 Y106.762 E0.84222
G1 X129.391 Y107.51 E0.86714
G1 X129.391 Y127.491 E1.53171
G1 X129.351 Y128.205 E1.55549
G1 X129.232 Y128.91 E1.57927
G1 X129.034 Y129.598 E1.60308
G1 X128.761 Y130.259 E1.62687
G1 X128.417 Y130.886 E1.65066
G1 X128.004 Y131.47 E1.67445
G1 X127.529 Y132.004 E1.69822
G1 X126.997 Y132.483 E1.72203
G1 X126.415 Y132.898 E1.7458
G1 X125.79 Y133.247 E1.76961
G1 X125.13 Y133.523 E1.79341
G1 X124.444 Y133.724 E1.81718
G1 X123.739 Y133.847 E1.84098
G1 X122.991 Y133.891 E1.86591
G1 X112.009 Y133.891 E2.23117
G1 X111.295 Y133.851 E2.25495
G1 X110.59 Y133.732 E2.27873
G1 X109.902 Y133.534 E2.30254
G1 X109.241 Y133.261 E2.32633
G1 X108.614 Y132.917 E2.35012
G1 X108.03 Y132.504 E2.37391
G1 X107.496 Y132.029 E2.39768
G1 X107.017 Y131.497 E2.42149
G1 X106.602 Y130.915 E2.44526
G1 X106.253 Y130.29 E2.46907
G1 X105.977 Y129.63 E2.49287
G1 X105.776 Y128.944 E2.51664
G1 X105.653 Y128.239 E2.54044
G1 X105.609 Y127.491 E2.56537
G1 X105.609 Y107.509 E3.22997
G1 X105.649 Y106.795 E3.25375
G1 X105.768 Y106.09 E3.27753
G1 X105.966 Y105.402 E3.30135
G1 X106.239 Y104.741 E3.32513
G1 X106.583 Y104.114 E3.34892
G1 X106.996 Y103.53 E3.37271
G1 X107.471 Y102.996 E3.39648
M204 S5000
M205 X30 Y30
G0 F3600 X107.865 Y103.17
M204 S500
M205 X20 Y20
G1 F1800 X108.393 Y102.721 E3.41953
G1 X108.968 Y102.336 E3.44255
G1 X109.585 Y102.021 E3.46559
G1 X110.233 Y101.778 E3.48861
G1 X110.906 Y101.611 E3.51167
G1 X111.592 Y101.523 E3.53467
G1 X112.01 Y101.509 E3.54858
G1 X122.992 Y101.51 E3.91385
G1 X123.683 Y101.55 E3.93687
G1 X124.365 Y101.669 E3.95989
G1 X125.029 Y101.867 E3.98294
G1 X125.666 Y102.139 E4.00598
G1 X126.267 Y102.483 E4.02901
G1 X126.824 Y102.894 E4.05203
G1 X127.33 Y103.366 E4.07505
G1 X127.779 Y103.894 E4.0981
G1 X128.164 Y104.47 E4.12114
G1 X128.48 Y105.086 E4.14417
G1 X128.722 Y105.735 E4.16721
G1 X128.889 Y106.407 E4.19024
G1 X128.977 Y107.094 E4.21328
G1 X128.991 Y107.51 E4.22712
G1 X128.991 Y127.491 E4.89169
G1 X128.951 Y128.182 E4.91471
G1 X128.832 Y128.865 E4.93777
G1 X128.634 Y129.528 E4.96078
G1 X128.362 Y130.165 E4.98382
G1 X128.018 Y130.766 E5.00685
G1 X127.607 Y131.324 E5.0299
G1 X127.135 Y131.83 E5.05292
G1 X126.607 Y132.279 E5.07597
G1 X126.032 Y132.664 E5.09899
G1 X125.415 Y132.979 E5.12203
G1 X124.767 Y133.222 E5.14505
G1 X124.094 Y133.389 E5.16811
G1 X123.408 Y133.477 E5.19111
G1 X122.991 Y133.491 E5.20499
G1 X112.009 Y133.491 E5.57025
G1 X111.318 Y133.451 E5.59327
G1 X110.635 Y133.332 E5.61633
G1 X109.972 Y133.134 E5.63935
G1 X109.335 Y132.862 E5.66238
G1 X108.734 Y132.518 E5.68542
G1 X108.176 Y132.107 E5.70847
G1 X107.67 Y131.635 E5.73148
G1 X107.221 Y131.107 E5.75453
G1 X106.836 Y130.532 E5.77755
G1 X106.521 Y129.915 E5.80059
G1 X106.278 Y129.267 E5.82361
G1 X106.111 Y128.594 E5.84667
G1 X106.023 Y127.908 E5.86968
G1 X106.009 Y127.491 E5.88355
G1 X106.009 Y107.509 E6.54816
G1 X106.049 Y106.818 E6.57118
G1 X106.168 Y106.135 E6.59424
G1 X106.366 Y105.472 E6.61725
G1 X106.638 Y104.835 E6.64029
G1 X106.982 Y104.234 E6.66332
G1 X107.393 Y103.676 E6.68637
G1 X107.865 Y103.17 E6.70939
M204 S5000
M205 X30 Y30
G0 F3600 X108.258 Y103.351
M204 S500
M205 X20 Y20
G1 F1800 X108.78 Y102.933 E6.73163
G1 X109.349 Y102.581 E6.75388
G1 X109.956 Y102.299 E6.77614
G1 X110.592 Y102.091 E6.7984
G1 X111.248 Y101.961 E6.82064
G1 X112.01 Y101.909 E6.84604
G1 X122.992 Y101.91 E7.21131
G1 X123.659 Y101.95 E7.23353
G1 X124.318 Y102.069 E7.2558
G1 X124.957 Y102.266 E7.27805
G1 X125.568 Y102.538 E7.30029
G1 X126.143 Y102.881 E7.32256
G1 X126.672 Y103.29 E7.3448
G1 X127.149 Y103.759 E7.36705
G1 X127.567 Y104.282 E7.38932
G1 X127.919 Y104.851 E7.41157
G1 X128.201 Y105.457 E7.4338
G1 X128.409 Y106.093 E7.45606
G1 X128.539 Y106.75 E7.47833
G1 X128.591 Y107.51 E7.50367
G1 X128.591 Y127.491 E8.16824
G1 X128.551 Y128.159 E8.1905
G1 X128.432 Y128.817 E8.21274
G1 X128.235 Y129.457 E8.23501
G1 X127.963 Y130.068 E8.25725
G1 X127.62 Y130.642 E8.27949
G1 X127.211 Y131.172 E8.30176
G1 X126.742 Y131.649 E8.32401
G1 X126.22 Y132.067 E8.34625
G1 X125.651 Y132.419 E8.36851
G1 X125.044 Y132.701 E8.39077
G1 X124.408 Y132.909 E8.41302
G1 X123.752 Y133.039 E8.43527
G1 X122.991 Y133.091 E8.46064
G1 X112.009 Y133.091 E8.8259
G1 X111.341 Y133.051 E8.84816
G1 X110.683 Y132.932 E8.8704
G1 X110.043 Y132.735 E8.89267
G1 X109.432 Y132.463 E8.91491
G1 X108.858 Y132.12 E8.93715
G1 X108.328 Y131.711 E8.95942
G1 X107.851 Y131.242 E8.98167
G1 X107.433 Y130.72 E9.00391
G1 X107.081 Y130.151 E9.02617
G1 X106.799 Y129.544 E9.04843
G1 X106.591 Y128.908 E9.07068
G1 X106.461 Y128.252 E9.09293
G1 X106.409 Y127.491 E9.1183
G1 X106.409 Y107.509 E9.7829
G1 X106.449 Y106.841 E9.80516
G1 X106.568 Y106.183 E9.8274
G1 X106.765 Y105.543 E9.84967
G1 X107.037 Y104.932 E9.87191
G1 X107.38 Y104.358 E9.89415
G1 X107.789 Y103.828 E9.91642
G1 X108.258 Y103.351 E9.93867
M204 S5000
M205 X30 Y30
G0 F3600 X108.184 Y103.986
M204 S500
M205 X20 Y20
G1 F1800 X108.649 Y103.54 E9.9601
G1 X109.166 Y103.155 E9.98154
G1 X109.727 Y102.836 E10.003
G1 X110.323 Y102.59 E10.02445
G1 X110.944 Y102.419 E10.04587
G1 X111.582 Y102.327 E10.06731
G1 X112.009 Y102.309 E10.08153
G1 X122.991 Y102.31 E10.44679
G1 X123.635 Y102.35 E10.46825
G1 X124.268 Y102.469 E10.48967
G1 X124.882 Y102.666 E10.51112
G1 X125.467 Y102.937 E10.53256
G1 X126.014 Y103.279 E10.55402
G1 X126.514 Y103.685 E10.57544
G1 X126.96 Y104.151 E10.5969
G1 X127.346 Y104.668 E10.61836
G1 X127.664 Y105.228 E10.63978
G1 X127.91 Y105.824 E10.66122
G1 X128.081 Y106.446 E10.68268
G1 X128.174 Y107.084 E10.70412
G1 X128.191 Y107.51 E10.7183
G1 X128.191 Y127.491 E11.38287
G1 X128.151 Y128.134 E11.4043
G1 X128.032 Y128.768 E11.42575
G1 X127.835 Y129.382 E11.4472
G1 X127.564 Y129.967 E11.46864
G1 X127.222 Y130.514 E11.4901
G1 X126.816 Y131.014 E11.51152
G1 X126.351 Y131.46 E11.53295
G1 X125.834 Y131.845 E11.55439
G1 X125.273 Y132.164 E11.57586
G1 X124.677 Y132.41 E11.5973
G1 X124.056 Y132.581 E11.61873
G1 X123.418 Y132.673 E11.64017
G1 X122.991 Y132.691 E11.65438
G1 X112.009 Y132.691 E12.01964
G1 X111.366 Y132.651 E12.04107
G1 X110.732 Y132.532 E12.06253
G1 X110.118 Y132.335 E12.08397
G1 X109.533 Y132.064 E12.10542
G1 X108.986 Y131.722 E12.12687
G1 X108.486 Y131.316 E12.14829
G1 X108.04 Y130.851 E12.16972
G1 X107.655 Y130.334 E12.19116
G1 X107.336 Y129.773 E12.21263
G1 X107.09 Y129.177 E12.23407
G1 X106.919 Y128.556 E12.2555
G1 X106.827 Y127.918 E12.27694
G1 X106.809 Y127.491 E12.29115
G1 X106.809 Y107.509 E12.95576
G1 X106.849 Y106.866 E12.97718
G1 X106.968 Y106.232 E12.99864
G1 X107.165 Y105.618 E13.02009
G1 X107.436 Y105.033 E13.04153
G1 X107.778 Y104.486 E13.06299
G1 X108.184 Y103.986 E13.08441
M204 S5000
M205 X30 Y30
G1 F2400 E8.08441
;MESH:CableCareerExtruder2.stl
G0 F3600 X111.335 Y108.114
G0 X112.614 Y108.114
G0 X114.83 Y121.17
G0 X114.9 Y121.1
M204 S500
M205 X20 Y20
;TYPE:WALL-INNER
G1 F2400 E13.08441
G1 F1800 X118.1 Y121.1 E13.19084
G1 X118.1 Y108.1 E13.62322
G1 X122.4 Y108.1 E13.76624
G1 X122.4 Y126.9 E14.39153
G1 X112.6 Y126.9 E14.71748
G1 X112.6 Y108.1 E15.34277
G1 X114.9 Y108.1 E15.41927
G1 X114.9 Y121.1 E15.85165
M204 S5000
M205 X30 Y30
G0 F3600 X115.3 Y120.7
M204 S500
M205 X20 Y20
;TYPE:WALL-OUTER
G1 F1800 X117.7 Y120.7 E15.93148
G1 X117.7 Y107.7 E16.36386
G1 X122.8 Y107.7 E16.53348
G1 X122.8 Y127.3 E17.18538
G1 X112.2 Y127.3 E17.53794
G1 X112.2 Y107.7 E18.18984
G1 X115.3 Y107.7 E18.29294
G1 X115.3 Y120.7 E18.72533
M204 S5000
M205 X30 Y30
G0 F3600 X115.5 Y120.7
G0 X115.5 Y121.2
G0 X114.51 Y121.49
M204 S500
M205 X20 Y20
;TYPE:SKIN
G1 F1800 X118.49 Y121.49 E18.8577
G1 X118.49 Y108.49 E19.29008
G1 X122.01 Y108.49 E19.40716
G1 X122.01 Y126.51 E20.00651
G1 X112.99 Y126.51 E20.30651
G1 X112.99 Y108.49 E20.90586
G1 X114.51 Y108.49 E20.95642
G1 X114.51 Y121.49 E21.3888
M204 S5000
M205 X30 Y30
G0 F3600 X113.318 Y126.328
M204 S500
M205 X20 Y20
G1 F1800 X113.169 Y126.18 E21.39578
M204 S5000
M205 X30 Y30
G0 F3600 X113.169 Y125.614
M204 S500
M205 X20 Y20
G1 F1800 X113.883 Y126.328 E21.42937
M204 S5000
M205 X30 Y30
G0 F3600 X114.449 Y126.328
M204 S500
M205 X20 Y20
G1 F1800 X113.169 Y125.049 E21.48955
M204 S5000
M205 X30 Y30
G0 F3600 X113.169 Y124.483
M204 S500
M205 X20 Y20
G1 F1800 X115.015 Y126.328 E21.57636
M204 S5000
M205 X30 Y30
G0 F3600 X115.58 Y126.328
M204 S500
M205 X20 Y20
G1 F1800 X113.169 Y123.917 E21.68976
M204 S5000
M205 X30 Y30
G0 F3600 X113.169 Y123.351
M204 S500
M205 X20 Y20
G1 F1800 X116.146 Y126.328 E21.82979
M204 S5000
M205 X30 Y30
G0 F3600 X116.712 Y126.328
M204 S500
M205 X20 Y20
G1 F1800 X113.169 Y122.786 E21.99642
M204 S5000
M205 X30 Y30
G0 F3600 X113.169 Y122.22
M204 S500
M205 X20 Y20
G1 F1800 X117.277 Y126.328 E22.18965
M204 S5000
M205 X30 Y30
G0 F3600 X117.843 Y126.328
M204 S500
M205 X20 Y20
G1 F1800 X113.169 Y121.654 E22.4095
M204 S5000
M205 X30 Y30
G0 F3600 X113.169 Y121.089
M204 S500
M205 X20 Y20
G1 F1800 X118.409 Y126.328 E22.65595
M204 S5000
M205 X30 Y30
G0 F3600 X118.974 Y126.328
M204 S500
M205 X20 Y20
G1 F1800 X113.169 Y120.523 E22.929
M204 S5000
M205 X30 Y30
G0 F3600 X113.169 Y119.957
M204 S500
M205 X20 Y20
G1 F1800 X114.329 Y121.118 E22.98359
M204 S5000
M205 X30 Y30
G0 F3600 X114.329 Y120.552
M204 S500
M205 X20 Y20
G1 F1800 X113.169 Y119.392 E23.03815
M204 S5000
M205 X30 Y30
G0 F3600 X113.169 Y118.826
M204 S500
M205 X20 Y20
G1 F1800 X114.329 Y119.986 E23.09271
M204 S5000
M205 X30 Y30
G0 F3600 X114.329 Y119.421
M204 S500
M205 X20 Y20
G1 F1800 X113.169 Y118.26 E23.1473
M204 S5000
M205 X30 Y30
G0 F3600 X113.169 Y117.695
M204 S500
M205 X20 Y20
G1 F1800 X114.329 Y118.855 E23.20186
M204 S5000
M205 X30 Y30
G0 F3600 X114.329 Y118.289
M204 S500
M205 X20 Y20
G1 F1800 X113.168 Y117.128 E23.25647
M204 S5000
M205 X30 Y30
G0 F3600 X113.168 Y116.563
M204 S500
M205 X20 Y20
G1 F1800 X114.329 Y117.724 E23.31108
M204 S5000
M205 X30 Y30
G0 F3600 X114.329 Y117.158
M204 S500
M205 X20 Y20
G1 F1800 X113.168 Y115.997 E23.36569
M204 S5000
M205 X30 Y30
G0 F3600 X113.168 Y115.431
M204 S500
M205 X20 Y20
G1 F1800 X114.329 Y116.592 E23.4203
M204 S5000
M205 X30 Y30
G0 F3600 X114.329 Y116.027
M204 S500
M205 X20 Y20
G1 F1800 X113.168 Y114.865 E23.47493
M204 S5000
M205 X30 Y30
G0 F3600 X113.168 Y114.3
M204 S500
M205 X20 Y20
G1 F1800 X114.329 Y115.461 E23.52954
M204 S5000
M205 X30 Y30
G0 F3600 X114.329 Y114.895
M204 S500
M205 X20 Y20
G1 F1800 X113.168 Y113.734 E23.58415
M204 S5000
M205 X30 Y30
G0 F3600 X113.168 Y113.168
M204 S500
M205 X20 Y20
G1 F1800 X114.329 Y114.329 E23.63876
M204 S5000
M205 X30 Y30
G0 F3600 X114.329 Y113.764
M204 S500
M205 X20 Y20
G1 F1800 X113.168 Y112.603 E23.69337
M204 S5000
M205 X30 Y30
G0 F3600 X113.168 Y112.037
M204 S500
M205 X20 Y20
G1 F1800 X114.329 Y113.198 E23.74798
M204 S5000
M205 X30 Y30
G0 F3600 X114.329 Y112.632
M204 S500
M205 X20 Y20
G1 F1800 X113.168 Y111.471 E23.80259
M204 S5000
M205 X30 Y30
G0 F3600 X113.168 Y110.906
M204 S500
M205 X20 Y20
G1 F1800 X114.329 Y112.067 E23.8572
M204 S5000
M205 X30 Y30
G0 F3600 X114.329 Y111.501
M204 S500
M205 X20 Y20
G1 F1800 X113.168 Y110.34 E23.91181
M204 S5000
M205 X30 Y30
G0 F3600 X113.168 Y109.774
M204 S500
M205 X20 Y20
G1 F1800 X114.329 Y110.935 E23.96642
M204 S5000
M205 X30 Y30
G0 F3600 X114.329 Y110.37
M204 S500
M205 X20 Y20
G1 F1800 X113.168 Y109.209 E24.02103
M204 S5000
M205 X30 Y30
G0 F3600 X113.195 Y108.67
M204 S500
M205 X20 Y20
G1 F1800 X114.329 Y109.804 E24.07437
M204 S5000
M205 X30 Y30
G0 F3600 X114.329 Y109.238
M204 S500
M205 X20 Y20
G1 F1800 X113.761 Y108.67 E24.10109
G1 X113.691 Y108.6
M204 S5000
M205 X30 Y30
G0 F3600 X114.872 Y121.128
G0 X118.128 Y121.128
G0 X118.669 Y109.052
M204 S500
M205 X20 Y20
G1 F1800 X121.83 Y112.213 E24.24977
M204 S5000
M205 X30 Y30
G0 F3600 X121.83 Y112.779
M204 S500
M205 X20 Y20
G1 F1800 X118.669 Y109.618 E24.39846
G1 X118.599 Y109.548
M204 S5000
M205 X30 Y30
G0 F3600 X118.852 Y108.67
M204 S500
M205 X20 Y20
G1 F1800 X121.83 Y111.647 E24.53851
M204 S5000
M205 X30 Y30
G0 F3600 X121.83 Y111.082
M204 S500
M205 X20 Y20
G1 F1800 X119.418 Y108.67 E24.65196
M204 S5000
M205 X30 Y30
G0 F3600 X119.983 Y108.67
M204 S500
M205 X20 Y20
G1 F1800 X121.83 Y110.516 E24.73882
M204 S5000
M205 X30 Y30
G0 F3600 X121.83 Y109.95
M204 S500
M205 X20 Y20
G1 F1800 X120.549 Y108.67 E24.79905
M204 S5000
M205 X30 Y30
G0 F3600 X121.115 Y108.67
M204 S500
M205 X20 Y20
G1 F1800 X121.83 Y109.385 E24.83268
M204 S5000
M205 X30 Y30
G0 F3600 X121.83 Y108.819
M204 S500
M205 X20 Y20
G1 F1800 X121.681 Y108.67 E24.83969
M204 S5000
M205 X30 Y30
G0 F3600 X118.669 Y110.184
M204 S500
M205 X20 Y20
G1 F1800 X121.83 Y113.344 E24.98835
M204 S5000
M205 X30 Y30
G0 F3600 X121.83 Y113.91
M204 S500
M205 X20 Y20
G1 F1800 X118.669 Y110.749 E25.13703
M204 S5000
M205 X30 Y30
G0 F3600 X118.669 Y111.315
M204 S500
M205 X20 Y20
G1 F1800 X121.83 Y114.476 E25.28571
M204 S5000
M205 X30 Y30
G0 F3600 X121.83 Y115.042
M204 S500
M205 X20 Y20
G1 F1800 X118.669 Y111.881 E25.4344
M204 S5000
M205 X30 Y30
G0 F3600 X118.669 Y112.446
M204 S500
M205 X20 Y20
G1 F1800 X121.83 Y115.607 E25.58308
M204 S5000
M205 X30 Y30
G0 F3600 X121.83 Y116.173
M204 S500
M205 X20 Y20
G1 F1800 X118.669 Y113.012 E25.73177
M204 S5000
M205 X30 Y30
G0 F3600 X118.669 Y113.578
M204 S500
M205 X20 Y20
G1 F1800 X121.83 Y116.739 E25.88045
M204 S5000
M205 X30 Y30
G0 F3600 X121.83 Y117.304
M204 S500
M205 X20 Y20
G1 F1800 X118.669 Y114.144 E26.02911
M204 S5000
M205 X30 Y30
G0 F3600 X118.669 Y114.709
M204 S500
M205 X20 Y20
G1 F1800 X121.83 Y117.87 E26.17779
M204 S5000
M205 X30 Y30
G0 F3600 X121.83 Y118.436
M204 S500
M205 X20 Y20
G1 F1800 X118.669 Y115.275 E26.32648
M204 S5000
M205 X30 Y30
G0 F3600 X118.669 Y115.841
M204 S500
M205 X20 Y20
G1 F1800 X121.83 Y119.001 E26.47514
M204 S5000
M205 X30 Y30
G0 F3600 X121.83 Y119.567
M204 S500
M205 X20 Y20
G1 F1800 X118.669 Y116.406 E26.62382
M204 S5000
M205 X30 Y30
G0 F3600 X118.669 Y116.972
M204 S500
M205 X20 Y20
G1 F1800 X121.83 Y120.133 E26.7725
M204 S5000
M205 X30 Y30
G0 F3600 X121.83 Y120.698
M204 S500
M205 X20 Y20
G1 F1800 X118.669 Y117.538 E26.92116
M204 S5000
M205 X30 Y30
G0 F3600 X118.669 Y118.103
M204 S500
M205 X20 Y20
G1 F1800 X121.83 Y121.264 E27.06985
M204 S5000
M205 X30 Y30
G0 F3600 X121.83 Y121.83
M204 S500
M205 X20 Y20
G1 F1800 X118.669 Y118.669 E27.21853
M204 S5000
M205 X30 Y30
G0 F3600 X118.669 Y119.235
M204 S500
M205 X20 Y20
G1 F1800 X121.83 Y122.395 E27.36719
M204 S5000
M205 X30 Y30
G0 F3600 X121.83 Y122.961
M204 S500
M205 X20 Y20
G1 F1800 X118.669 Y119.8 E27.51588
M204 S5000
M205 X30 Y30
G0 F3600 X118.669 Y120.366
M204 S500
M205 X20 Y20
G1 F1800 X121.83 Y123.527 E27.66456
M204 S5000
M205 X30 Y30
G0 F3600 X121.83 Y124.092
M204 S500
M205 X20 Y20
G1 F1800 X118.669 Y120.932 E27.81322
M204 S5000
M205 X30 Y30
G0 F3600 X118.669 Y121.497
M204 S500
M205 X20 Y20
