;FLAVOR:Marlin
;TIME:1178
;Filament used: 0.621091m
;Layer height: 0.2
;Generated with Cura_SteamEngine 3.6.0
M140 S60
M105
M190 S60
M104 S200
M105
M109 S200
M82 ;absolute extrusion mode
; Ender 3 Custom Start G-code
G28 ; Home all axes
G92 E0 ; Reset Extruder
G1 Z2.0 F3000 ; Move Z Axis up little to prevent scratching of Heat Bed
G1 X0.1 Y20 Z0.3 F5000.0 ; Move to start position
G1 X0.1 Y200.0 Z0.3 F1500.0 E15 ; Draw the first line
G1 X0.4 Y200.0 Z0.3 F5000.0 ; Move to side a little
G1 X0.4 Y20 Z0.3 F1500.0 E30 ; Draw the second line
G92 E0 ; Reset Extruder
G1 Z2.0 F3000 ; Move Z Axis up little to prevent scratching of Heat Bed
; End of custom start GCode
G92 E0
G1 F2400 E-5
;LAYER_COUNT:98
;LAYER:0
M107
M204 S5000
M205 X30 Y30
;MESH:CableCareerNozzleFooter.stl
G0 F3600 X119.9 Y110.4 Z0.2
M204 S500
M205 X20 Y20
;TYPE:WALL-INNER
G1 F2400 E0
G1 F1800 X119.9 Y114.1 E0.12306
G1 X126.9 Y114.1 E0.35588
G1 X126.9 Y124.9 E0.71509
G1 X124.9 Y124.9 E0.78161
G1 X124.9 Y114.9 E1.11421
G1 X110.1 Y114.9 E1.60646
G1 X110.1 Y124.9 E1.93907
G1 X108.1 Y124.9 E2.00559
G1 X108.1 Y114.1 E2.3648
G1 X115.1 Y114.1 E2.59762
G1 X115.1 Y110.4 E2.72068
G1 X113.6 Y110.4 E2.77057
G1 X113.6 Y110.1 E2.78055
G1 X115.1 Y110.1 E2.81796
G1 X119.9 Y110.1 E2.97761
G1 X121.4 Y110.1 E3.0275
G1 X121.4 Y110.4 E3.03748
G1 X119.9 Y110.4 E3.0749
M204 S5000
M205 X30 Y30
G0 F3600 X120.3 Y110.8
M204 S500
M205 X20 Y20
;TYPE:WALL-OUTER
G1 F1800 X120.3 Y113.7 E3.17135
G1 X127.3 Y113.7 E3.40417
G1 X127.3 Y125.3 E3.78999
G1 X124.5 Y125.3 E3.88312
G1 X124.5 Y115.3 E4.21572
G1 X110.5 Y115.3 E4.68136
G1 X110.5 Y125.3 E5.01397
G1 X107.7 Y125.3 E5.10709
G1 X107.7 Y113.7 E5.49291
G1 X114.7 Y113.7 E5.72573
G1 X114.7 Y110.8 E5.82219
G1 X113.2 Y110.8 E5.87208
G1 X113.2 Y109.7 E5.90866
G1 X121.8 Y109.7 E6.1947
G1 X121.8 Y110.8 E6.23129
G1 X120.3 Y110.8 E6.28118
M204 S5000
M205 X30 Y30
G0 F3600 X120.3 Y111
G0 X119.8 Y111
G0 X119.51 Y110.49
M204 S500
M205 X20 Y20
;TYPE:SKIN
G1 F1800 X119.51 Y114.49 E6.41422
G1 X126.51 Y114.49 E6.64704
G1 X126.51 Y124.51 E6.9803
G1 X125.29 Y124.51 E7.02088
G1 X125.29 Y114.51 E7.35348
G1 X109.71 Y114.51 E7.87168
G1 X109.71 Y124.51 E8.20428
G1 X108.49 Y124.51 E8.24485
G1 X108.49 Y114.49 E8.57812
G1 X115.49 Y114.49 E8.81094
G1 X115.49 Y110.49 E8.94398
G1 X119.51 Y110.49 E9.07769
M204 S5000
M205 X30 Y30
G0 F3600 X119.872 Y114.128
G0 X126.329 Y115.015
M204 S500
M205 X20 Y20
G1 F1800 X125.983 Y114.67 E9.09394
M204 S5000
M205 X30 Y30
G0 F3600 X125.469 Y114.721
M204 S500
M205 X20 Y20
G1 F1800 X126.329 Y115.581 E9.13439
M204 S5000
M205 X30 Y30
G0 F3600 X126.329 Y116.147
M204 S500
M205 X20 Y20
G1 F1800 X125.469 Y115.286 E9.17487
M204 S5000
M205 X30 Y30
G0 F3600 X125.469 Y115.852
M204 S500
M205 X20 Y20
G1 F1800 X126.329 Y116.712 E9.21532
M204 S5000
M205 X30 Y30
G0 F3600 X126.329 Y117.278
M204 S500
M205 X20 Y20
G1 F1800 X125.469 Y116.418 E9.25577
M204 S5000
M205 X30 Y30
G0 F3600 X125.469 Y116.983
M204 S500
M205 X20 Y20
G1 F1800 X126.329 Y117.844 E9.29625
M204 S5000
M205 X30 Y30
G0 F3600 X126.329 Y118.409
M204 S500
M205 X20 Y20
G1 F1800 X125.469 Y117.549 E9.3367
M204 S5000
M205 X30 Y30
G0 F3600 X125.469 Y118.115
M204 S500
M205 X20 Y20
G1 F1800 X126.329 Y118.975 E9.37715
M204 S5000
M205 X30 Y30
G0 F3600 X126.329 Y119.541
M204 S500
M205 X20 Y20
G1 F1800 X125.469 Y118.68 E9.41762
M204 S5000
M205 X30 Y30
G0 F3600 X125.469 Y119.246
M204 S500
M205 X20 Y20
G1 F1800 X126.329 Y120.107 E9.4581
M204 S5000
M205 X30 Y30
G0 F3600 X126.329 Y120.672
M204 S500
M205 X20 Y20
G1 F1800 X125.469 Y119.812 E9.49855
M204 S5000
M205 X30 Y30
G0 F3600 X125.469 Y120.377
M204 S500
M205 X20 Y20
G1 F1800 X126.329 Y121.238 E9.53903
M204 S5000
M205 X30 Y30
G0 F3600 X126.329 Y121.804
M204 S500
M205 X20 Y20
G1 F1800 X125.469 Y120.943 E9.5795
M204 S5000
M205 X30 Y30
G0 F3600 X125.469 Y121.509
M204 S500
M205 X20 Y20
G1 F1800 X126.329 Y122.369 E9.61995
M204 S5000
M205 X30 Y30
G0 F3600 X126.329 Y122.935
M204 S500
M205 X20 Y20
G1 F1800 X125.469 Y122.074 E9.66043
M204 S5000
M205 X30 Y30
G0 F3600 X125.469 Y122.64
M204 S500
M205 X20 Y20
G1 F1800 X126.329 Y123.501 E9.7009
M204 S5000
M205 X30 Y30
G0 F3600 X126.329 Y124.066
M204 S500
M205 X20 Y20
G1 F1800 X125.469 Y123.206 E9.74136
M204 S5000
M205 X30 Y30
G0 F3600 X125.469 Y123.771
M204 S500
M205 X20 Y20
G1 F1800 X126.026 Y124.329 E9.76758
M204 S5000
M205 X30 Y30
G0 F3600 X124.928 Y114.872
G0 X119.329 Y114.238
M204 S500
M205 X20 Y20
G1 F1800 X115.761 Y110.669 E9.93543
M204 S5000
M205 X30 Y30
G0 F3600 X115.669 Y111.143
M204 S500
M205 X20 Y20
G1 F1800 X118.855 Y114.329 E10.08529
M204 S5000
M205 X30 Y30
G0 F3600 X118.289 Y114.329
M204 S500
M205 X20 Y20
G1 F1800 X115.669 Y111.709 E10.20853
M204 S5000
M205 X30 Y30
G0 F3600 X115.669 Y112.275
M204 S500
M205 X20 Y20
G1 F1800 X117.724 Y114.329 E10.30516
M204 S5000
M205 X30 Y30
G0 F3600 X117.158 Y114.329
M204 S500
M205 X20 Y20
G1 F1800 X115.669 Y112.84 E10.3752
M204 S5000
M205 X30 Y30
G0 F3600 X115.669 Y113.406
M204 S500
M205 X20 Y20
G1 F1800 X116.592 Y114.329 E10.41862
M204 S5000
M205 X30 Y30
G0 F3600 X116.027 Y114.329
M204 S500
M205 X20 Y20
G1 F1800 X115.669 Y113.972 E10.43543
M204 S5000
M205 X30 Y30
G0 F3600 X116.326 Y110.669
M204 S500
M205 X20 Y20
G1 F1800 X119.329 Y113.672 E10.57669
M204 S5000
M205 X30 Y30
G0 F3600 X119.329 Y113.106
M204 S500
M205 X20 Y20
G1 F1800 X116.892 Y110.669 E10.69131
M204 S5000
M205 X30 Y30
G0 F3600 X117.458 Y110.669
M204 S500
M205 X20 Y20
G1 F1800 X119.329 Y112.54 E10.77932
M204 S5000
M205 X30 Y30
G0 F3600 X119.329 Y111.975
M204 S500
M205 X20 Y20
G1 F1800 X118.023 Y110.669 E10.84075
M204 S5000
M205 X30 Y30
G0 F3600 X118.589 Y110.669
M204 S500
M205 X20 Y20
G1 F1800 X119.329 Y111.409 E10.87556
M204 S5000
M205 X30 Y30
G0 F3600 X119.329 Y110.843
M204 S500
M205 X20 Y20
G1 F1800 X119.155 Y110.669 E10.88374
M204 S5000
M205 X30 Y30
G0 F3600 X115.128 Y114.128
G0 X111.159 Y114.128
G0 X109.53 Y115.186
M204 S500
M205 X20 Y20
G1 F1800 X109.012 Y114.669 E10.90808
M204 S5000
M205 X30 Y30
G0 F3600 X108.669 Y114.892
M204 S500
M205 X20 Y20
G1 F1800 X109.53 Y115.752 E10.94856
M204 S5000
M205 X30 Y30
G0 F3600 X109.53 Y116.318
M204 S500
M205 X20 Y20
G1 F1800 X108.669 Y115.457 E10.98906
M204 S5000
M205 X30 Y30
G0 F3600 X108.669 Y116.023
M204 S500
M205 X20 Y20
G1 F1800 X109.53 Y116.884 E11.02956
M204 S5000
M205 X30 Y30
G0 F3600 X109.53 Y117.449
M204 S500
M205 X20 Y20
G1 F1800 X108.669 Y116.589 E11.07003
M204 S5000
M205 X30 Y30
G0 F3600 X108.669 Y117.154
M204 S500
M205 X20 Y20
G1 F1800 X109.53 Y118.015 E11.11053
M204 S5000
M205 X30 Y30
G0 F3600 X109.53 Y118.581
M204 S500
M205 X20 Y20
G1 F1800 X108.669 Y117.72 E11.15103
M204 S5000
M205 X30 Y30
G0 F3600 X108.669 Y118.286
M204 S500
M205 X20 Y20
G1 F1800 X109.53 Y119.146 E11.19151
M204 S5000
M205 X30 Y30
G0 F3600 X109.53 Y119.712
M204 S500
M205 X20 Y20
G1 F1800 X108.669 Y118.851 E11.232
M204 S5000
M205 X30 Y30
G0 F3600 X108.669 Y119.417
M204 S500
M205 X20 Y20
G1 F1800 X109.53 Y120.278 E11.2725
M204 S5000
M205 X30 Y30
G0 F3600 X109.53 Y120.843
M204 S500
M205 X20 Y20
G1 F1800 X108.669 Y119.983 E11.31298
M204 S5000
M205 X30 Y30
G0 F3600 X108.669 Y120.548
M204 S500
M205 X20 Y20
G1 F1800 X109.53 Y121.409 E11.35348
M204 S5000
M205 X30 Y30
G0 F3600 X109.53 Y121.975
M204 S500
M205 X20 Y20
G1 F1800 X108.669 Y121.114 E11.39398
M204 S5000
M205 X30 Y30
G0 F3600 X108.669 Y121.68
M204 S500
M205 X20 Y20
G1 F1800 X109.53 Y122.54 E11.43445
M204 S5000
M205 X30 Y30
G0 F3600 X109.53 Y123.106
M204 S500
M205 X20 Y20
G1 F1800 X108.669 Y122.246 E11.47493
M204 S5000
M205 X30 Y30
G0 F3600 X108.669 Y122.811
M204 S500
M205 X20 Y20
G1 F1800 X109.53 Y123.672 E11.51542
M204 S5000
M205 X30 Y30
G0 F3600 X109.53 Y124.237
M204 S500
M205 X20 Y20
G1 F1800 X108.669 Y123.377 E11.5559
M204 S5000
M205 X30 Y30
G0 F3600 X108.669 Y123.943
M204 S500
M205 X20 Y20
G1 F1800 X109.055 Y124.329 E11.57406
M204 S5000
M205 X30 Y30
;MESH:NONMESH
G0 F3600 X110.072 Y114.872
G0 X115.145 Y114.869
G0 X119.83 Y110.33
G0 X119.9 Y110.4
;TIME_ELAPSED:23.386349
;LAYER:1
M140 S60
M106 S255
;MESH:CableCareerNozzleFooter.stl
G0 F5400 X119.9 Y110.4 Z0.4
M204 S500
M205 X20 Y20
;TYPE:WALL-INNER
G1 F2700 X119.9 Y114.1 E11.69712
G1 X126.9 Y114.1 E11.92994
G1 X126.9 Y124.9 E12.28915
G1 X124.9 Y124.9 E12.35567
G1 X124.9 Y114.9 E12.68827
G1 X110.1 Y114.9 E13.18052
G1 X110.1 Y124.9 E13.51312
G1 X108.1 Y124.9 E13.57964
G1 X108.1 Y114.1 E13.93885
G1 X115.1 Y114.1 E14.17167
G1 X115.1 Y110.4 E14.29474
G1 X113.6 Y110.4 E14.34463
G1 X113.6 Y110.1 E14.3546
G1 X115.1 Y110.1 E14.39202
G1 X119.9 Y110.1 E14.55167
G1 X121.4 Y110.1 E14.60156
G1 X121.4 Y110.4 E14.61154
G1 X119.9 Y110.4 E14.64896
M204 S5000
M205 X30 Y30
G0 F5400 X120.3 Y110.8
M204 S500
M205 X20 Y20
;TYPE:WALL-OUTER
G1 F1800 X120.3 Y113.7 E14.74541
G1 X127.3 Y113.7 E14.97823
G1 X127.3 Y125.3 E15.36405
G1 X124.5 Y125.3 E15.45718
G1 X124.5 Y115.3 E15.78978
G1 X110.5 Y115.3 E16.25542
G1 X110.5 Y125.3 E16.58802
G1 X107.7 Y125.3 E16.68115
G1 X107.7 Y113.7 E17.06697
G1 X114.7 Y113.7 E17.29979
G1 X114.7 Y110.8 E17.39624
G1 X113.2 Y110.8 E17.44613
G1 X113.2 Y109.7 E17.48272
G1 X121.8 Y109.7 E17.76876
G1 X121.8 Y110.8 E17.80534
G1 X120.3 Y110.8 E17.85523
M204 S5000
M205 X30 Y30
G0 F5400 X120.3 Y111
G0 X119.8 Y111
G0 X119.51 Y110.49
M204 S500
M205 X20 Y20
;TYPE:SKIN
G1 F1800 X119.51 Y114.49 E17.98827
G1 X126.51 Y114.49 E18.22109
G1 X126.51 Y124.51 E18.55436
G1 X125.29 Y124.51 E18.59494
G1 X125.29 Y114.51 E18.92754
G1 X109.71 Y114.51 E19.44573
G1 X109.71 Y124.51 E19.77833
G1 X108.49 Y124.51 E19.81891
G1 X108.49 Y114.49 E20.15218
G1 X115.49 Y114.49 E20.385
G1 X115.49 Y110.49 E20.51804
G1 X119.51 Y110.49 E20.65175
M204 S5000
M205 X30 Y30
G0 F5400 X115.128 Y114.128
G0 X108.67 Y114.775
M204 S500
M205 X20 Y20
G1 F1800 X108.776 Y114.669 E20.65673
M204 S5000
M205 X30 Y30
G0 F5400 X109.342 Y114.669
M204 S500
M205 X20 Y20
G1 F1800 X108.67 Y115.341 E20.68834
M204 S5000
M205 X30 Y30
G0 F5400 X108.67 Y115.906
M204 S500
M205 X20 Y20
G1 F1800 X109.529 Y115.047 E20.72874
M204 S5000
M205 X30 Y30
G0 F5400 X109.529 Y115.613
M204 S500
M205 X20 Y20
G1 F1800 X108.67 Y116.472 E20.76915
M204 S5000
M205 X30 Y30
G0 F5400 X108.67 Y117.038
M204 S500
M205 X20 Y20
G1 F1800 X109.529 Y116.179 E20.80955
M204 S5000
M205 X30 Y30
G0 F5400 X109.529 Y116.744
M204 S500
M205 X20 Y20
G1 F1800 X108.67 Y117.603 E20.84996
M204 S5000
M205 X30 Y30
G0 F5400 X108.67 Y118.169
M204 S500
M205 X20 Y20
G1 F1800 X109.529 Y117.31 E20.89036
M204 S5000
M205 X30 Y30
G0 F5400 X109.529 Y117.876
M204 S500
M205 X20 Y20
G1 F1800 X108.67 Y118.735 E20.93077
M204 S5000
M205 X30 Y30
G0 F5400 X108.67 Y119.3
M204 S500
M205 X20 Y20
G1 F1800 X109.529 Y118.441 E20.97117
M204 S5000
M205 X30 Y30
G0 F5400 X109.529 Y119.007
M204 S500
M205 X20 Y20
G1 F1800 X108.67 Y119.866 E21.01158
M204 S5000
M205 X30 Y30
G0 F5400 X108.67 Y120.432
M204 S500
M205 X20 Y20
G1 F1800 X109.529 Y119.573 E21.05198
M204 S5000
M205 X30 Y30
G0 F5400 X109.529 Y120.138
M204 S500
M205 X20 Y20
G1 F1800 X108.67 Y120.997 E21.09239
M204 S5000
M205 X30 Y30
G0 F5400 X108.67 Y121.563
M204 S500
M205 X20 Y20
G1 F1800 X109.529 Y120.704 E21.13279
M204 S5000
M205 X30 Y30
G0 F5400 X109.529 Y121.27
M204 S500
M205 X20 Y20
G1 F1800 X108.67 Y122.129 E21.1732
M204 S5000
M205 X30 Y30
G0 F5400 X108.67 Y122.695
M204 S500
M205 X20 Y20
G1 F1800 X109.529 Y121.835 E21.21362
M204 S5000
M205 X30 Y30
G0 F5400 X109.529 Y122.401
M204 S500
M205 X20 Y20
G1 F1800 X108.67 Y123.26 E21.25403
M204 S5000
M205 X30 Y30
G0 F5400 X108.67 Y123.826
M204 S500
M205 X20 Y20
G1 F1800 X109.529 Y122.967 E21.29443
M204 S5000
M205 X30 Y30
G0 F5400 X109.529 Y123.532
M204 S500
M205 X20 Y20
G1 F1800 X108.733 Y124.329 E21.3319
M204 S5000
M205 X30 Y30
G0 F5400 X109.298 Y124.329
M204 S500
M205 X20 Y20
G1 F1800 X109.529 Y124.098 E21.34276
M204 S5000
M205 X30 Y30
G0 F5400 X110.072 Y114.872
G0 X115.903 Y114.329
M204 S500
M205 X20 Y20
G1 F1800 X119.329 Y110.904 E21.50389
M204 S5000
M205 X30 Y30
G0 F5400 X118.998 Y110.669
M204 S500
M205 X20 Y20
G1 F1800 X115.669 Y113.999 E21.6605
M204 S5000
M205 X30 Y30
G0 F5400 X115.669 Y113.433
M204 S500
M205 X20 Y20
G1 F1800 X118.432 Y110.669 E21.79049
G1 X118.502 Y110.599
M204 S5000
M205 X30 Y30
G0 F5400 X119.329 Y111.47
M204 S500
M205 X20 Y20
G1 F1800 X116.469 Y114.329 E21.92499
M204 S5000
M205 X30 Y30
G0 F5400 X117.035 Y114.329
M204 S500
M205 X20 Y20
G1 F1800 X119.329 Y112.036 E22.03287
M204 S5000
M205 X30 Y30
G0 F5400 X119.329 Y112.601
M204 S500
M205 X20 Y20
G1 F1800 X117.601 Y114.329 E22.11415
M204 S5000
M205 X30 Y30
G0 F5400 X118.166 Y114.329
M204 S500
M205 X20 Y20
G1 F1800 X119.329 Y113.167 E22.16883
M204 S5000
M205 X30 Y30
G0 F5400 X119.329 Y113.733
M204 S500
M205 X20 Y20
G1 F1800 X118.732 Y114.329 E22.19688
G1 X118.662 Y114.399
M204 S5000
M205 X30 Y30
G0 F5400 X115.669 Y112.867
M204 S500
M205 X20 Y20
G1 F1800 X117.866 Y110.669 E22.30025
M204 S5000
M205 X30 Y30
G0 F5400 X117.301 Y110.669
M204 S500
M205 X20 Y20
G1 F1800 X115.669 Y112.301 E22.37701
M204 S5000
M205 X30 Y30
G0 F5400 X115.669 Y111.736
M204 S500
M205 X20 Y20
G1 F1800 X116.735 Y110.669 E22.42718
M204 S5000
M205 X30 Y30
G0 F5400 X116.169 Y110.669
M204 S500
M205 X20 Y20
G1 F1800 X115.669 Y111.17 E22.45072
M204 S5000
M205 X30 Y30
G0 F5400 X119.872 Y114.128
G0 X125.469 Y114.946
M204 S500
M205 X20 Y20
G1 F1800 X125.746 Y114.67 E22.46373
M204 S5000
M205 X30 Y30
G0 F5400 X126.311 Y114.67
M204 S500
M205 X20 Y20
G1 F1800 X125.469 Y115.512 E22.50333
M204 S5000
M205 X30 Y30
G0 F5400 X125.469 Y116.077
M204 S500
M205 X20 Y20
G1 F1800 X126.328 Y115.218 E22.54374
M204 S5000
M205 X30 Y30
G0 F5400 X126.328 Y115.784
M204 S500
M205 X20 Y20
G1 F1800 X125.469 Y116.643 E22.58414
M204 S5000
M205 X30 Y30
G0 F5400 X125.469 Y117.209
M204 S500
M205 X20 Y20
G1 F1800 X126.328 Y116.35 E22.62454
M204 S5000
M205 X30 Y30
G0 F5400 X126.328 Y116.915
M204 S500
M205 X20 Y20
G1 F1800 X125.469 Y117.774 E22.66495
M204 S5000
M205 X30 Y30
G0 F5400 X125.469 Y118.34
M204 S500
M205 X20 Y20
G1 F1800 X126.328 Y117.481 E22.70535
M204 S5000
M205 X30 Y30
G0 F5400 X126.328 Y118.047
M204 S500
M205 X20 Y20
G1 F1800 X125.469 Y118.906 E22.74576
M204 S5000
M205 X30 Y30
G0 F5400 X125.469 Y119.472
M204 S500
M205 X20 Y20
G1 F1800 X126.328 Y118.612 E22.78619
M204 S5000
M205 X30 Y30
G0 F5400 X126.328 Y119.178
M204 S500
M205 X20 Y20
G1 F1800 X125.469 Y120.037 E22.82659
M204 S5000
M205 X30 Y30
G0 F5400 X125.469 Y120.603
M204 S500
M205 X20 Y20
G1 F1800 X126.328 Y119.744 E22.867
M204 S5000
M205 X30 Y30
G0 F5400 X126.328 Y120.309
M204 S500
M205 X20 Y20
G1 F1800 X125.469 Y121.169 E22.90742
M204 S5000
M205 X30 Y30
G0 F5400 X125.469 Y121.734
M204 S500
M205 X20 Y20
G1 F1800 X126.328 Y120.875 E22.94783
M204 S5000
M205 X30 Y30
G0 F5400 X126.328 Y121.441
M204 S500
M205 X20 Y20
G1 F1800 X125.469 Y122.3 E22.98823
M204 S5000
M205 X30 Y30
G0 F5400 X125.469 Y122.866
M204 S500
M205 X20 Y20
G1 F1800 X126.328 Y122.007 E23.02864
M204 S5000
M205 X30 Y30
G0 F5400 X126.328 Y122.572
M204 S500
M205 X20 Y20
G1 F1800 X125.469 Y123.431 E23.06904
M204 S5000
M205 X30 Y30
G0 F5400 X125.469 Y123.997
M204 S500
M205 X20 Y20
G1 F1800 X126.328 Y123.138 E23.10945
M204 S5000
M205 X30 Y30
G0 F5400 X126.328 Y123.704
M204 S500
M205 X20 Y20
G1 F1800 X125.703 Y124.329 E23.13885
M204 S5000
M205 X30 Y30
G0 F5400 X126.268 Y124.329
M204 S500
M205 X20 Y20
G1 F1800 X126.328 Y124.269 E23.14167
M204 S5000
M205 X30 Y30
;MESH:NONMESH
G0 F5400 X126.872 Y114.128
G0 X119.872 Y114.128
G0 X119.83 Y110.33
G0 X119.9 Y110.4
;TIME_ELAPSED:37.592225
;LAYER:2
;MESH:CableCareerNozzleFooter.stl
G0 F7200 X119.9 Y110.4 Z0.6
M204 S500
M205 X20 Y20
;TYPE:WALL-INNER
G1 F3600 X119.9 Y114.1 E23.26473
G1 X126.9 Y114.1 E23.49755
G1 X126.9 Y124.9 E23.85676
G1 X124.9 Y124.9 E23.92328
G1 X124.9 Y114.9 E24.25588
G1 X110.1 Y114.9 E24.74813
G1 X110.1 Y124.9 E25.08073
G1 X108.1 Y124.9 E25.14726
G1 X108.1 Y114.1 E25.50646
G1 X115.1 Y114.1 E25.73929
G1 X115.1 Y110.4 E25.86235
G1 X113.6 Y110.4 E25.91224
G1 X113.6 Y110.1 E25.92222
G1 X115.1 Y110.1 E25.95963
G1 X119.9 Y110.1 E26.11928
G1 X121.4 Y110.1 E26.16917
G1 X121.4 Y110.4 E26.17915
G1 X119.9 Y110.4 E26.21657
M204 S5000
M205 X30 Y30
G0 F7200 X120.3 Y110.8
M204 S500
M205 X20 Y20
;TYPE:WALL-OUTER
