;FLAVOR:Marlin
;TIME:797
;Filament used: 0.535431m
;Layer height: 0.2
;Generated with Cura_SteamEngine 3.6.0
M140 S60
M105
M190 S60
M104 S200
M105
M109 S200
M82 ;absolute extrusion mode
; Ender 3 Custom Start G-code
G28 ; Home all axes
G92 E0 ; Reset Extruder
G1 Z2.0 F3000 ; Move Z Axis up little to prevent scratching of Heat Bed
G1 X0.1 Y20 Z0.3 F5000.0 ; Move to start position
G1 X0.1 Y200.0 Z0.3 F1500.0 E15 ; Draw the first line
G1 X0.4 Y200.0 Z0.3 F5000.0 ; Move to side a little
G1 X0.4 Y20 Z0.3 F1500.0 E30 ; Draw the second line
G92 E0 ; Reset Extruder
G1 Z2.0 F3000 ; Move Z Axis up little to prevent scratching of Heat Bed
; End of custom start GCode
G92 E0
G1 F2400 E-5
;LAYER_COUNT:56
;LAYER:0
M107
M204 S5000
M205 X30 Y30
G0 F3600 X101.787 Y102.671 Z0.2
M204 S500
M205 X20 Y20
;TYPE:SKIRT
G1 F2400 E0
G1 F1800 X102.318 Y102.192 E0.02379
G1 X102.9 Y101.775 E0.0476
G1 X103.232 Y101.578 E0.06044
G1 X103.68 Y101.33 E0.07747
G1 X104.325 Y101.019 E0.10129
G1 X104.999 Y100.782 E0.12505
G1 X105.648 Y100.63 E0.14722
G1 X106.11 Y100.547 E0.16283
G1 X106.82 Y100.46 E0.18662
G1 X107.711 Y100.463 E0.21626
G1 X115.106 Y101.006 E0.46288
G1 X119.276 Y101.099 E0.60161
G1 X123.198 Y101.061 E0.73206
G1 X128.717 Y100.813 E0.91581
G1 X129.044 Y100.807 E0.92669
G1 X130.662 Y100.817 E0.9805
G1 X131.375 Y100.862 E1.00426
G1 X132.08 Y100.985 E1.02807
G1 X132.766 Y101.187 E1.05185
G1 X133.426 Y101.464 E1.07566
G1 X134.05 Y101.813 E1.09944
G1 X134.632 Y102.229 E1.12323
G1 X135.171 Y102.715 E1.14737
G1 X135.458 Y103.005 E1.16094
G1 X135.932 Y103.541 E1.18474
G1 X136.343 Y104.126 E1.20852
G1 X136.686 Y104.754 E1.23232
G1 X136.958 Y105.415 E1.25609
G1 X137.153 Y106.103 E1.27988
G1 X137.271 Y106.809 E1.30368
G1 X137.309 Y107.531 E1.32773
G1 X137.304 Y108.885 E1.37276
G1 X137.294 Y109.225 E1.38408
G1 X136.981 Y114.728 E1.5674
G1 X136.97 Y120.053 E1.74451
G1 X137.299 Y127.203 E1.98258
G1 X137.292 Y127.918 E2.00636
G1 X137.205 Y128.628 E2.03015
G1 X137.04 Y129.324 E2.05394
G1 X136.797 Y129.997 E2.07774
G1 X136.482 Y130.639 E2.10152
G1 X136.096 Y131.241 E2.12531
G1 X135.472 Y131.982 E2.15753
G1 X135.195 Y132.264 E2.17068
G1 X134.666 Y132.745 E2.19446
G1 X134.086 Y133.165 E2.21827
G1 X133.464 Y133.517 E2.24205
G1 X132.806 Y133.797 E2.26583
G1 X132.121 Y134.003 E2.28962
G1 X131.417 Y134.13 E2.31341
G1 X130.639 Y134.179 E2.33934
G1 X128.099 Y134.183 E2.42382
G1 X127.714 Y134.172 E2.43663
G1 X124.555 Y133.987 E2.54188
G1 X120.508 Y133.901 E2.67652
G1 X116.593 Y133.939 E2.80674
G1 X111.215 Y134.243 E2.98589
G1 X108.107 Y134.536 E3.08972
G1 X107.392 Y134.563 E3.11352
G1 X106.345 Y134.458 E3.14852
G1 X105.489 Y134.3 E3.17747
G1 X104.794 Y134.131 E3.20126
G1 X104.122 Y133.885 E3.22506
G1 X103.482 Y133.566 E3.24885
G1 X102.882 Y133.178 E3.27261
G1 X102.227 Y132.631 E3.301
G1 X99.819 Y130.328 E3.41182
G1 X99.331 Y129.806 E3.43559
G1 X98.904 Y129.232 E3.45938
G1 X98.543 Y128.614 E3.48318
G1 X98.254 Y127.96 E3.50697
G1 X97.979 Y127.013 E3.53976
G1 X97.915 Y126.707 E3.55016
G1 X97.807 Y126 E3.57395
G1 X97.784 Y125.142 E3.6025
G1 X97.946 Y121.084 E3.73757
G1 X97.997 Y115.646 E3.91845
G1 X97.791 Y109.618 E4.11906
G1 X97.806 Y108.903 E4.14285
G1 X97.902 Y108.194 E4.16664
G1 X98.075 Y107.501 E4.1904
G1 X98.472 Y106.519 E4.22563
G1 X98.533 Y106.398 E4.23014
G1 X98.89 Y105.778 E4.25393
G1 X99.314 Y105.202 E4.27772
G1 X99.703 Y104.773 E4.29698
G1 X101.787 Y102.671 E4.39543
M204 S5000
M205 X30 Y30
G0 F3600 X102.071 Y102.953
M204 S500
M205 X20 Y20
G1 F1800 X102.586 Y102.49 E4.41846
G1 X103.426 Y101.928 E4.45208
G1 X103.874 Y101.68 E4.46911
G1 X104.498 Y101.38 E4.49214
G1 X105.153 Y101.154 E4.51518
G1 X105.719 Y101.024 E4.5345
G1 X106.181 Y100.941 E4.55011
G1 X106.869 Y100.858 E4.57316
G1 X107.681 Y100.862 E4.60017
G1 X115.086 Y101.406 E4.84712
G1 X119.271 Y101.499 E4.98635
G1 X123.22 Y101.461 E5.1177
G1 X128.735 Y101.213 E5.30132
G1 X129.041 Y101.207 E5.3115
G1 X130.659 Y101.217 E5.36531
G1 X131.35 Y101.261 E5.38834
G1 X132.032 Y101.385 E5.4114
G1 X132.694 Y101.586 E5.43441
G1 X133.329 Y101.863 E5.45745
G1 X133.928 Y102.21 E5.48047
G1 X134.483 Y102.624 E5.5035
G1 X134.887 Y102.996 E5.52177
G1 X135.174 Y103.286 E5.53534
G1 X135.632 Y103.806 E5.55839
G1 X136.027 Y104.375 E5.58143
G1 X136.353 Y104.985 E5.60443
G1 X136.608 Y105.63 E5.6275
G1 X136.786 Y106.299 E5.65052
G1 X136.886 Y106.984 E5.67355
G1 X136.909 Y107.529 E5.69169
G1 X136.904 Y108.883 E5.73673
G1 X136.894 Y109.202 E5.74734
G1 X136.581 Y114.704 E5.93063
G1 X136.57 Y120.05 E6.10844
G1 X136.9 Y127.221 E6.3472
G1 X136.891 Y127.914 E6.37025
G1 X136.804 Y128.601 E6.39329
G1 X136.637 Y129.273 E6.41632
G1 X136.394 Y129.922 E6.43937
G1 X136.078 Y130.538 E6.46239
G1 X135.693 Y131.114 E6.48544
G1 X135.186 Y131.702 E6.51126
G1 X134.909 Y131.984 E6.52441
G1 X134.396 Y132.449 E6.54744
G1 X133.833 Y132.852 E6.57046
G1 X133.227 Y133.187 E6.59349
G1 X132.587 Y133.451 E6.61652
G1 X131.92 Y133.638 E6.63956
G1 X131.237 Y133.748 E6.66257
G1 X130.638 Y133.779 E6.68252
G1 X128.098 Y133.783 E6.767
G1 X127.738 Y133.773 E6.77898
G1 X124.561 Y133.587 E6.88483
G1 X120.513 Y133.501 E7.01949
G1 X116.566 Y133.539 E7.15078
G1 X111.21 Y133.842 E7.3292
G1 X108.07 Y134.138 E7.4341
G1 X107.377 Y134.163 E7.45717
G1 X106.418 Y134.064 E7.48923
G1 X105.562 Y133.906 E7.51819
G1 X104.889 Y133.742 E7.54123
G1 X104.24 Y133.5 E7.56426
G1 X103.623 Y133.186 E7.58729
G1 X103.046 Y132.803 E7.61032
G1 X102.504 Y132.342 E7.63399
G1 X100.096 Y130.039 E7.74481
G1 X99.624 Y129.532 E7.76785
G1 X99.213 Y128.975 E7.79088
G1 X98.87 Y128.373 E7.81392
G1 X98.598 Y127.736 E7.83696
G1 X98.37 Y126.931 E7.86478
G1 X98.306 Y126.625 E7.87518
G1 X98.204 Y125.94 E7.89822
G1 X98.184 Y125.158 E7.92423
G1 X98.346 Y121.104 E8.05918
G1 X98.397 Y115.66 E8.24026
G1 X98.19 Y109.605 E8.44176
G1 X98.207 Y108.912 E8.46482
G1 X98.303 Y108.227 E8.48782
G1 X98.477 Y107.556 E8.51088
G1 X98.829 Y106.699 E8.5417
G1 X98.89 Y106.578 E8.5462
G1 X99.237 Y105.979 E8.56923
G1 X99.651 Y105.423 E8.59228
G1 X99.987 Y105.055 E8.60886
G1 X102.071 Y102.953 E8.70731
M204 S5000
M205 X30 Y30
G0 F3600 X102.355 Y103.234
M204 S500
M205 X20 Y20
G1 F1800 X102.854 Y102.788 E8.72957
G1 X103.62 Y102.278 E8.76017
G1 X104.068 Y102.03 E8.7772
G1 X104.671 Y101.741 E8.79944
G1 X105.305 Y101.527 E8.8217
G1 X105.79 Y101.417 E8.83824
G1 X106.252 Y101.334 E8.85385
G1 X106.916 Y101.255 E8.87609
G1 X107.652 Y101.261 E8.90057
G1 X115.049 Y101.804 E9.14726
G1 X119.297 Y101.899 E9.28859
G1 X123.241 Y101.861 E9.41977
G1 X128.752 Y101.613 E9.60325
G1 X129.039 Y101.607 E9.6128
G1 X130.657 Y101.617 E9.66662
G1 X131.324 Y101.661 E9.68885
G1 X131.982 Y101.785 E9.71112
G1 X132.62 Y101.986 E9.73337
G1 X133.23 Y102.261 E9.75562
G1 X133.802 Y102.607 E9.77786
G1 X134.329 Y103.02 E9.80013
G1 X134.602 Y103.278 E9.81262
G1 X134.889 Y103.568 E9.82619
G1 X135.331 Y104.071 E9.84846
G1 X135.709 Y104.622 E9.87069
G1 X136.019 Y105.215 E9.89294
G1 X136.256 Y105.841 E9.9152
G1 X136.416 Y106.491 E9.93747
G1 X136.498 Y107.155 E9.95972
G1 X136.509 Y107.528 E9.97213
G1 X136.504 Y108.882 E10.01717
G1 X136.495 Y109.179 E10.02705
G1 X136.181 Y114.698 E10.21091
G1 X136.17 Y120.068 E10.38952
G1 X136.5 Y127.24 E10.62831
G1 X136.491 Y127.909 E10.65056
G1 X136.402 Y128.572 E10.67281
G1 X136.234 Y129.22 E10.69508
G1 X135.991 Y129.843 E10.71732
G1 X135.675 Y130.432 E10.73955
G1 X135.291 Y130.98 E10.76181
G1 X134.901 Y131.421 E10.78139
G1 X134.624 Y131.703 E10.79454
G1 X134.128 Y132.152 E10.81679
G1 X133.581 Y132.538 E10.83905
G1 X132.993 Y132.856 E10.86129
G1 X132.37 Y133.101 E10.88355
G1 X131.723 Y133.271 E10.9058
G1 X131.06 Y133.362 E10.92806
G1 X130.638 Y133.379 E10.94211
G1 X128.098 Y133.383 E11.02659
G1 X127.761 Y133.373 E11.0378
G1 X124.592 Y133.187 E11.14339
G1 X120.517 Y133.101 E11.27895
G1 X116.561 Y133.139 E11.41053
G1 X111.148 Y133.446 E11.59086
G1 X108.032 Y133.739 E11.69496
G1 X107.363 Y133.762 E11.71722
G1 X106.491 Y133.671 E11.74638
G1 X105.635 Y133.513 E11.77533
G1 X104.985 Y133.352 E11.79761
G1 X104.359 Y133.116 E11.81986
G1 X103.766 Y132.806 E11.84211
G1 X103.215 Y132.428 E11.86434
G1 X102.78 Y132.053 E11.88344
G1 X100.372 Y129.75 E11.99426
G1 X99.917 Y129.26 E12.0165
G1 X99.524 Y128.718 E12.03877
G1 X99.198 Y128.134 E12.06101
G1 X98.944 Y127.515 E12.08327
G1 X98.762 Y126.849 E12.10623
G1 X98.698 Y126.543 E12.11663
G1 X98.6 Y125.882 E12.13886
G1 X98.583 Y125.174 E12.16241
G1 X98.746 Y121.091 E12.29832
G1 X98.797 Y115.65 E12.4793
G1 X98.59 Y109.591 E12.68094
G1 X98.607 Y108.922 E12.70319
G1 X98.704 Y108.26 E12.72545
G1 X98.879 Y107.615 E12.74768
G1 X99.187 Y106.879 E12.77421
G1 X99.248 Y106.758 E12.77872
G1 X99.584 Y106.18 E12.80096
G1 X99.987 Y105.646 E12.82321
G1 X100.271 Y105.336 E12.83719
G1 X102.355 Y103.234 E12.93564
M204 S5000
M205 X30 Y30
G0 F3600 X102.639 Y103.516
M204 S500
M205 X20 Y20
G1 F1800 X103.121 Y103.087 E12.9571
G1 X103.814 Y102.628 E12.98475
G1 X104.262 Y102.38 E13.00178
G1 X104.844 Y102.103 E13.02322
G1 X105.456 Y101.9 E13.04466
G1 X105.861 Y101.811 E13.05846
G1 X106.323 Y101.728 E13.07407
G1 X106.963 Y101.653 E13.0955
G1 X107.623 Y101.66 E13.11745
G1 X115.03 Y102.204 E13.36447
G1 X119.292 Y102.299 E13.50626
G1 X123.234 Y102.261 E13.63738
G1 X128.77 Y102.012 E13.8217
G1 X129.036 Y102.007 E13.83054
G1 X130.654 Y102.017 E13.88436
G1 X131.297 Y102.061 E13.9058
G1 X131.93 Y102.184 E13.92724
G1 X132.543 Y102.385 E13.9487
G1 X133.126 Y102.66 E13.97014
G1 X133.671 Y103.004 E13.99158
G1 X134.318 Y103.559 E14.01993
G1 X134.605 Y103.849 E14.0335
G1 X135.029 Y104.335 E14.05495
G1 X135.39 Y104.869 E14.07639
G1 X135.682 Y105.444 E14.09784
G1 X135.901 Y106.05 E14.11927
G1 X136.043 Y106.679 E14.14072
G1 X136.109 Y107.526 E14.16897
G1 X136.104 Y108.88 E14.21401
G1 X136.096 Y109.157 E14.22322
G1 X135.781 Y114.694 E14.40768
G1 X135.77 Y120.064 E14.58629
G1 X136.101 Y127.258 E14.82582
G1 X136.09 Y127.903 E14.84727
G1 X136 Y128.541 E14.8687
G1 X135.832 Y129.163 E14.89013
G1 X135.588 Y129.76 E14.91158
G1 X135.272 Y130.322 E14.93303
G1 X134.889 Y130.84 E14.95445
G1 X134.616 Y131.141 E14.96797
G1 X134.339 Y131.423 E14.98112
G1 X133.859 Y131.854 E15.00257
G1 X133.33 Y132.222 E15.02401
G1 X132.76 Y132.522 E15.04543
G1 X132.156 Y132.75 E15.0669
G1 X131.53 Y132.9 E15.08831
G1 X130.637 Y132.979 E15.11813
G1 X128.097 Y132.983 E15.20261
G1 X127.785 Y132.974 E15.21299
G1 X124.598 Y132.787 E15.31918
G1 X120.522 Y132.701 E15.45477
G1 X116.556 Y132.739 E15.58669
G1 X111.116 Y133.047 E15.76791
G1 X107.995 Y133.341 E15.87218
G1 X107.35 Y133.362 E15.89364
G1 X106.563 Y133.278 E15.91997
G1 X105.707 Y133.12 E15.94892
G1 X105.082 Y132.964 E15.97034
G1 X104.48 Y132.731 E15.99181
G1 X103.912 Y132.426 E16.01326
G1 X103.386 Y132.053 E16.0347
G1 X103.057 Y131.764 E16.04927
G1 X100.649 Y129.461 E16.16009
G1 X100.212 Y128.987 E16.18154
G1 X99.836 Y128.463 E16.20299
G1 X99.528 Y127.897 E16.22442
G1 X99.293 Y127.297 E16.24585
G1 X99.153 Y126.768 E16.26405
G1 X99.089 Y126.462 E16.27445
G1 X98.997 Y125.824 E16.29589
G1 X98.983 Y125.19 E16.31698
G1 X99.146 Y121.111 E16.45276
G1 X99.197 Y115.639 E16.63476
G1 X98.99 Y109.577 E16.8365
G1 X99.008 Y108.933 E16.85793
G1 X99.106 Y108.296 E16.87937
G1 X99.281 Y107.676 E16.90079
G1 X99.544 Y107.059 E16.9231
G1 X99.605 Y106.938 E16.92761
G1 X99.93 Y106.382 E16.94903
G1 X100.322 Y105.87 E16.97048
G1 X100.555 Y105.618 E16.98189
G1 X102.639 Y103.516 E17.08034
M204 S5000
M205 X30 Y30
G0 F3600 X106.498 Y107.293
M204 S500
M205 X20 Y20
;TYPE:SUPPORT
G1 F1800 X106.773 Y107.133 E17.09092
G1 X106.96 Y107.075 E17.09744
G1 X107.328 Y107.027 E17.10978
G1 X107.8 Y107.042 E17.12549
G1 X108.05 Y107.076 E17.13388
G1 X108.146 Y107.107 E17.13723
G1 X108.328 Y107.197 E17.14399
G1 X108.376 Y107.231 E17.14594
G1 X108.53 Y107.38 E17.15307
G1 X108.613 Y107.536 E17.15895
G1 X109.035 Y108.96 E17.20834
G1 X109.461 Y109.277 E17.22601
G1 X111.1 Y109.277 E17.28052
G1 X111.1 Y110.7 E17.32785
G1 X104.499 Y110.7 E17.5474
G1 X104.374 Y110.575 E17.55328
G1 X104.375 Y109.449 E17.59073
G1 X104.423 Y109.357 E17.59418
G1 X104.578 Y109.268 E17.60013
G1 X104.699 Y109.225 E17.6044
G1 X105.612 Y109.004 E17.63564
G1 X105.982 Y108.669 E17.65224
G1 X106.405 Y107.476 E17.69434
G1 X106.498 Y107.293 E17.70117
M204 S5000
M205 X30 Y30
G0 F3600 X106.68 Y107.372
M204 S500
M205 X20 Y20
G1 F1800 X106.68 Y110.54 E17.80654
M204 S5000
M205 X30 Y30
G0 F3600 X104.877 Y109.347
M204 S500
M205 X20 Y20
G1 F1800 X109.288 Y109.347 E17.95325
M204 S5000
M205 X30 Y30
G0 F3600 X109.347 Y109.392
M204 S500
M205 X20 Y20
G1 F1800 X109.347 Y110.54 E17.99143
M204 S5000
M205 X30 Y30
G0 F3600 X111.1 Y124.3
M204 S500
M205 X20 Y20
G1 F1800 X111.1 Y125.723 E18.03876
G1 X109.553 Y125.723 E18.09021
G1 X109.124 Y126.028 E18.10772
G1 X108.646 Y127.378 E18.15535
G1 X108.601 Y127.506 E18.15986
G1 X108.483 Y127.677 E18.16677
G1 X108.4 Y127.755 E18.17056
G1 X108.22 Y127.866 E18.1776
G1 X108.018 Y127.932 E18.18466
G1 X107.678 Y127.975 E18.19606
G1 X107.195 Y127.959 E18.21214
G1 X106.924 Y127.916 E18.22126
G1 X106.871 Y127.899 E18.22311
G1 X106.682 Y127.812 E18.23003
G1 X106.6 Y127.755 E18.23336
G1 X106.465 Y127.623 E18.23964
G1 X106.383 Y127.474 E18.24529
G1 X106.096 Y126.356 E18.28368
G1 X105.729 Y126 E18.30069
G1 X104.603 Y125.744 E18.3391
G1 X104.5 Y125.693 E18.34292
G1 X104.418 Y125.626 E18.34644
G1 X104.377 Y125.539 E18.34964
G1 X104.371 Y124.418 E18.38692
G1 X104.489 Y124.3 E18.39247
G1 X111.1 Y124.3 E18.61236
M204 S5000
M205 X30 Y30
G0 F3600 X110.939 Y125.349
M204 S500
M205 X20 Y20
G1 F1800 X104.535 Y125.349 E18.82536
M204 S5000
M205 X30 Y30
G0 F3600 X106.68 Y124.46
M204 S500
M205 X20 Y20
G1 F1800 X106.68 Y127.609 E18.93009
M204 S5000
M205 X30 Y30
G0 F3600 X109.347 Y125.674
M204 S500
M205 X20 Y20
G1 F1800 X109.347 Y124.46 E18.97047
M204 S5000
M205 X30 Y30
G1 F2400 E13.97047
G0 F3600 X112.843 Y128.161
G0 X127.657 Y128.161
G0 X128.161 Y127.657
G0 X128.4 Y125.914
M204 S500
M205 X20 Y20
G1 F2400 E18.97047
G1 F1800 X129.804 Y125.889 E19.01717
G1 X130.196 Y125.914 E19.03024
G1 X130.364 Y125.946 E19.03593
G1 X130.481 Y125.991 E19.0401
G1 X130.645 Y126.093 E19.04652
G1 X130.717 Y126.227 E19.05158
G1 X130.72 Y127.415 E19.09109
G1 X130.545 Y127.593 E19.09939
G1 X128.4 Y127.593 E19.17074
G1 X128.4 Y125.914 E19.22658
M204 S5000
M205 X30 Y30
G0 F3600 X129.141 Y109.136
M204 S500
M205 X20 Y20
G1 F1800 X128.4 Y109.091 E19.25127
G1 X128.4 Y107.407 E19.30728
G1 X130.544 Y107.407 E19.37859
G1 X130.719 Y107.585 E19.38689
G1 X130.716 Y108.774 E19.42644
G1 X130.644 Y108.906 E19.43144
G1 X130.474 Y109.013 E19.43812
G1 X130.36 Y109.053 E19.44214
G1 X130.201 Y109.084 E19.44753
G1 X130.066 Y109.094 E19.45203
G1 X130.037 Y109.073 E19.45322
G1 X129.141 Y109.136 E19.4831
M204 S5000
M205 X30 Y30
G1 F2400 E14.4831
;MESH:CableCareerNozzleHeader2.stl
G0 F3600 X126.88 Y109.136
G0 X122.33 Y110.03
G0 X122.4 Y110.1
M204 S500
M205 X20 Y20
;TYPE:WALL-INNER
G1 F2400 E19.4831
G1 F1800 X122.4 Y124.9 E19.97535
G1 X126.9 Y124.9 E20.12502
G1 X126.9 Y126.9 E20.19154
G1 X113.6 Y126.9 E20.6339
G1 X113.6 Y125.2 E20.69044
G1 X112.6 Y125.2 E20.7237
G1 X112.6 Y109.8 E21.23591
G1 X113.6 Y109.8 E21.26917
G1 X113.6 Y108.1 E21.32571
G1 X126.9 Y108.1 E21.76807
G1 X126.9 Y110.1 E21.83459
G1 X122.4 Y110.1 E21.98426
M204 S5000
M205 X30 Y30
G0 F3600 X122.8 Y110.5
M204 S500
M205 X20 Y20
;TYPE:WALL-OUTER
G1 F1800 X122.8 Y124.5 E22.4499
G1 X127.3 Y124.5 E22.59957
G1 X127.3 Y127.3 E22.6927
G1 X113.2 Y127.3 E23.16167
G1 X113.2 Y125.6 E23.21821
G1 X112.2 Y125.6 E23.25147
G1 X112.2 Y109.4 E23.79028
G1 X113.2 Y109.4 E23.82354
G1 X113.2 Y107.7 E23.88009
G1 X127.3 Y107.7 E24.34905
G1 X127.3 Y110.5 E24.44218
G1 X122.8 Y110.5 E24.59185
M204 S5000
M205 X30 Y30
G0 F3600 X122.8 Y110.7
G0 X122.3 Y110.7
G0 X122.01 Y109.71
M204 S500
M205 X20 Y20
;TYPE:SKIN
G1 F1800 X122.01 Y125.29 E25.11005
G1 X126.51 Y125.29 E25.25972
G1 X126.51 Y126.51 E25.30029
G1 X113.99 Y126.51 E25.71671
G1 X113.99 Y124.81 E25.77325
G1 X112.99 Y124.81 E25.80651
G1 X112.99 Y110.19 E26.29278
G1 X113.99 Y110.19 E26.32604
G1 X113.99 Y108.49 E26.38258
G1 X126.51 Y108.49 E26.799
G1 X126.51 Y109.71 E26.83957
G1 X122.01 Y109.71 E26.98924
M204 S5000
M205 X30 Y30
G0 F3600 X126.329 Y108.793
M204 S500
